( Made using CamBam - http://www.cambam.co.uk )
( multinoise_panel 12/30/2014 8:31:44 PM )
( T3 : 3.175 )
( T10 : 0.0 )
G21 G90 G61 G40
G0 Z3.0
( T10 : 0.0 )
T10 M6
( Engrave1 )
G17
M3 S1000
G0 X7.9217 Y47.2304
G0 Z0.405
G1 F1000.0 Z-0.005
G3 F2000.0 X8.581 Y47.1429 I0.6981 J2.7324
G3 X9.1873 Y47.2491 I0.0364 J1.575
G3 X9.6029 Y47.5366 I-0.398 J1.0195
G3 X9.8404 Y47.9616 I-0.8378 J0.747
G3 X9.9185 Y48.4804 I-1.6126 J0.5081
G1 Y49.8804
G3 X9.8217 Y50.3897 I-1.5359 J-0.0282
G3 X9.5717 Y50.8085 I-1.1738 J-0.4168
G3 X9.1842 Y51.096 I-0.8717 J-0.77
G3 X8.6779 Y51.2022 I-0.4883 J-1.0672
G3 X8.1654 Y51.1085 I-0.0116 J-1.3842
G3 X7.756 Y50.8366 I0.4147 J-1.0686
G3 X7.4842 Y50.4022 I0.907 J-0.87
G3 X7.3842 Y49.8179 I1.5191 J-0.5607
G3 X7.4904 Y49.2835 I1.2977 J-0.0197
G3 X7.7717 Y48.8804 I1.186 J0.5278
G3 X8.1873 Y48.6241 I0.8381 J0.8942
G3 X8.6967 Y48.5366 I0.5013 J1.3919
G3 X9.131 Y48.6116 I0.0029 J1.2785
G2 X8.6967 Y48.5366 I-0.4314 J1.2034
G2 X8.1873 Y48.6241 I-0.0081 J1.4792
G2 X7.7717 Y48.8804 I0.4224 J1.1503
G2 X7.4904 Y49.2835 I0.9047 J0.9309
G2 X7.3842 Y49.8179 I1.1914 J0.5146
G2 X7.4842 Y50.4022 I1.6192 J0.0237
G2 X7.756 Y50.8366 I1.179 J-0.4356
G2 X8.1654 Y51.1085 I0.8241 J-0.7967
G2 X8.6779 Y51.2022 I0.5009 J-1.2905
G2 X9.1842 Y51.096 I0.018 J-1.1734
G2 X9.5717 Y50.8085 I-0.4842 J-1.0575
G2 X9.8217 Y50.3897 I-0.9238 J-0.8355
G2 X9.9185 Y49.8804 I-1.4392 J-0.5376
G1 Y48.4804
G2 X9.8404 Y47.9616 I-1.6907 J-0.0106
G2 X9.6029 Y47.5366 I-1.0753 J0.3221
G2 X9.1873 Y47.2491 I-0.8136 J0.732
G2 X8.581 Y47.1429 I-0.5698 J1.4686
G2 X7.9217 Y47.2304 I0.0388 J2.8203
G0 Z3.0
G0 X11.0217 Y48.6116
G0 Z0.405
G1 F1000.0 Z-0.005
G1 F2000.0 Y49.8147
G2 X11.0935 Y50.421 I2.2637 J0.039
G2 X11.2967 Y50.8366 I1.1946 J-0.3264
G2 X11.5967 Y51.0804 I0.6628 J-0.5093
G2 X11.9685 Y51.1929 I0.5363 J-1.102
G3 X11.5967 Y51.0804 I0.1645 J-1.2145
G3 X11.2967 Y50.8366 I0.3628 J-0.753
G3 X11.0935 Y50.421 I0.9913 J-0.7419
G3 X11.0217 Y49.8147 I2.1915 J-0.5672
G1 Y48.6116
G0 Z3.0
G0 Y48.6147
G0 Z0.405
G1 F1000.0 Z-0.005
G1 F2000.0 Y51.121
G1 Y48.6147
G0 Z3.0
G0 X14.4623 Y48.6585
G0 Z0.405
G1 F1000.0 Z-0.005
G2 F2000.0 X13.9842 Y48.5366 I-0.4518 J0.7736
G2 X13.4592 Y48.6366 I-0.0138 J1.3559
G2 X13.0467 Y48.9147 I0.4806 J1.1578
G2 X12.7779 Y49.3397 I0.9595 J0.9042
G2 X12.6842 Y49.8835 I1.4292 J0.5264
G2 X12.7779 Y50.4179 I1.4638 J0.0186
G2 X13.0467 Y50.8366 I1.1633 J-0.451
G2 X13.4592 Y51.1147 I0.8931 J-0.8797
G2 X13.9842 Y51.2147 I0.5112 J-1.2559
G2 X14.4967 Y51.1272 I0.0177 J-1.441
G2 X14.8998 Y50.8866 I-0.4208 J-1.1629
G2 X15.1623 Y50.5147 I-0.6702 J-0.7517
G2 X15.256 Y50.0366 I-1.0948 J-0.4629
G1 Y48.6147
G1 Y50.0366
G3 X15.1623 Y50.5147 I-1.1885 J0.0152
G3 X14.8998 Y50.8866 I-0.9328 J-0.3798
G3 X14.4967 Y51.1272 I-0.8239 J-0.9222
G3 X13.9842 Y51.2147 I-0.4948 J-1.3535
G3 X13.4592 Y51.1147 I-0.0138 J-1.3559
G3 X13.0467 Y50.8366 I0.4806 J-1.1578
G3 X12.7779 Y50.4179 I0.8946 J-0.8697
G3 X12.6842 Y49.8835 I1.3701 J-0.5158
G3 X12.7779 Y49.3397 I1.5228 J-0.0174
G3 X13.0467 Y48.9147 I1.2282 J0.4792
G3 X13.4592 Y48.6366 I0.8931 J0.8797
G3 X13.9842 Y48.5366 I0.5112 J1.2559
G3 X14.4623 Y48.6585 I0.0263 J0.8955
G0 Z3.0
G0 X16.6842 Y48.6147
G0 Z0.405
G1 F1000.0 Z-0.005
G1 F2000.0 Y51.121
G1 Y48.6147
G0 Z3.0
G0 X18.1435
G0 Z0.405
G1 F1000.0 Z-0.005
G1 F2000.0 Y50.1241
G2 X18.206 Y50.5116 I1.2562 J-0.0038
G2 X18.4029 Y50.8616 I0.9835 J-0.3228
G2 X18.7248 Y51.1116 I0.7851 J-0.6786
G2 X19.1748 Y51.2085 I0.4293 J-0.9006
G2 X19.6185 Y51.1116 I0.0206 J-0.9704
G2 X19.9404 Y50.8616 I-0.4345 J-0.8916
G2 X20.1342 Y50.5116 I-0.8177 J-0.6813
G2 X20.2029 Y50.1241 I-1.084 J-0.3922
G1 Y48.6147
G1 Y50.1241
G3 X20.1342 Y50.5116 I-1.1527 J-0.0047
G3 X19.9404 Y50.8616 I-1.0114 J-0.3312
G3 X19.6185 Y51.1116 I-0.7563 J-0.6416
G3 X19.1748 Y51.2085 I-0.4232 J-0.8735
G3 X18.7248 Y51.1116 I-0.0207 J-0.9974
G3 X18.4029 Y50.8616 I0.4631 J-0.9285
G3 X18.206 Y50.5116 I0.7866 J-0.6729
G3 X18.1435 Y50.1241 I1.194 J-0.3914
G1 Y48.6147
G0 Z3.0
G0 X21.6623
G0 Z0.405
G1 F1000.0 Z-0.005
G1 F2000.0 Y51.121
G1 Y48.6147
G0 Z3.0
G0 X23.1217
G0 Z0.405
G1 F1000.0 Z-0.005
G1 F2000.0 Y50.1241
G2 X23.1842 Y50.5116 I1.2562 J-0.0038
G2 X23.381 Y50.8616 I0.9835 J-0.3228
G2 X23.7029 Y51.1116 I0.7851 J-0.6786
G2 X24.1529 Y51.2085 I0.4293 J-0.9006
G2 X24.5967 Y51.1116 I0.0206 J-0.9704
G2 X24.9185 Y50.8616 I-0.4345 J-0.8916
G2 X25.1123 Y50.5116 I-0.8177 J-0.6813
G2 X25.181 Y50.1241 I-1.084 J-0.3922
G1 Y48.6147
G1 Y50.1241
G3 X25.1123 Y50.5116 I-1.1527 J-0.0047
G3 X24.9185 Y50.8616 I-1.0114 J-0.3312
G3 X24.5967 Y51.1116 I-0.7563 J-0.6416
G3 X24.1529 Y51.2085 I-0.4232 J-0.8735
G3 X23.7029 Y51.1116 I-0.0207 J-0.9974
G3 X23.381 Y50.8616 I0.4631 J-0.9285
G3 X23.1842 Y50.5116 I0.7866 J-0.6729
G3 X23.1217 Y50.1241 I1.194 J-0.3914
G1 Y48.6147
G0 Z3.0
G0 X26.2815 Y49.4762
G0 Z0.405
G1 F1000.0 Z-0.005
G2 F2000.0 X26.231 Y49.871 I1.3869 J0.3781
G2 X26.331 Y50.4085 I1.4053 J0.0166
G2 X26.6029 Y50.8304 I1.1916 J-0.4694
G2 X27.0154 Y51.1054 I0.8437 J-0.8187
G2 X27.5373 Y51.2022 I0.5091 J-1.2886
G2 X28.2185 Y51.0272 I0.0192 J-1.3386
G2 X28.4659 Y50.8345 I-0.4907 J-0.8849
G2 X28.631 Y50.5679 I-0.6028 J-0.5578
G1 X27.081 Y49.7085
G1 X28.631 Y50.5679
G3 X28.2185 Y51.0272 I-0.827 J-0.3277
G3 X27.5373 Y51.2022 I-0.662 J-1.1636
G3 X27.0154 Y51.1054 I-0.0127 J-1.3856
G3 X26.6029 Y50.8304 I0.4312 J-1.0936
G3 X26.331 Y50.4085 I0.9197 J-0.8912
G3 X26.231 Y49.871 I1.3052 J-0.5209
G3 X26.331 Y49.3272 I1.4376 J-0.0167
G3 X26.6029 Y48.9054 I1.2294 J0.4937
G3 X27.0154 Y48.6335 I0.8509 J0.8422
G3 X27.5373 Y48.5397 I0.5088 J1.3326
G3 X27.9492 Y48.5933 I0.0117 J1.5198
G3 X28.3248 Y48.771 I-0.326 J1.1751
G3 X28.6166 Y49.0748 I-0.6492 J0.9158
G3 X28.7904 Y49.4585 I-1.2153 J0.7816
G2 X28.6166 Y49.0748 I-1.3894 J0.398
G2 X28.3248 Y48.771 I-0.941 J0.612
G2 X27.5373 Y48.5397 I-0.7517 J1.1035
G2 X27.0154 Y48.6335 I-0.0131 J1.4265
G2 X26.6029 Y48.9054 I0.4384 J1.114
G2 X26.331 Y49.3272 I0.9574 J0.9155
G2 X26.2815 Y49.4762 I1.3375 J0.527
G0 Z3.0
G0 X29.7717 Y48.6147
G0 Z0.405
G1 F1000.0 Z-0.005
G1 F2000.0 X31.0654
G3 X31.3209 Y48.6396 I0.0127 J1.1933
G3 X31.556 Y48.7429 I-0.114 J0.5789
G3 X31.6914 Y48.9402 I-0.2439 J0.3125
G3 X31.7248 Y49.1772 I-0.7302 J0.2235
G3 X31.6909 Y49.3717 I-0.5309 J0.0077
G3 X31.5779 Y49.5335 I-0.3911 J-0.1528
G3 X31.2185 Y49.7491 I-0.7614 J-0.8616
G3 X30.7529 Y49.896 I-1.1506 J-2.8362
G2 X30.2842 Y50.0397 I0.9841 J4.0451
G2 X29.9279 Y50.2491 I0.438 J1.1531
G2 X29.7842 Y50.5835 I0.2774 J0.3173
G2 X29.8404 Y50.8616 I0.5946 J0.0245
G2 X29.9967 Y51.0241 I0.3696 J-0.1991
G2 X30.2248 Y51.1022 I0.3104 J-0.5342
G2 X30.4873 Y51.1241 I0.2602 J-1.5359
G1 X31.5842
G1 X30.4873
G3 X30.2248 Y51.1022 I-0.0024 J-1.5569
G3 X29.9967 Y51.0241 I0.0823 J-0.6124
G3 X29.8404 Y50.8616 I0.2134 J-0.3616
G3 X29.7842 Y50.5835 I0.5384 J-0.2536
G3 X29.9279 Y50.2491 I0.4211 J-0.017
G3 X30.2842 Y50.0397 I0.7943 J0.9438
G3 X30.7529 Y49.896 I1.4532 J3.9024
G2 X31.2185 Y49.7491 I-0.6849 J-2.9828
G2 X31.5779 Y49.5335 I-0.402 J-1.0774
G2 X31.7248 Y49.1772 I-0.3076 J-0.3352
G2 X31.6914 Y48.9402 I-0.7632 J-0.0135
G2 X31.556 Y48.7429 I-0.3793 J0.1152
G2 X31.3209 Y48.6396 I-0.3491 J0.4757
G2 X31.0654 Y48.6147 I-0.2429 J1.169
G1 X29.7717
G0 Z3.0
G0 X32.6123
G0 Z0.405
G1 F1000.0 Z-0.005
G1 F2000.0 X33.906
G3 X34.1616 Y48.6396 I0.0127 J1.1933
G3 X34.3967 Y48.7429 I-0.114 J0.5789
G3 X34.5321 Y48.9402 I-0.2439 J0.3125
G3 X34.5654 Y49.1772 I-0.7302 J0.2235
G3 X34.5315 Y49.3717 I-0.5309 J0.0077
G3 X34.4185 Y49.5335 I-0.3911 J-0.1528
G3 X34.0592 Y49.7491 I-0.7614 J-0.8616
G3 X33.5935 Y49.896 I-1.1506 J-2.8362
G2 X33.1248 Y50.0397 I0.9841 J4.0451
G2 X32.7685 Y50.2491 I0.438 J1.1531
G2 X32.6248 Y50.5835 I0.2774 J0.3173
G2 X32.681 Y50.8616 I0.5946 J0.0245
G2 X32.8373 Y51.0241 I0.3696 J-0.1991
G2 X33.0654 Y51.1022 I0.3104 J-0.5342
G2 X33.3279 Y51.1241 I0.2602 J-1.5359
G1 X34.4248
G1 X33.3279
G3 X33.0654 Y51.1022 I-0.0024 J-1.5569
G3 X32.8373 Y51.0241 I0.0823 J-0.6124
G3 X32.681 Y50.8616 I0.2134 J-0.3616
G3 X32.6248 Y50.5835 I0.5384 J-0.2536
G3 X32.7685 Y50.2491 I0.4211 J-0.017
G3 X33.1248 Y50.0397 I0.7943 J0.9438
G3 X33.5935 Y49.896 I1.4532 J3.9024
G2 X34.0592 Y49.7491 I-0.6849 J-2.9828
G2 X34.4185 Y49.5335 I-0.402 J-1.0774
G2 X34.5654 Y49.1772 I-0.3076 J-0.3352
G2 X34.5321 Y48.9402 I-0.7632 J-0.0135
G2 X34.3967 Y48.7429 I-0.3793 J0.1152
G2 X34.1616 Y48.6396 I-0.3491 J0.4757
G2 X33.906 Y48.6147 I-0.2429 J1.169
G1 X32.6123
G0 Z3.0
G0 X21.7189 Y52.0745
G0 Z0.405
G1 F1000.0 Z-0.005
G3 F2000.0 X21.7217 Y52.0897 I-0.0565 J0.018
G3 X21.6623 Y52.1491 I-0.052 J0.0074
G3 X21.606 Y52.0897 I-0.0058 J-0.0509
G3 X21.6185 Y52.0522 I0.0675 J0.0017
G3 X21.6623 Y52.0335 I0.039 J0.0306
G3 X21.706 Y52.0522 I0.0048 J0.0493
G3 X21.7189 Y52.0745 I-0.0436 J0.0402
G3 X21.7217 Y52.0897 I-0.0565 J0.018
G3 X21.6623 Y52.1491 I-0.052 J0.0074
G3 X21.606 Y52.0897 I-0.0058 J-0.0509
G3 X21.6185 Y52.0522 I0.0675 J0.0017
G3 X21.6623 Y52.0335 I0.039 J0.0306
G3 X21.706 Y52.0522 I0.0048 J0.0493
G3 X21.7189 Y52.0745 I-0.0436 J0.0402
G2 X21.706 Y52.0522 I-0.0565 J0.018
G2 X21.6623 Y52.0335 I-0.039 J0.0306
G2 X21.6185 Y52.0522 I-0.0048 J0.0493
G2 X21.606 Y52.0897 I0.055 J0.0392
G2 X21.6623 Y52.1491 I0.0505 J0.0085
G2 X21.7217 Y52.0897 I0.0074 J-0.052
G2 X21.7189 Y52.0745 I-0.0593 J0.0027
G2 X21.706 Y52.0522 I-0.0565 J0.018
G2 X21.6623 Y52.0335 I-0.039 J0.0306
G2 X21.6185 Y52.0522 I-0.0048 J0.0493
G2 X21.606 Y52.0897 I0.055 J0.0392
G2 X21.6623 Y52.1491 I0.0505 J0.0085
G2 X21.7217 Y52.0897 I0.0074 J-0.052
G2 X21.7189 Y52.0745 I-0.0593 J0.0027
G0 Z3.0
G0 X16.7441 Y52.0969
G0 Z0.405
G1 F1000.0 Z-0.005
G2 F2000.0 X16.7435 Y52.0897 I-0.0525 J0.0002
G2 X16.7279 Y52.0522 I-0.0593 J0.0027
G2 X16.6842 Y52.0335 I-0.039 J0.0306
G2 X16.6404 Y52.0522 I-0.0048 J0.0493
G2 X16.6279 Y52.0897 I0.055 J0.0392
G2 X16.6842 Y52.1491 I0.0505 J0.0085
G2 X16.7441 Y52.0969 I0.0074 J-0.052
G3 X16.6842 Y52.1491 I-0.0525 J0.0002
G3 X16.6279 Y52.0897 I-0.0058 J-0.0509
G3 X16.6404 Y52.0522 I0.0675 J0.0017
G3 X16.6842 Y52.0335 I0.039 J0.0306
G3 X16.7279 Y52.0522 I0.0048 J0.0493
G3 X16.7435 Y52.0897 I-0.0436 J0.0402
G3 X16.7441 Y52.0969 I-0.052 J0.0074
G3 X16.6842 Y52.1491 I-0.0525 J0.0002
G3 X16.6279 Y52.0897 I-0.0058 J-0.0509
G3 X16.6404 Y52.0522 I0.0675 J0.0017
G3 X16.6842 Y52.0335 I0.039 J0.0306
G3 X16.7279 Y52.0522 I0.0048 J0.0493
G3 X16.7435 Y52.0897 I-0.0436 J0.0402
G3 X16.7441 Y52.0969 I-0.052 J0.0074
G2 X16.7435 Y52.0897 I-0.0525 J0.0002
G2 X16.7279 Y52.0522 I-0.0593 J0.0027
G2 X16.6842 Y52.0335 I-0.039 J0.0306
G2 X16.6404 Y52.0522 I-0.0048 J0.0493
G2 X16.6279 Y52.0897 I0.055 J0.0392
G2 X16.6842 Y52.1491 I0.0505 J0.0085
G2 X16.7441 Y52.0969 I0.0074 J-0.052
G0 Z3.0
G0 X21.1851 Y32.1247
G0 Z0.405
G1 F1000.0 Z-0.005
G3 F2000.0 X21.8445 Y32.0372 I0.6981 J2.7324
G3 X22.4508 Y32.1435 I0.0364 J1.575
G3 X22.8664 Y32.431 I-0.398 J1.0195
G3 X23.1039 Y32.856 I-0.8378 J0.747
G3 X23.182 Y33.3747 I-1.6126 J0.5081
G1 Y34.7747
G3 X23.0851 Y35.2841 I-1.5359 J-0.0282
G3 X22.8351 Y35.7029 I-1.1738 J-0.4168
G3 X22.4476 Y35.9904 I-0.8717 J-0.77
G3 X21.9414 Y36.0966 I-0.4883 J-1.0672
G3 X21.4289 Y36.0029 I-0.0116 J-1.3842
G3 X21.0195 Y35.731 I0.4147 J-1.0686
G3 X20.7476 Y35.2966 I0.907 J-0.87
G3 X20.6476 Y34.7122 I1.5191 J-0.5607
G3 X20.7539 Y34.1779 I1.2977 J-0.0197
G3 X21.0351 Y33.7747 I1.186 J0.5278
G3 X21.4508 Y33.5185 I0.8381 J0.8942
G3 X21.9601 Y33.431 I0.5013 J1.3919
G3 X22.3945 Y33.506 I0.0029 J1.2785
G2 X21.9601 Y33.431 I-0.4314 J1.2034
G2 X21.4508 Y33.5185 I-0.0081 J1.4792
G2 X21.0351 Y33.7747 I0.4224 J1.1503
G2 X20.7539 Y34.1779 I0.9047 J0.9309
G2 X20.6476 Y34.7122 I1.1914 J0.5146
G2 X20.7476 Y35.2966 I1.6192 J0.0237
G2 X21.0195 Y35.731 I1.179 J-0.4356
G2 X21.4289 Y36.0029 I0.8241 J-0.7967
G2 X21.9414 Y36.0966 I0.5009 J-1.2905
G2 X22.4476 Y35.9904 I0.018 J-1.1734
G2 X22.8351 Y35.7029 I-0.4842 J-1.0575
G2 X23.0851 Y35.2841 I-0.9238 J-0.8355
G2 X23.182 Y34.7747 I-1.4392 J-0.5376
G1 Y33.3747
G2 X23.1039 Y32.856 I-1.6907 J-0.0106
G2 X22.8664 Y32.431 I-1.0753 J0.3221
G2 X22.4508 Y32.1435 I-0.8136 J0.732
G2 X21.8445 Y32.0372 I-0.5698 J1.4686
G2 X21.1851 Y32.1247 I0.0388 J2.8203
G0 Z3.0
G0 X24.2851 Y33.506
G0 Z0.405
G1 F1000.0 Z-0.005
G1 F2000.0 Y34.7091
G2 X24.357 Y35.3154 I2.2637 J0.039
G2 X24.5601 Y35.731 I1.1946 J-0.3264
G2 X24.8601 Y35.9747 I0.6628 J-0.5093
G2 X25.232 Y36.0872 I0.5363 J-1.102
G3 X24.8601 Y35.9747 I0.1645 J-1.2145
G3 X24.5601 Y35.731 I0.3628 J-0.753
G3 X24.357 Y35.3154 I0.9913 J-0.7419
G3 X24.2851 Y34.7091 I2.1915 J-0.5672
G1 Y33.506
G0 Z3.0
G0 Y33.5091
G0 Z0.405
G1 F1000.0 Z-0.005
G1 F2000.0 Y36.0154
G1 Y33.5091
G0 Z3.0
G0 X27.7258 Y33.5529
G0 Z0.405
G1 F1000.0 Z-0.005
G2 F2000.0 X27.2476 Y33.431 I-0.4518 J0.7736
G2 X26.7226 Y33.531 I-0.0138 J1.3559
G2 X26.3101 Y33.8091 I0.4806 J1.1578
G2 X26.0414 Y34.2341 I0.9595 J0.9042
G2 X25.9476 Y34.7779 I1.4292 J0.5264
G2 X26.0414 Y35.3122 I1.4638 J0.0186
G2 X26.3101 Y35.731 I1.1633 J-0.451
G2 X26.7226 Y36.0091 I0.8931 J-0.8797
G2 X27.2476 Y36.1091 I0.5112 J-1.2559
G2 X27.7601 Y36.0216 I0.0177 J-1.441
G2 X28.1633 Y35.781 I-0.4208 J-1.1629
G2 X28.4258 Y35.4091 I-0.6702 J-0.7517
G2 X28.5195 Y34.931 I-1.0948 J-0.4629
G1 Y33.5091
G1 Y34.931
G3 X28.4258 Y35.4091 I-1.1885 J0.0152
G3 X28.1633 Y35.781 I-0.9328 J-0.3798
G3 X27.7601 Y36.0216 I-0.8239 J-0.9222
G3 X27.2476 Y36.1091 I-0.4948 J-1.3535
G3 X26.7226 Y36.0091 I-0.0138 J-1.3559
G3 X26.3101 Y35.731 I0.4806 J-1.1578
G3 X26.0414 Y35.3122 I0.8946 J-0.8697
G3 X25.9476 Y34.7779 I1.3701 J-0.5158
G3 X26.0414 Y34.2341 I1.5228 J-0.0174
G3 X26.3101 Y33.8091 I1.2282 J0.4792
G3 X26.7226 Y33.531 I0.8931 J0.8797
G3 X27.2476 Y33.431 I0.5112 J1.2559
G3 X27.7258 Y33.5529 I0.0263 J0.8955
G0 Z3.0
G0 X29.9476 Y33.5091
G0 Z0.405
G1 F1000.0 Z-0.005
G1 F2000.0 Y36.0154
G1 Y33.5091
G0 Z3.0
G0 X31.407
G0 Z0.405
G1 F1000.0 Z-0.005
G1 F2000.0 Y35.0185
G2 X31.4695 Y35.406 I1.2562 J-0.0038
G2 X31.6664 Y35.756 I0.9835 J-0.3228
G2 X31.9883 Y36.006 I0.7851 J-0.6786
G2 X32.4383 Y36.1029 I0.4293 J-0.9006
G2 X32.882 Y36.006 I0.0206 J-0.9704
G2 X33.2039 Y35.756 I-0.4345 J-0.8916
G2 X33.3976 Y35.406 I-0.8177 J-0.6813
G2 X33.4664 Y35.0185 I-1.084 J-0.3922
G1 Y33.5091
G1 Y35.0185
G3 X33.3976 Y35.406 I-1.1527 J-0.0047
G3 X33.2039 Y35.756 I-1.0114 J-0.3312
G3 X32.882 Y36.006 I-0.7563 J-0.6416
G3 X32.4383 Y36.1029 I-0.4232 J-0.8735
G3 X31.9883 Y36.006 I-0.0207 J-0.9974
G3 X31.6664 Y35.756 I0.4631 J-0.9285
G3 X31.4695 Y35.406 I0.7866 J-0.6729
G3 X31.407 Y35.0185 I1.194 J-0.3914
G1 Y33.5091
G0 Z3.0
G0 X34.6414 Y34.456
G0 Z0.405
G1 F1000.0 Z-0.005
G3 F2000.0 X34.7039 Y34.0529 I1.2508 J-0.0125
G3 X34.8914 Y33.7279 I0.8879 J0.2956
G3 X35.2008 Y33.5091 I0.6658 J0.6135
G3 X35.6383 Y33.431 I0.4149 J1.0594
G3 X36.0726 Y33.5091 I0.0237 J1.1147
G3 X36.3851 Y33.7279 I-0.3475 J0.829
G3 X36.5726 Y34.0529 I-0.7003 J0.6206
G3 X36.6383 Y34.456 I-1.1307 J0.391
G1 Y35.9997
G1 Y34.456
G2 X36.5726 Y34.0529 I-1.1961 J-0.0122
G2 X36.3851 Y33.7279 I-0.8879 J0.2956
G2 X36.0726 Y33.5091 I-0.66 J0.6103
G2 X35.6383 Y33.431 I-0.4107 J1.0367
G2 X35.2008 Y33.5091 I-0.0226 J1.1375
G2 X34.8914 Y33.7279 I0.3564 J0.8323
G2 X34.7039 Y34.0529 I0.7003 J0.6206
G2 X34.6414 Y34.456 I1.1883 J0.3906
G1 Y35.9997
G1 Y34.456
G0 Z3.0
G0 X35.6383 Y33.431
G0 Z0.005
G1 F1000.0 Z-0.005
G1 F2000.0 Y32.131
G1 Y33.431
G0 Z3.0
G0 X29.9981 Y36.9554
G0 Z0.405
G1 F1000.0 Z-0.005
G3 F2000.0 X30.007 Y36.9841 I-0.0503 J0.0314
G3 X29.9476 Y37.0435 I-0.052 J0.0074
G3 X29.8914 Y36.9841 I-0.0058 J-0.0509
G3 X29.9039 Y36.9466 I0.0675 J0.0017
G3 X29.9476 Y36.9279 I0.039 J0.0306
G3 X29.9914 Y36.9466 I0.0048 J0.0493
G3 X29.9981 Y36.9554 I-0.0436 J0.0402
G3 X30.007 Y36.9841 I-0.0503 J0.0314
G3 X29.9476 Y37.0435 I-0.052 J0.0074
G3 X29.8914 Y36.9841 I-0.0058 J-0.0509
G3 X29.9039 Y36.9466 I0.0675 J0.0017
G3 X29.9476 Y36.9279 I0.039 J0.0306
G3 X29.9914 Y36.9466 I0.0048 J0.0493
G3 X29.9981 Y36.9554 I-0.0436 J0.0402
G2 X29.9914 Y36.9466 I-0.0503 J0.0314
G2 X29.9476 Y36.9279 I-0.039 J0.0306
G2 X29.9039 Y36.9466 I-0.0048 J0.0493
G2 X29.8914 Y36.9841 I0.055 J0.0392
G2 X29.9476 Y37.0435 I0.0505 J0.0085
G2 X30.007 Y36.9841 I0.0074 J-0.052
G2 X29.9981 Y36.9554 I-0.0593 J0.0027
G2 X29.9914 Y36.9466 I-0.0503 J0.0314
G2 X29.9476 Y36.9279 I-0.039 J0.0306
G2 X29.9039 Y36.9466 I-0.0048 J0.0493
G2 X29.8914 Y36.9841 I0.055 J0.0392
G2 X29.9476 Y37.0435 I0.0505 J0.0085
G2 X30.007 Y36.9841 I0.0074 J-0.052
G2 X29.9981 Y36.9554 I-0.0593 J0.0027
G0 Z3.0
G0 X34.2612 Y11.257
G0 Z0.405
G1 F1000.0 Z-0.005
G1 F2000.0 Y8.657
G3 X34.2947 Y8.3757 I1.0622 J-0.0163
G3 X34.4393 Y8.132 I0.4707 J0.1147
G3 X34.6694 Y8.0119 I0.3925 J0.4714
G3 X34.9268 Y7.9789 I0.2468 J0.9045
G1 X35.3643
G1 X34.9268
G2 X34.6694 Y8.0119 I-0.0106 J0.9374
G2 X34.4393 Y8.132 I0.1625 J0.5916
G2 X34.2947 Y8.3757 I0.326 J0.3583
G2 X34.2612 Y8.657 I1.0289 J0.2651
G1 Y11.257
G0 Z3.0
G0 Y10.5008
G0 Z0.405
G1 F1000.0 Z-0.005
G1 F2000.0 X35.3643
G1 X34.2612
G0 Z3.0
G0 X36.2987 Y10.4851
G0 Z0.405
G1 F1000.0 Z-0.005
G1 F2000.0 Y7.9789
G1 Y10.4851
G0 Z3.0
G0 Y9.1789
G0 Z0.405
G1 F1000.0 Z-0.005
G2 F2000.0 X36.3706 Y9.7851 I2.2637 J0.039
G2 X36.5737 Y10.2008 I1.1946 J-0.3264
G2 X36.8737 Y10.4445 I0.6628 J-0.5093
G2 X37.2456 Y10.557 I0.5363 J-1.102
G3 X36.8737 Y10.4445 I0.1645 J-1.2145
G3 X36.5737 Y10.2008 I0.3628 J-0.753
G3 X36.3706 Y9.7851 I0.9913 J-0.7419
G3 X36.2987 Y9.1789 I2.1915 J-0.5672
G1 Y7.9758
G1 Y9.1789
G0 Z3.0
G0 X38.4018 Y7.9789
G0 Z0.405
G1 F1000.0 Z-0.005
G1 F2000.0 Y10.4851
G1 Y7.9789
G0 Z3.0
G0 X40.3143 Y6.5945
G0 Z0.405
G1 F1000.0 Z-0.005
G3 F2000.0 X40.9737 Y6.507 I0.6981 J2.7324
G3 X41.5799 Y6.6133 I0.0364 J1.575
G3 X41.9956 Y6.9008 I-0.398 J1.0195
G3 X42.2331 Y7.3258 I-0.8378 J0.747
G3 X42.3112 Y7.8445 I-1.6126 J0.5081
G1 Y9.2445
G3 X42.2143 Y9.7539 I-1.5359 J-0.0282
G3 X41.9643 Y10.1726 I-1.1738 J-0.4168
G3 X41.5768 Y10.4601 I-0.8717 J-0.77
G3 X41.0706 Y10.5664 I-0.4883 J-1.0672
G3 X40.5581 Y10.4726 I-0.0116 J-1.3842
G3 X40.1487 Y10.2008 I0.4147 J-1.0686
G3 X39.8768 Y9.7664 I0.907 J-0.87
G3 X39.7768 Y9.182 I1.5191 J-0.5607
G3 X39.8831 Y8.6476 I1.2977 J-0.0197
G3 X40.1643 Y8.2445 I1.186 J0.5278
G3 X40.5799 Y7.9883 I0.8381 J0.8942
G3 X41.0893 Y7.9008 I0.5013 J1.3919
G3 X41.5237 Y7.9758 I0.0029 J1.2785
G2 X41.0893 Y7.9008 I-0.4314 J1.2034
G2 X40.5799 Y7.9883 I-0.0081 J1.4792
G2 X40.1643 Y8.2445 I0.4224 J1.1503
G2 X39.8831 Y8.6476 I0.9047 J0.9309
G2 X39.7768 Y9.182 I1.1914 J0.5146
G2 X39.8768 Y9.7664 I1.6192 J0.0237
G2 X40.1487 Y10.2008 I1.179 J-0.4356
G2 X40.5581 Y10.4726 I0.8241 J-0.7967
G2 X41.0706 Y10.5664 I0.5009 J-1.2905
G2 X41.5768 Y10.4601 I0.018 J-1.1734
G2 X41.9643 Y10.1726 I-0.4842 J-1.0575
G2 X42.2143 Y9.7539 I-0.9238 J-0.8355
G2 X42.3112 Y9.2445 I-1.4392 J-0.5376
G1 Y7.8445
G2 X42.2331 Y7.3258 I-1.6907 J-0.0106
G2 X41.9956 Y6.9008 I-1.0753 J0.3221
G2 X41.5799 Y6.6133 I-0.8136 J0.732
G2 X40.9737 Y6.507 I-0.5698 J1.4686
G2 X40.3143 Y6.5945 I0.0388 J2.8203
G0 Z3.0
G0 X43.8737
G0 Z0.405
G1 F1000.0 Z-0.005
G3 F2000.0 X44.5331 Y6.507 I0.6981 J2.7324
G3 X45.1393 Y6.6133 I0.0364 J1.575
G3 X45.5549 Y6.9008 I-0.398 J1.0195
G3 X45.7924 Y7.3258 I-0.8378 J0.747
G3 X45.8706 Y7.8445 I-1.6126 J0.5081
G1 Y9.2445
G3 X45.7737 Y9.7539 I-1.5359 J-0.0282
G3 X45.5237 Y10.1726 I-1.1738 J-0.4168
G3 X45.1362 Y10.4601 I-0.8717 J-0.77
G3 X44.6299 Y10.5664 I-0.4883 J-1.0672
G3 X44.1174 Y10.4726 I-0.0116 J-1.3842
G3 X43.7081 Y10.2008 I0.4147 J-1.0686
G3 X43.4362 Y9.7664 I0.907 J-0.87
G3 X43.3362 Y9.182 I1.5191 J-0.5607
G3 X43.4424 Y8.6476 I1.2977 J-0.0197
G3 X43.7237 Y8.2445 I1.186 J0.5278
G3 X44.1393 Y7.9883 I0.8381 J0.8942
G3 X44.6487 Y7.9008 I0.5013 J1.3919
G3 X45.0831 Y7.9758 I0.0029 J1.2785
G2 X44.6487 Y7.9008 I-0.4314 J1.2034
G2 X44.1393 Y7.9883 I-0.0081 J1.4792
G2 X43.7237 Y8.2445 I0.4224 J1.1503
G2 X43.4424 Y8.6476 I0.9047 J0.9309
G2 X43.3362 Y9.182 I1.1914 J0.5146
G2 X43.4362 Y9.7664 I1.6192 J0.0237
G2 X43.7081 Y10.2008 I1.179 J-0.4356
G2 X44.1174 Y10.4726 I0.8241 J-0.7967
G2 X44.6299 Y10.5664 I0.5009 J-1.2905
G2 X45.1362 Y10.4601 I0.018 J-1.1734
G2 X45.5237 Y10.1726 I-0.4842 J-1.0575
G2 X45.7737 Y9.7539 I-0.9238 J-0.8355
G2 X45.8706 Y9.2445 I-1.4392 J-0.5376
G1 Y7.8445
G2 X45.7924 Y7.3258 I-1.6907 J-0.0106
G2 X45.5549 Y6.9008 I-1.0753 J0.3221
G2 X45.1393 Y6.6133 I-0.8136 J0.732
G2 X44.5331 Y6.507 I-0.5698 J1.4686
G2 X43.8737 Y6.5945 I0.0388 J2.8203
G0 Z3.0
G0 X47.0808 Y8.5067
G0 Z0.405
G1 F1000.0 Z-0.005
G2 F2000.0 X46.9893 Y8.6914 I1.1378 J0.6784
G2 X46.8893 Y9.2351 I1.3375 J0.527
G2 X46.9893 Y9.7726 I1.4053 J0.0166
G2 X47.2612 Y10.1945 I1.1916 J-0.4694
G2 X47.6737 Y10.4695 I0.8437 J-0.8187
G2 X48.1956 Y10.5664 I0.5091 J-1.2886
G2 X48.8768 Y10.3914 I0.0192 J-1.3386
G2 X49.1242 Y10.1986 I-0.4907 J-0.8849
G2 X49.2893 Y9.932 I-0.6028 J-0.5578
G1 X47.7393 Y9.0726
G1 X49.2893 Y9.932
G3 X48.8768 Y10.3914 I-0.827 J-0.3277
G3 X48.1956 Y10.5664 I-0.662 J-1.1636
G3 X47.6737 Y10.4695 I-0.0127 J-1.3856
G3 X47.2612 Y10.1945 I0.4312 J-1.0936
G3 X46.9893 Y9.7726 I0.9197 J-0.8912
G3 X46.8893 Y9.2351 I1.3052 J-0.5209
G3 X46.9893 Y8.6914 I1.4376 J-0.0167
G3 X47.2612 Y8.2695 I1.2294 J0.4937
G3 X47.6737 Y7.9976 I0.8509 J0.8422
G3 X48.1956 Y7.9039 I0.5088 J1.3326
G3 X48.6075 Y7.9575 I0.0117 J1.5198
G3 X48.9831 Y8.1351 I-0.326 J1.1751
G3 X49.2749 Y8.4389 I-0.6492 J0.9158
G3 X49.4487 Y8.8226 I-1.2153 J0.7816
G2 X49.2749 Y8.4389 I-1.3894 J0.398
G2 X48.9831 Y8.1351 I-0.941 J0.612
G2 X48.1956 Y7.9039 I-0.7517 J1.1035
G2 X47.6737 Y7.9976 I-0.0131 J1.4265
G2 X47.2612 Y8.2695 I0.4384 J1.114
G2 X47.0808 Y8.5067 I0.9574 J0.9155
G0 Z3.0
G0 X50.5331 Y9.1789
G0 Z0.405
G1 F1000.0 Z-0.005
G2 F2000.0 X50.6049 Y9.7851 I2.2637 J0.039
G2 X50.8081 Y10.2008 I1.1946 J-0.3264
G2 X51.1081 Y10.4445 I0.6628 J-0.5093
G2 X51.4799 Y10.557 I0.5363 J-1.102
G3 X51.1081 Y10.4445 I0.1645 J-1.2145
G3 X50.8081 Y10.2008 I0.3628 J-0.753
G3 X50.6049 Y9.7851 I0.9913 J-0.7419
G3 X50.5331 Y9.1789 I2.1915 J-0.5672
G1 Y7.9758
G1 Y9.1789
G0 Z3.0
G0 Y10.4851
G0 Z0.405
G1 F1000.0 Z-0.005
G1 F2000.0 Y7.9789
G1 Y10.4851
G0 Z3.0
G0 X53.5018 Y7.9789
G0 Z0.405
G1 F1000.0 Z-0.005
G3 F2000.0 X53.7574 Y8.0038 I0.0127 J1.1933
G3 X53.9924 Y8.107 I-0.114 J0.5789
G3 X54.1279 Y8.3044 I-0.2439 J0.3125
G3 X54.1612 Y8.5414 I-0.7302 J0.2235
G3 X54.1273 Y8.7358 I-0.5309 J0.0077
G3 X54.0143 Y8.8976 I-0.3911 J-0.1528
G3 X53.6549 Y9.1133 I-0.7614 J-0.8616
G3 X53.1893 Y9.2601 I-1.1506 J-2.8362
G2 X52.7206 Y9.4039 I0.9841 J4.0451
G2 X52.3643 Y9.6133 I0.438 J1.1531
G2 X52.2206 Y9.9476 I0.2774 J0.3173
G2 X52.2768 Y10.2258 I0.5946 J0.0245
G2 X52.4331 Y10.3883 I0.3696 J-0.1991
G2 X52.6612 Y10.4664 I0.3104 J-0.5342
G2 X52.9237 Y10.4883 I0.2602 J-1.5359
G1 X54.0206
G1 X52.9237
G3 X52.6612 Y10.4664 I-0.0024 J-1.5569
G3 X52.4331 Y10.3883 I0.0823 J-0.6124
G3 X52.2768 Y10.2258 I0.2134 J-0.3616
G3 X52.2206 Y9.9476 I0.5384 J-0.2536
G3 X52.3643 Y9.6133 I0.4211 J-0.017
G3 X52.7206 Y9.4039 I0.7943 J0.9438
G3 X53.1893 Y9.2601 I1.4532 J3.9024
G2 X53.6549 Y9.1133 I-0.6849 J-2.9828
G2 X54.0143 Y8.8976 I-0.402 J-1.0774
G2 X54.1612 Y8.5414 I-0.3076 J-0.3352
G2 X54.1279 Y8.3044 I-0.7632 J-0.0135
G2 X53.9924 Y8.107 I-0.3793 J0.1152
G2 X53.7574 Y8.0038 I-0.3491 J0.4757
G2 X53.5018 Y7.9789 I-0.2429 J1.169
G1 X52.2081
G1 X53.5018
G0 Z3.0
G0 X38.4597 Y11.4433
G0 Z0.405
G1 F1000.0 Z-0.005
G3 F2000.0 X38.4612 Y11.4539 I-0.0578 J0.0133
G3 X38.4018 Y11.5133 I-0.052 J0.0074
G3 X38.3456 Y11.4539 I-0.0058 J-0.0509
G3 X38.3581 Y11.4164 I0.0675 J0.0017
G3 X38.4018 Y11.3976 I0.039 J0.0306
G3 X38.4456 Y11.4164 I0.0048 J0.0493
G3 X38.4597 Y11.4433 I-0.0436 J0.0402
G3 X38.4612 Y11.4539 I-0.0578 J0.0133
G3 X38.4018 Y11.5133 I-0.052 J0.0074
G3 X38.3456 Y11.4539 I-0.0058 J-0.0509
G3 X38.3581 Y11.4164 I0.0675 J0.0017
G3 X38.4018 Y11.3976 I0.039 J0.0306
G3 X38.4456 Y11.4164 I0.0048 J0.0493
G3 X38.4597 Y11.4433 I-0.0436 J0.0402
G2 X38.4456 Y11.4164 I-0.0578 J0.0133
G2 X38.4018 Y11.3976 I-0.039 J0.0306
G2 X38.3581 Y11.4164 I-0.0048 J0.0493
G2 X38.3456 Y11.4539 I0.055 J0.0392
G2 X38.4018 Y11.5133 I0.0505 J0.0085
G2 X38.4612 Y11.4539 I0.0074 J-0.052
G2 X38.4597 Y11.4433 I-0.0593 J0.0027
G2 X38.4456 Y11.4164 I-0.0578 J0.0133
G2 X38.4018 Y11.3976 I-0.039 J0.0306
G2 X38.3581 Y11.4164 I-0.0048 J0.0493
G2 X38.3456 Y11.4539 I0.055 J0.0392
G2 X38.4018 Y11.5133 I0.0505 J0.0085
G2 X38.4612 Y11.4539 I0.0074 J-0.052
G2 X38.4597 Y11.4433 I-0.0593 J0.0027
G0 Z3.0
G0 X23.6648 Y10.5117
G0 Z0.405
G1 F1000.0 Z-0.005
G1 F2000.0 X22.5679
G3 X22.3054 Y10.4898 I-0.0024 J-1.5569
G3 X22.0773 Y10.4117 I0.0823 J-0.6124
G3 X21.921 Y10.2492 I0.2134 J-0.3616
G3 X21.8648 Y9.9711 I0.5384 J-0.2536
G3 X22.0085 Y9.6367 I0.4211 J-0.017
G3 X22.3648 Y9.4273 I0.7943 J0.9438
G3 X22.8335 Y9.2836 I1.4532 J3.9024
G2 X23.2991 Y9.1367 I-0.6849 J-2.9828
G2 X23.6585 Y8.9211 I-0.402 J-1.0774
G2 X23.8054 Y8.5648 I-0.3076 J-0.3352
G2 X23.7721 Y8.3278 I-0.7632 J-0.0135
G2 X23.6366 Y8.1305 I-0.3793 J0.1152
G2 X23.4016 Y8.0272 I-0.3491 J0.4757
G2 X23.146 Y8.0023 I-0.2429 J1.169
G1 X21.8523
G1 X23.146
G3 X23.4016 Y8.0272 I0.0127 J1.1933
G3 X23.6366 Y8.1305 I-0.114 J0.5789
G3 X23.7721 Y8.3278 I-0.2439 J0.3125
G3 X23.8054 Y8.5648 I-0.7302 J0.2235
G3 X23.7715 Y8.7593 I-0.5309 J0.0077
G3 X23.6585 Y8.9211 I-0.3911 J-0.1528
G3 X23.2991 Y9.1367 I-0.7614 J-0.8616
G3 X22.8335 Y9.2836 I-1.1506 J-2.8362
G2 X22.3648 Y9.4273 I0.9841 J4.0451
G2 X22.0085 Y9.6367 I0.438 J1.1531
G2 X21.8648 Y9.9711 I0.2774 J0.3173
G2 X21.921 Y10.2492 I0.5946 J0.0245
G2 X22.0773 Y10.4117 I0.3696 J-0.1991
G2 X22.3054 Y10.4898 I0.3104 J-0.5342
G2 X22.5679 Y10.5117 I0.2602 J-1.5359
G1 X23.6648
G0 Z3.0
G0 X20.871 Y8.8461
G0 Z0.405
G1 F1000.0 Z-0.005
G2 F2000.0 X20.6972 Y8.4624 I-1.3894 J0.398
G2 X20.4054 Y8.1586 I-0.941 J0.612
G2 X19.6179 Y7.9273 I-0.7517 J1.1035
G2 X19.096 Y8.0211 I-0.0131 J1.4265
G2 X18.6835 Y8.293 I0.4384 J1.114
G2 X18.4116 Y8.7148 I0.9574 J0.9155
G2 X18.3116 Y9.2586 I1.3375 J0.527
G2 X18.4116 Y9.7961 I1.4053 J0.0166
G2 X18.6835 Y10.218 I1.1916 J-0.4694
G2 X19.096 Y10.493 I0.8437 J-0.8187
G2 X19.6179 Y10.5898 I0.5091 J-1.2886
G2 X20.2991 Y10.4148 I0.0192 J-1.3386
G2 X20.5465 Y10.2221 I-0.4907 J-0.8849
G2 X20.7116 Y9.9555 I-0.6028 J-0.5578
G1 X19.1616 Y9.0961
G1 X20.7116 Y9.9555
G3 X20.2991 Y10.4148 I-0.827 J-0.3277
G3 X19.6179 Y10.5898 I-0.662 J-1.1636
G3 X19.096 Y10.493 I-0.0127 J-1.3856
G3 X18.6835 Y10.218 I0.4312 J-1.0936
G3 X18.4116 Y9.7961 I0.9197 J-0.8912
G3 X18.3116 Y9.2586 I1.3052 J-0.5209
G3 X18.4116 Y8.7148 I1.4376 J-0.0167
G3 X18.6835 Y8.293 I1.2294 J0.4937
G3 X19.096 Y8.0211 I0.8509 J0.8422
G3 X19.6179 Y7.9273 I0.5088 J1.3326
G3 X20.0298 Y7.981 I0.0117 J1.5198
G3 X20.4054 Y8.1586 I-0.326 J1.1751
G3 X20.6972 Y8.4624 I-0.6492 J0.9158
G3 X20.871 Y8.8461 I-1.2153 J0.7816
G0 Z3.0
G0 X17.4616 Y8.0023
G0 Z0.405
G1 F1000.0 Z-0.005
G1 F2000.0 X17.0241
G2 X16.7667 Y8.0354 I-0.0106 J0.9374
G2 X16.5366 Y8.1555 I0.1625 J0.5916
G2 X16.392 Y8.3991 I0.326 J0.3583
G2 X16.3585 Y8.6805 I1.0289 J0.2651
G1 Y11.2805
G1 Y8.6805
G3 X16.392 Y8.3991 I1.0622 J-0.0163
G3 X16.5366 Y8.1555 I0.4707 J0.1147
G3 X16.7667 Y8.0354 I0.3925 J0.4714
G3 X17.0241 Y8.0023 I0.2468 J0.9045
G1 X17.4616
G0 Z3.0
G0 X15.1616
G0 Z0.405
G1 F1000.0 Z-0.005
G1 F2000.0 Y9.4242
G3 X15.0679 Y9.9023 I-1.1885 J0.0152
G3 X14.8054 Y10.2742 I-0.9328 J-0.3798
G3 X14.4023 Y10.5148 I-0.8239 J-0.9222
G3 X13.8898 Y10.6023 I-0.4948 J-1.3535
G3 X13.3648 Y10.5023 I-0.0138 J-1.3559
G3 X12.9523 Y10.2242 I0.4806 J-1.1578
G3 X12.6835 Y9.8055 I0.8946 J-0.8697
G3 X12.5898 Y9.2711 I1.3701 J-0.5158
G3 X12.6835 Y8.7273 I1.5228 J-0.0174
G3 X12.9523 Y8.3023 I1.2282 J0.4792
G3 X13.3648 Y8.0242 I0.8931 J0.8797
G3 X13.8898 Y7.9242 I0.5112 J1.2559
G3 X14.3679 Y8.0461 I0.0263 J0.8955
G2 X13.8898 Y7.9242 I-0.4518 J0.7736
G2 X13.3648 Y8.0242 I-0.0138 J1.3559
G2 X12.9523 Y8.3023 I0.4806 J1.1578
G2 X12.6835 Y8.7273 I0.9595 J0.9042
G2 X12.5898 Y9.2711 I1.4292 J0.5264
G2 X12.6835 Y9.8055 I1.4638 J0.0186
G2 X12.9523 Y10.2242 I1.1633 J-0.451
G2 X13.3648 Y10.5023 I0.8931 J-0.8797
G2 X13.8898 Y10.6023 I0.5112 J-1.2559
G2 X14.4023 Y10.5148 I0.0177 J-1.441
G2 X14.8054 Y10.2742 I-0.4208 J-1.1629
G2 X15.0679 Y9.9023 I-0.6702 J-0.7517
G2 X15.1616 Y9.4242 I-1.0948 J-0.4629
G1 Y8.0023
G0 Z3.0
G0 X16.3585 Y10.5242
G0 Z0.405
G1 F1000.0 Z-0.005
G1 F2000.0 X17.4616
G1 X16.3585
G0 Z3.0
G0 X11.5715 Y9.547
G0 Z0.405
G1 F1000.0 Z-0.005
G3 F2000.0 X11.5054 Y9.7773 I-1.5052 J-0.3073
G3 X11.2554 Y10.1961 I-1.1738 J-0.4168
G3 X10.8679 Y10.4836 I-0.8717 J-0.77
G3 X10.3616 Y10.5898 I-0.4883 J-1.0672
G3 X9.8491 Y10.4961 I-0.0116 J-1.3842
G3 X9.4398 Y10.2242 I0.4147 J-1.0686
G3 X9.1679 Y9.7898 I0.907 J-0.87
G3 X9.0679 Y9.2055 I1.5191 J-0.5607
G3 X9.1741 Y8.6711 I1.2977 J-0.0197
G3 X9.4554 Y8.268 I1.186 J0.5278
G3 X9.871 Y8.0117 I0.8381 J0.8942
G3 X10.3804 Y7.9242 I0.5013 J1.3919
G3 X10.8148 Y7.9992 I0.0029 J1.2785
G2 X10.3804 Y7.9242 I-0.4314 J1.2034
G2 X9.871 Y8.0117 I-0.0081 J1.4792
G2 X9.4554 Y8.268 I0.4224 J1.1503
G2 X9.1741 Y8.6711 I0.9047 J0.9309
G2 X9.0679 Y9.2055 I1.1914 J0.5146
G2 X9.1679 Y9.7898 I1.6192 J0.0237
G2 X9.4398 Y10.2242 I1.179 J-0.4356
G2 X9.8491 Y10.4961 I0.8241 J-0.7967
G2 X10.3616 Y10.5898 I0.5009 J-1.2905
G2 X10.8679 Y10.4836 I0.018 J-1.1734
G2 X11.2554 Y10.1961 I-0.4842 J-1.0575
G2 X11.5054 Y9.7773 I-0.9238 J-0.8355
G2 X11.6023 Y9.268 I-1.4392 J-0.5376
G1 Y7.868
G2 X11.5241 Y7.3492 I-1.6907 J-0.0106
G2 X11.2866 Y6.9242 I-1.0753 J0.3221
G2 X10.871 Y6.6367 I-0.8136 J0.732
G2 X10.2648 Y6.5305 I-0.5698 J1.4686
G2 X9.6054 Y6.618 I0.0388 J2.8203
G3 X10.2648 Y6.5305 I0.6981 J2.7324
G3 X10.871 Y6.6367 I0.0364 J1.575
G3 X11.2866 Y6.9242 I-0.398 J1.0195
G3 X11.5241 Y7.3492 I-0.8378 J0.747
G3 X11.6023 Y7.868 I-1.6126 J0.5081
G1 Y9.268
G3 X11.5715 Y9.547 I-1.5359 J-0.0282
G0 Z3.0
G0 X11.0804 Y73.715
G0 Z0.405
G1 F1000.0 Z-0.005
G1 F2000.0 X9.8772
G2 X9.271 Y73.7869 I-0.039 J2.2637
G2 X8.8554 Y73.99 I0.3264 J1.1946
G2 X8.6116 Y74.29 I0.5093 J0.6628
G2 X8.4991 Y74.6619 I1.102 J0.5363
G3 X8.6116 Y74.29 I1.2145 J0.1645
G3 X8.8554 Y73.99 I0.753 J0.3628
G3 X9.271 Y73.7869 I0.7419 J0.9913
G3 X9.8772 Y73.715 I0.5672 J2.1915
G1 X11.0804
G0 Z3.0
G0 X11.0772
G0 Z0.405
G1 F1000.0 Z-0.005
G1 F2000.0 X8.571
G1 X11.0772
G0 Z3.0
G0 X10.3703 Y75.5078
G0 Z0.405
G1 F1000.0 Z-0.005
G2 F2000.0 X10.3647 Y75.5056 I-0.4704 J1.193
G2 X9.821 Y75.4088 I-0.5267 J1.3818
G2 X9.2835 Y75.5056 I-0.017 J1.4454
G2 X8.8616 Y75.7744 I0.4423 J1.1599
G2 X8.5866 Y76.1869 I0.8187 J0.8437
G2 X8.4897 Y76.7088 I1.2886 J0.5091
G2 X8.5866 Y77.2306 I1.3856 J0.0127
G2 X8.8616 Y77.6431 I1.0936 J-0.4312
G2 X9.2835 Y77.9119 I0.8641 J-0.891
G2 X9.821 Y78.0088 I0.5205 J-1.3485
G2 X10.3647 Y77.9119 I0.017 J-1.4788
G2 X10.7866 Y77.6431 I-0.4649 J-1.1953
G2 X11.0585 Y77.2306 I-0.8422 J-0.8509
G2 X11.1522 Y76.7088 I-1.3326 J-0.5088
G2 X11.0585 Y76.1869 I-1.4265 J-0.0131
G2 X10.7866 Y75.7744 I-1.114 J0.4384
G2 X10.3703 Y75.5078 I-0.8867 J0.9265
G2 X10.3647 Y75.5056 I-0.4704 J1.193
G2 X9.821 Y75.4088 I-0.5267 J1.3818
G2 X9.2835 Y75.5056 I-0.017 J1.4454
G2 X8.8616 Y75.7744 I0.4423 J1.1599
G2 X8.5866 Y76.1869 I0.8187 J0.8437
G2 X8.4897 Y76.7088 I1.2886 J0.5091
G2 X8.5866 Y77.2306 I1.3856 J0.0127
G2 X8.8616 Y77.6431 I1.0936 J-0.4312
G2 X9.2835 Y77.9119 I0.8641 J-0.891
G2 X9.821 Y78.0088 I0.5205 J-1.3485
G2 X10.3647 Y77.9119 I0.017 J-1.4788
G2 X10.7866 Y77.6431 I-0.4649 J-1.1953
G2 X11.0585 Y77.2306 I-0.8422 J-0.8509
G2 X11.1522 Y76.7088 I-1.3326 J-0.5088
G2 X11.0585 Y76.1869 I-1.4265 J-0.0131
G2 X10.7866 Y75.7744 I-1.114 J0.4384
G2 X10.3703 Y75.5078 I-0.8867 J0.9265
G3 X10.7866 Y75.7744 I-0.4705 J1.1931
G3 X11.0585 Y76.1869 I-0.8422 J0.8509
G3 X11.1522 Y76.7088 I-1.3326 J0.5088
G3 X11.0585 Y77.2306 I-1.4265 J0.0131
G3 X10.7866 Y77.6431 I-1.114 J-0.4384
G3 X10.3647 Y77.9119 I-0.8867 J-0.9265
G3 X9.821 Y78.0088 I-0.5267 J-1.3818
G3 X9.2835 Y77.9119 I-0.017 J-1.4454
G3 X8.8616 Y77.6431 I0.4423 J-1.1599
G3 X8.5866 Y77.2306 I0.8187 J-0.8437
G3 X8.4897 Y76.7088 I1.2886 J-0.5091
G3 X8.5866 Y76.1869 I1.3856 J-0.0127
G3 X8.8616 Y75.7744 I1.0936 J0.4312
G3 X9.2835 Y75.5056 I0.8641 J0.891
G3 X9.821 Y75.4088 I0.5205 J1.3485
G3 X10.3647 Y75.5056 I0.017 J1.4788
G3 X10.3703 Y75.5078 I-0.4649 J1.1953
G3 X10.7866 Y75.7744 I-0.4705 J1.1931
G3 X11.0585 Y76.1869 I-0.8422 J0.8509
G3 X11.1522 Y76.7088 I-1.3326 J0.5088
G3 X11.0585 Y77.2306 I-1.4265 J0.0131
G3 X10.7866 Y77.6431 I-1.114 J-0.4384
G3 X10.3647 Y77.9119 I-0.8867 J-0.9265
G3 X9.821 Y78.0088 I-0.5267 J-1.3818
G3 X9.2835 Y77.9119 I-0.017 J-1.4454
G3 X8.8616 Y77.6431 I0.4423 J-1.1599
G3 X8.5866 Y77.2306 I0.8187 J-0.8437
G3 X8.4897 Y76.7088 I1.2886 J-0.5091
G3 X8.5866 Y76.1869 I1.3856 J-0.0127
G3 X8.8616 Y75.7744 I1.0936 J0.4312
G3 X9.2835 Y75.5056 I0.8641 J0.891
G3 X9.821 Y75.4088 I0.5205 J1.3485
G3 X10.3647 Y75.5056 I0.017 J1.4788
G3 X10.3703 Y75.5078 I-0.4649 J1.1953
G0 Z3.0
G0 X9.9923 Y78.9459
G0 Z0.405
G1 F1000.0 Z-0.005
G3 F2000.0 X10.3522 Y79.0306 I-0.1664 J1.5137
G3 X10.7772 Y79.2994 I-0.4792 J1.2282
G3 X11.0554 Y79.7119 I-0.8797 J0.8931
G3 X11.1554 Y80.2369 I-1.2559 J0.5112
G3 X11.0335 Y80.715 I-0.8955 J0.0263
G2 X11.1554 Y80.2369 I-0.7736 J-0.4518
G2 X11.0554 Y79.7119 I-1.3559 J-0.0138
G2 X10.7772 Y79.2994 I-1.1578 J0.4806
G2 X10.3522 Y79.0306 I-0.9042 J0.9595
G2 X9.8085 Y78.9369 I-0.5264 J1.4292
G2 X9.2741 Y79.0306 I-0.0186 J1.4638
G2 X8.8554 Y79.2994 I0.451 J1.1633
G2 X8.5772 Y79.7119 I0.8797 J0.8931
G2 X8.4772 Y80.2369 I1.2559 J0.5112
G2 X8.5647 Y80.7494 I1.441 J0.0177
G2 X8.8054 Y81.1525 I1.1629 J-0.4208
G2 X9.1772 Y81.415 I0.7517 J-0.6702
G2 X9.6554 Y81.5088 I0.4629 J-1.0948
G1 X11.0772
G1 X9.6554
G3 X9.1772 Y81.415 I-0.0152 J-1.1885
G3 X8.8054 Y81.1525 I0.3798 J-0.9328
G3 X8.5647 Y80.7494 I0.9222 J-0.8239
G3 X8.4772 Y80.2369 I1.3535 J-0.4948
G3 X8.5772 Y79.7119 I1.3559 J-0.0138
G3 X8.8554 Y79.2994 I1.1578 J0.4806
G3 X9.2741 Y79.0306 I0.8697 J0.8946
G3 X9.8085 Y78.9369 I0.5158 J1.3701
G3 X9.9923 Y78.9459 I0.0174 J1.5228
G0 Z3.0
G0 X9.8772 Y82.6119
G0 Z0.405
G1 F1000.0 Z-0.005
G2 F2000.0 X9.271 Y82.6838 I-0.039 J2.2637
G2 X8.8554 Y82.8869 I0.3264 J1.1946
G2 X8.6116 Y83.1869 I0.5093 J0.6628
G2 X8.4991 Y83.5588 I1.102 J0.5363
G3 X8.6116 Y83.1869 I1.2145 J0.1645
G3 X8.8554 Y82.8869 I0.753 J0.3628
G3 X9.271 Y82.6838 I0.7419 J0.9913
G3 X9.8772 Y82.6119 I0.5672 J2.1915
G1 X11.0804
G1 X9.8772
G0 Z3.0
G0 X8.571
G0 Z0.405
G1 F1000.0 Z-0.005
G1 F2000.0 X11.0772
G1 X8.571
G0 Z3.0
G0 Y84.715
G0 Z0.405
G1 F1000.0 Z-0.005
G1 F2000.0 X11.0772
G1 X8.571
G0 Z3.0
G0 X7.6587 Y84.7105
G0 Z0.405
G1 F1000.0 Z-0.005
G2 F2000.0 X7.6397 Y84.6713 I-0.0495 J-0.0002
G2 X7.6022 Y84.6588 I-0.0392 J0.055
G2 X7.5429 Y84.715 I-0.0085 J0.0505
G2 X7.6022 Y84.7744 I0.052 J0.0074
G2 X7.6397 Y84.7588 I-0.0027 J-0.0593
G2 X7.6585 Y84.715 I-0.0306 J-0.039
G2 X7.6587 Y84.7105 I-0.0493 J-0.0048
G2 X7.6397 Y84.6713 I-0.0495 J-0.0002
G2 X7.6022 Y84.6588 I-0.0392 J0.055
G2 X7.5429 Y84.715 I-0.0085 J0.0505
G2 X7.6022 Y84.7744 I0.052 J0.0074
G2 X7.6397 Y84.7588 I-0.0027 J-0.0593
G2 X7.6585 Y84.715 I-0.0306 J-0.039
G2 X7.6587 Y84.7105 I-0.0493 J-0.0048
G3 X7.6585 Y84.715 I-0.0495 J-0.0002
G3 X7.6397 Y84.7588 I-0.0493 J0.0048
G3 X7.6022 Y84.7744 I-0.0402 J-0.0436
G3 X7.5429 Y84.715 I-0.0074 J-0.052
G3 X7.6022 Y84.6588 I0.0509 J-0.0058
G3 X7.6397 Y84.6713 I-0.0017 J0.0675
G3 X7.6587 Y84.7105 I-0.0306 J0.039
G3 X7.6585 Y84.715 I-0.0495 J-0.0002
G3 X7.6397 Y84.7588 I-0.0493 J0.0048
G3 X7.6022 Y84.7744 I-0.0402 J-0.0436
G3 X7.5429 Y84.715 I-0.0074 J-0.052
G3 X7.6022 Y84.6588 I0.0509 J-0.0058
G3 X7.6397 Y84.6713 I-0.0017 J0.0675
G3 X7.6587 Y84.7105 I-0.0306 J0.039
G0 Z3.0
G0 X9.5679 Y86.1744
G0 Z0.405
G1 F1000.0 Z-0.005
G2 F2000.0 X9.1804 Y86.2369 I0.0038 J1.2562
G2 X8.8304 Y86.4338 I0.3228 J0.9835
G2 X8.5804 Y86.7556 I0.6786 J0.7851
G2 X8.4835 Y87.2056 I0.9006 J0.4293
G2 X8.5804 Y87.6494 I0.9704 J0.0206
G2 X8.8304 Y87.9713 I0.8916 J-0.4345
G2 X9.1804 Y88.165 I0.6813 J-0.8177
G2 X9.5679 Y88.2338 I0.3922 J-1.084
G1 X11.0772
G1 X9.5679
G3 X9.1804 Y88.165 I0.0047 J-1.1527
G3 X8.8304 Y87.9713 I0.3312 J-1.0114
G3 X8.5804 Y87.6494 I0.6416 J-0.7563
G3 X8.4835 Y87.2056 I0.8735 J-0.4232
G3 X8.5804 Y86.7556 I0.9974 J-0.0207
G3 X8.8304 Y86.4338 I0.9285 J0.4631
G3 X9.1804 Y86.2369 I0.6729 J0.7866
G3 X9.5679 Y86.1744 I0.3914 J1.194
G1 X11.0772
G1 X9.5679
G0 Z3.0
G0 X9.754 Y89.2927
G0 Z0.405
G1 F1000.0 Z-0.005
G3 F2000.0 X9.8741 Y89.29 I0.0965 J1.6164
G3 X10.4085 Y89.3963 I0.0197 J1.2977
G3 X10.8116 Y89.6775 I-0.5278 J1.186
G3 X11.0679 Y90.0931 I-0.8942 J0.8381
G3 X11.1554 Y90.6025 I-1.3919 J0.5013
G3 X11.0804 Y91.0369 I-1.2785 J0.0029
G2 X11.1554 Y90.6025 I-1.2034 J-0.4314
G2 X11.0679 Y90.0931 I-1.4792 J-0.0081
G2 X10.8116 Y89.6775 I-1.1503 J0.4224
G2 X10.4085 Y89.3963 I-0.9309 J0.9047
G2 X9.8741 Y89.29 I-0.5146 J1.1914
G2 X9.2897 Y89.39 I-0.0237 J1.6192
G2 X8.8554 Y89.6619 I0.4356 J1.179
G2 X8.5835 Y90.0713 I0.7967 J0.8241
G2 X8.4897 Y90.5838 I1.2905 J0.5009
G2 X8.596 Y91.09 I1.1734 J0.018
G2 X8.8835 Y91.4775 I1.0575 J-0.4842
G2 X9.3022 Y91.7275 I0.8355 J-0.9238
G2 X9.8116 Y91.8244 I0.5376 J-1.4392
G1 X11.2116
G2 X11.7304 Y91.7463 I0.0106 J-1.6907
G2 X12.1554 Y91.5088 I-0.3221 J-1.0753
G2 X12.4429 Y91.0931 I-0.732 J-0.8136
G2 X12.5491 Y90.4869 I-1.4686 J-0.5698
G2 X12.4616 Y89.8275 I-2.8203 J0.0388
G3 X12.5491 Y90.4869 I-2.7324 J0.6981
G3 X12.4429 Y91.0931 I-1.575 J0.0364
G3 X12.1554 Y91.5088 I-1.0195 J-0.398
G3 X11.7304 Y91.7463 I-0.747 J-0.8378
G3 X11.2116 Y91.8244 I-0.5081 J-1.6126
G1 X9.8116
G3 X9.3022 Y91.7275 I0.0282 J-1.5359
G3 X8.8835 Y91.4775 I0.4168 J-1.1738
G3 X8.596 Y91.09 I0.77 J-0.8717
G3 X8.4897 Y90.5838 I1.0672 J-0.4883
G3 X8.5835 Y90.0713 I1.3842 J-0.0116
G3 X8.8554 Y89.6619 I1.0686 J0.4147
G3 X9.2897 Y89.39 I0.87 J0.907
G3 X9.754 Y89.2927 I0.5607 J1.5191
G0 Z3.0
G0 X26.9168 Y85.7271
G0 Z0.405
G1 F1000.0 Z-0.005
G2 F2000.0 X26.9756 Y85.7684 I0.0514 J-0.0107
G2 X27.0131 Y85.7528 I-0.0027 J-0.0593
G2 X27.0319 Y85.709 I-0.0306 J-0.039
G2 X27.0131 Y85.6653 I-0.0493 J-0.0048
G2 X26.9756 Y85.6528 I-0.0392 J0.055
G2 X26.9163 Y85.709 I-0.0085 J0.0505
G2 X26.9168 Y85.7271 I0.052 J0.0074
G3 X26.9163 Y85.709 I0.0514 J-0.0107
G3 X26.9756 Y85.6528 I0.0509 J-0.0058
G3 X27.0131 Y85.6653 I-0.0017 J0.0675
G3 X27.0319 Y85.709 I-0.0306 J0.039
G3 X27.0131 Y85.7528 I-0.0493 J0.0048
G3 X26.9756 Y85.7684 I-0.0402 J-0.0436
G3 X26.9168 Y85.7271 I-0.0074 J-0.052
G3 X26.9163 Y85.709 I0.0514 J-0.0107
G3 X26.9756 Y85.6528 I0.0509 J-0.0058
G3 X27.0131 Y85.6653 I-0.0017 J0.0675
G3 X27.0319 Y85.709 I-0.0306 J0.039
G3 X27.0131 Y85.7528 I-0.0493 J0.0048
G3 X26.9756 Y85.7684 I-0.0402 J-0.0436
G3 X26.9168 Y85.7271 I-0.0074 J-0.052
G2 X26.9756 Y85.7684 I0.0514 J-0.0107
G2 X27.0131 Y85.7528 I-0.0027 J-0.0593
G2 X27.0319 Y85.709 I-0.0306 J-0.039
G2 X27.0131 Y85.6653 I-0.0493 J-0.0048
G2 X26.9756 Y85.6528 I-0.0392 J0.055
G2 X26.9163 Y85.709 I-0.0085 J0.0505
G2 X26.9168 Y85.7271 I0.052 J0.0074
G0 Z3.0
G0 X27.9444 Y85.709
G0 Z0.405
G1 F1000.0 Z-0.005
G1 F2000.0 X30.4506
G1 X27.9444
G0 Z3.0
G0 X30.4506 Y87.9215
G0 Z0.405
G1 F1000.0 Z-0.005
G2 F2000.0 X30.4176 Y87.6641 I-0.9374 J-0.0106
G2 X30.2975 Y87.434 I-0.5916 J0.1625
G2 X30.0539 Y87.2894 I-0.3583 J0.326
G2 X29.7725 Y87.2559 I-0.2651 J1.0289
G1 X27.1725
G1 X29.7725
G3 X30.0539 Y87.2894 I0.0163 J1.0622
G3 X30.2975 Y87.434 I-0.1147 J0.4707
G3 X30.4176 Y87.6641 I-0.4714 J0.3925
G3 X30.4506 Y87.9215 I-0.9045 J0.2468
G1 Y88.359
G1 Y87.9215
G0 Z3.0
G0 X29.799 Y89.3353
G0 Z0.405
G1 F1000.0 Z-0.005
G2 F2000.0 X29.7381 Y89.309 I-0.5545 J1.203
G2 X29.1944 Y89.209 I-0.527 J1.3375
G2 X28.6569 Y89.309 I-0.0166 J1.4053
G2 X28.235 Y89.5809 I0.4694 J1.1916
G2 X27.96 Y89.9934 I0.8187 J0.8437
G2 X27.8631 Y90.5153 I1.2886 J0.5091
G2 X28.0381 Y91.1965 I1.3386 J0.0192
G2 X28.2309 Y91.4439 I0.8849 J-0.4907
G2 X28.4975 Y91.609 I0.5578 J-0.6028
G1 X29.3569 Y90.059
G1 X28.4975 Y91.609
G3 X28.0381 Y91.1965 I0.3277 J-0.827
G3 X27.8631 Y90.5153 I1.1636 J-0.662
G3 X27.96 Y89.9934 I1.3856 J-0.0127
G3 X28.235 Y89.5809 I1.0936 J0.4312
G3 X28.6569 Y89.309 I0.8912 J0.9197
G3 X29.1944 Y89.209 I0.5209 J1.3052
G3 X29.7381 Y89.309 I0.0167 J1.4376
G3 X30.16 Y89.5809 I-0.4937 J1.2294
G3 X30.4319 Y89.9934 I-0.8422 J0.8509
G3 X30.5256 Y90.5153 I-1.3326 J0.5088
G3 X30.472 Y90.9272 I-1.5198 J0.0117
G3 X30.2944 Y91.3028 I-1.1751 J-0.326
G3 X29.9906 Y91.5946 I-0.9158 J-0.6492
G3 X29.6069 Y91.7684 I-0.7816 J-1.2153
G2 X29.9906 Y91.5946 I-0.398 J-1.3894
G2 X30.2944 Y91.3028 I-0.612 J-0.941
G2 X30.5256 Y90.5153 I-1.1035 J-0.7517
G2 X30.4319 Y89.9934 I-1.4265 J-0.0131
G2 X30.16 Y89.5809 I-1.114 J0.4384
G2 X29.799 Y89.3353 I-0.9155 J0.9574
G0 Z3.0
G0 X27.9288 Y88.359
G0 Z0.405
G1 F1000.0 Z-0.005
G1 F2000.0 Y87.2559
G1 Y88.359
G0 Z3.0
G0 X28.7082 Y84.2275
G0 Z0.405
G1 F1000.0 Z-0.005
G3 F2000.0 X28.56 Y84.1903 I0.2366 J-1.2541
G3 X28.2131 Y84.009 I0.2667 J-0.933
G3 X27.9631 Y83.6934 I0.5745 J-0.7118
G3 X27.8663 Y83.2372 I0.8949 J-0.4284
G3 X27.9631 Y82.7747 I1.0525 J-0.0209
G3 X28.2131 Y82.4497 I0.8448 J0.3912
G3 X28.56 Y82.2559 I0.6864 J0.8215
G3 X28.9413 Y82.1903 I0.3856 J1.0997
G1 X30.4506
G1 X28.9413
G2 X28.56 Y82.2559 I0.0043 J1.1653
G2 X28.2131 Y82.4497 I0.3396 J1.0153
G2 X27.9631 Y82.7747 I0.5948 J0.7162
G2 X27.8663 Y83.2372 I0.9556 J0.4416
G2 X27.9631 Y83.6934 I0.9918 J0.0278
G2 X28.2131 Y84.009 I0.8244 J-0.3962
G2 X28.56 Y84.1903 I0.6136 J-0.7517
G2 X28.9413 Y84.2497 I0.3848 J-1.2171
G1 X30.4506
G1 X28.9413
G3 X28.7082 Y84.2275 I0.0035 J-1.2762
G0 Z3.0
G0 X26.535 Y82.1903
G0 Z0.405
G1 F1000.0 Z-0.005
G1 F2000.0 X30.4538
G1 X26.535
G0 Z3.0
G0 X27.9413 Y81.0247
G0 Z0.405
G1 F1000.0 Z-0.005
G1 F2000.0 X29.685
G2 X30.0319 Y80.959 I0.0115 J-0.8889
G2 X30.2975 Y80.7872 I-0.2824 J-0.7277
G2 X30.4694 Y80.5278 I-0.5638 J-0.5602
G2 X30.5288 Y80.1965 I-0.8348 J-0.3206
G2 X30.47 Y79.8394 I-1.0214 J-0.0154
G2 X30.2663 Y79.5403 I-0.6969 J0.2558
G2 X29.9218 Y79.3577 I-0.5713 J0.6617
G2 X29.535 Y79.309 I-0.3696 J1.3748
G1 X27.9413
G1 X29.535
G2 X29.9223 Y79.2595 I0.0172 J-1.405
G2 X30.2663 Y79.0747 I-0.2295 J-0.8393
G2 X30.47 Y78.7755 I-0.4932 J-0.555
G2 X30.5288 Y78.4184 I-0.9627 J-0.3417
G2 X30.4694 Y78.0872 I-0.8941 J-0.0107
G2 X30.2975 Y77.8247 I-0.7688 J0.3159
G2 X30.0319 Y77.6528 I-0.5162 J0.5066
G2 X29.685 Y77.5934 I-0.3347 J0.9124
G1 X27.9413
G1 X29.685
G3 X30.0319 Y77.6528 I0.0122 J0.9717
G3 X30.2975 Y77.8247 I-0.2506 J0.6784
G3 X30.4694 Y78.0872 I-0.597 J0.5784
G3 X30.5288 Y78.4184 I-0.8348 J0.3206
G3 X30.47 Y78.7755 I-1.0214 J0.0154
G3 X30.2663 Y79.0747 I-0.6969 J-0.2558
G3 X29.9223 Y79.2595 I-0.5735 J-0.6545
G3 X29.535 Y79.309 I-0.3701 J-1.3558
G1 X27.9413
G1 X29.535
G3 X29.9218 Y79.3577 I0.0172 J1.4238
G3 X30.2663 Y79.5403 I-0.2268 J0.8443
G3 X30.47 Y79.8394 I-0.4932 J0.555
G3 X30.5288 Y80.1965 I-0.9627 J0.3417
G3 X30.4694 Y80.5278 I-0.8941 J0.0107
G3 X30.2975 Y80.7872 I-0.7356 J-0.3008
G3 X30.0319 Y80.959 I-0.5481 J-0.5559
G3 X29.685 Y81.0247 I-0.3354 J-0.8232
G1 X27.9413
G0 Z3.0
G0 X46.6588 Y78.0032
G0 Z0.405
G1 F1000.0 Z-0.005
G1 F2000.0 X49.1807
G2 X49.8057 Y77.9094 I0.0309 J-1.9242
G2 X50.2682 Y77.65 I-0.4002 J-1.2557
G2 X50.5557 Y77.25 I-0.7311 J-0.8288
G2 X50.6526 Y76.7375 I-1.2192 J-0.4959
G2 X50.5651 Y76.225 I-1.4723 J-0.0123
G2 X50.2994 Y75.8094 I-1.1165 J0.4209
G2 X49.8682 Y75.5313 I-0.9154 J0.9459
G2 X49.2776 Y75.4313 I-0.5619 J1.5248
G2 X48.7463 Y75.5282 I-0.0195 J1.3982
G2 X48.3401 Y75.7969 I0.4776 J1.1634
G2 X48.0807 Y76.1938 I0.8565 J0.8429
G2 X47.9901 Y76.6782 I1.2094 J0.4769
G2 X48.0869 Y77.2157 I1.4454 J0.017
G3 X47.9901 Y76.6782 I1.3485 J-0.5205
G3 X48.0807 Y76.1938 I1.3002 J-0.0074
G3 X48.3401 Y75.7969 I1.1158 J0.446
G3 X48.7463 Y75.5282 I0.8839 J0.8947
G3 X49.2776 Y75.4313 I0.5118 J1.3013
G3 X49.8682 Y75.5313 I0.0287 J1.6249
G3 X50.2994 Y75.8094 I-0.4841 J1.224
G3 X50.5651 Y76.225 I-0.8509 J0.8365
G3 X50.6526 Y76.7375 I-1.3848 J0.5002
G3 X50.5557 Y77.25 I-1.316 J0.0166
G3 X50.2682 Y77.65 I-1.0187 J-0.4288
G3 X49.8057 Y77.9094 I-0.8627 J-0.9962
G3 X49.1807 Y78.0032 I-0.5941 J-1.8306
G1 X46.6588
G0 Z3.0
G0 X47.076 Y79.3765
G0 Z0.405
G1 F1000.0 Z-0.005
G2 F2000.0 X47.0401 Y79.4313 I0.0149 J0.049
G2 X47.0994 Y79.4907 I0.052 J0.0074
G2 X47.1369 Y79.475 I-0.0027 J-0.0593
G2 X47.1557 Y79.4313 I-0.0306 J-0.039
G2 X47.1369 Y79.3875 I-0.0493 J-0.0048
G2 X47.0994 Y79.375 I-0.0392 J0.055
G2 X47.076 Y79.3765 I-0.0085 J0.0505
G2 X47.0401 Y79.4313 I0.0149 J0.049
G2 X47.0994 Y79.4907 I0.052 J0.0074
G2 X47.1369 Y79.475 I-0.0027 J-0.0593
G2 X47.1557 Y79.4313 I-0.0306 J-0.039
G2 X47.1369 Y79.3875 I-0.0493 J-0.0048
G2 X47.0994 Y79.375 I-0.0392 J0.055
G2 X47.076 Y79.3765 I-0.0085 J0.0505
G3 X47.0994 Y79.375 I0.0149 J0.049
G3 X47.1369 Y79.3875 I-0.0017 J0.0675
G3 X47.1557 Y79.4313 I-0.0306 J0.039
G3 X47.1369 Y79.475 I-0.0493 J0.0048
G3 X47.0994 Y79.4907 I-0.0402 J-0.0436
G3 X47.0401 Y79.4313 I-0.0074 J-0.052
G3 X47.076 Y79.3765 I0.0509 J-0.0058
G3 X47.0994 Y79.375 I0.0149 J0.049
G3 X47.1369 Y79.3875 I-0.0017 J0.0675
G3 X47.1557 Y79.4313 I-0.0306 J0.039
G3 X47.1369 Y79.475 I-0.0493 J0.0048
G3 X47.0994 Y79.4907 I-0.0402 J-0.0436
G3 X47.0401 Y79.4313 I-0.0074 J-0.052
G3 X47.076 Y79.3765 I0.0509 J-0.0058
G0 Z3.0
G0 X48.0682 Y79.4313
G0 Z0.405
G1 F1000.0 Z-0.005
G1 F2000.0 X50.5744
G1 X48.0682
G0 Z3.0
G0 X48.7212 Y80.9327
G0 Z0.405
G1 F1000.0 Z-0.005
G3 F2000.0 X48.7869 Y80.9063 I0.5013 J1.1525
G3 X49.3713 Y80.8063 I0.5607 J1.5191
G3 X49.9057 Y80.9125 I0.0197 J1.2977
G3 X50.3088 Y81.1938 I-0.5278 J1.186
G3 X50.5651 Y81.6094 I-0.8942 J0.8381
G3 X50.6526 Y82.1188 I-1.3919 J0.5013
G3 X50.5776 Y82.5532 I-1.2785 J0.0029
G2 X50.6526 Y82.1188 I-1.2034 J-0.4314
G2 X50.5651 Y81.6094 I-1.4792 J-0.0081
G2 X50.3088 Y81.1938 I-1.1503 J0.4224
G2 X49.9057 Y80.9125 I-0.9309 J0.9047
G2 X49.3713 Y80.8063 I-0.5146 J1.1914
G2 X48.7869 Y80.9063 I-0.0237 J1.6192
G2 X48.3526 Y81.1782 I0.4356 J1.179
G2 X48.0807 Y81.5875 I0.7967 J0.8241
G2 X47.9869 Y82.1 I1.2905 J0.5009
G2 X48.0932 Y82.6063 I1.1734 J0.018
G2 X48.3807 Y82.9938 I1.0575 J-0.4842
G2 X48.7994 Y83.2438 I0.8355 J-0.9238
G2 X49.3088 Y83.3407 I0.5376 J-1.4392
G1 X50.7088
G2 X51.2276 Y83.2625 I0.0106 J-1.6907
G2 X51.6526 Y83.025 I-0.3221 J-1.0753
G2 X51.9401 Y82.6094 I-0.732 J-0.8136
G2 X52.0463 Y82.0032 I-1.4686 J-0.5698
G2 X51.9588 Y81.3438 I-2.8203 J0.0388
G3 X52.0463 Y82.0032 I-2.7324 J0.6981
G3 X51.9401 Y82.6094 I-1.575 J0.0364
G3 X51.6526 Y83.025 I-1.0195 J-0.398
G3 X51.2276 Y83.2625 I-0.747 J-0.8378
G3 X50.7088 Y83.3407 I-0.5081 J-1.6126
G1 X49.3088
G3 X48.7994 Y83.2438 I0.0282 J-1.5359
G3 X48.3807 Y82.9938 I0.4168 J-1.1738
G3 X48.0932 Y82.6063 I0.77 J-0.8717
G3 X47.9869 Y82.1 I1.0672 J-0.4883
G3 X48.0807 Y81.5875 I1.3842 J-0.0116
G3 X48.3526 Y81.1782 I1.0686 J0.4147
G3 X48.7212 Y80.9327 I0.87 J0.907
G0 Z3.0
G0 X50.5744 Y84.7688
G0 Z0.405
G1 F1000.0 Z-0.005
G1 F2000.0 X48.0682
G1 X50.5744
G0 Z3.0
G0 Y86.9813
G0 Z0.405
G1 F1000.0 Z-0.005
G2 F2000.0 X50.5414 Y86.7239 I-0.9374 J-0.0106
G2 X50.4213 Y86.4938 I-0.5916 J0.1625
G2 X50.1777 Y86.3492 I-0.3583 J0.326
G2 X49.8963 Y86.3157 I-0.2651 J1.0289
G1 X47.2963
G1 X49.8963
G3 X50.1777 Y86.3492 I0.0163 J1.0622
G3 X50.4213 Y86.4938 I-0.1147 J0.4707
G3 X50.5414 Y86.7239 I-0.4714 J0.3925
G3 X50.5744 Y86.9813 I-0.9045 J0.2468
G1 Y87.4188
G1 Y86.9813
G0 Z3.0
G0 X50.5307 Y90.0157
G0 Z0.405
G1 F1000.0 Z-0.005
G2 F2000.0 X50.6526 Y89.5375 I-0.7736 J-0.4518
G2 X50.5526 Y89.0125 I-1.3559 J-0.0138
G2 X50.2744 Y88.6 I-1.1578 J0.4806
G2 X49.8494 Y88.3313 I-0.9042 J0.9595
G2 X49.3057 Y88.2375 I-0.5264 J1.4292
G2 X48.7713 Y88.3313 I-0.0186 J1.4638
G2 X48.3526 Y88.6 I0.451 J1.1633
G2 X48.0744 Y89.0125 I0.8797 J0.8931
G2 X47.9744 Y89.5375 I1.2559 J0.5112
G2 X48.0619 Y90.05 I1.441 J0.0177
G2 X48.3026 Y90.4532 I1.1629 J-0.4208
G2 X48.6744 Y90.7157 I0.7517 J-0.6702
G2 X49.1526 Y90.8094 I0.4629 J-1.0948
G1 X50.5744
G1 X49.1526
G3 X48.6744 Y90.7157 I-0.0152 J-1.1885
G3 X48.3026 Y90.4532 I0.3798 J-0.9328
G3 X48.0619 Y90.05 I0.9222 J-0.8239
G3 X47.9744 Y89.5375 I1.3535 J-0.4948
G3 X48.0744 Y89.0125 I1.3559 J-0.0138
G3 X48.3526 Y88.6 I1.1578 J0.4806
G3 X48.7713 Y88.3313 I0.8697 J0.8946
G3 X49.3057 Y88.2375 I0.5158 J1.3701
G3 X49.8494 Y88.3313 I0.0174 J1.5228
G3 X50.2744 Y88.6 I-0.4792 J1.2282
G3 X50.5526 Y89.0125 I-0.8797 J0.8931
G3 X50.6526 Y89.5375 I-1.2559 J0.5112
G3 X50.5307 Y90.0157 I-0.8955 J0.0263
G0 Z3.0
G0 X46.6588 Y92.0594
G0 Z0.405
G1 F1000.0 Z-0.005
G1 F2000.0 X50.5776
G1 X46.6588
G0 Z3.0
G0 X48.0526 Y87.4188
G0 Z0.405
G1 F1000.0 Z-0.005
G1 F2000.0 Y86.3157
G1 Y87.4188
G0 Z3.0
G0 X47.1169 Y84.8247
G0 Z0.405
G1 F1000.0 Z-0.005
G3 F2000.0 X47.0994 Y84.8282 I-0.0201 J-0.0558
G3 X47.0401 Y84.7688 I-0.0074 J-0.052
G3 X47.0994 Y84.7125 I0.0509 J-0.0058
G3 X47.1369 Y84.725 I-0.0017 J0.0675
G3 X47.1557 Y84.7688 I-0.0306 J0.039
G3 X47.1369 Y84.8125 I-0.0493 J0.0048
G3 X47.1169 Y84.8247 I-0.0402 J-0.0436
G3 X47.0994 Y84.8282 I-0.0201 J-0.0558
G3 X47.0401 Y84.7688 I-0.0074 J-0.052
G3 X47.0994 Y84.7125 I0.0509 J-0.0058
G3 X47.1369 Y84.725 I-0.0017 J0.0675
G3 X47.1557 Y84.7688 I-0.0306 J0.039
G3 X47.1369 Y84.8125 I-0.0493 J0.0048
G3 X47.1169 Y84.8247 I-0.0402 J-0.0436
G2 X47.1369 Y84.8125 I-0.0201 J-0.0558
G2 X47.1557 Y84.7688 I-0.0306 J-0.039
G2 X47.1369 Y84.725 I-0.0493 J-0.0048
G2 X47.0994 Y84.7125 I-0.0392 J0.055
G2 X47.0401 Y84.7688 I-0.0085 J0.0505
G2 X47.0994 Y84.8282 I0.052 J0.0074
G2 X47.1169 Y84.8247 I-0.0027 J-0.0593
G2 X47.1369 Y84.8125 I-0.0201 J-0.0558
G2 X47.1557 Y84.7688 I-0.0306 J-0.039
G2 X47.1369 Y84.725 I-0.0493 J-0.0048
G2 X47.0994 Y84.7125 I-0.0392 J0.055
G2 X47.0401 Y84.7688 I-0.0085 J0.0505
G2 X47.0994 Y84.8282 I0.052 J0.0074
G2 X47.1169 Y84.8247 I-0.0027 J-0.0593
G0 Z3.0
G0 X48.9647 Y110.7007
G0 Z0.405
G1 F1000.0 Z-0.005
G2 F2000.0 X48.3695 Y110.8233 I0.1647 J2.3059
G2 X47.6976 Y111.2607 I0.5892 J1.64
G2 X47.2744 Y112.0055 I1.3581 J1.2643
G2 X47.1597 Y112.8546 I2.8052 J0.8112
G2 X47.2752 Y113.7294 I3.0718 J0.0394
G2 X47.7055 Y114.4999 I1.8408 J-0.5227
G2 X48.35 Y114.946 I1.3102 J-1.204
G2 X49.1214 Y115.0852 I0.7448 J-1.921
G2 X49.8719 Y114.9479 I0.0252 J-1.9825
G2 X50.4978 Y114.5117 I-0.6612 J-1.6159
G2 X50.9189 Y113.7559 I-1.3837 J-1.266
G2 X51.0317 Y112.8981 I-2.9095 J-0.8191
G2 X51.0278 Y112.7082 I-7.1058 J0.0531
G1 X47.8954
G3 X47.9967 Y112.1434 I2.1736 J0.0986
G3 X48.2869 Y111.6483 I1.2436 J0.3962
G3 X49.1649 Y111.2804 I0.8501 J0.7974
G3 X49.8333 Y111.4861 I0.03 J1.0914
G3 X50.1006 Y111.7824 I-0.6617 J0.8656
G3 X50.2724 Y112.1426 I-1.5661 J0.9677
G1 X51.008 Y112.0517
G2 X50.7708 Y111.4965 I-1.9714 J0.5139
G2 X50.3633 Y111.051 I-1.4085 J0.8794
G2 X49.7915 Y110.7738 I-1.0026 J1.3397
G2 X49.161 Y110.6951 I-0.6077 J2.3024
G2 X48.9647 Y110.7007 I-0.0317 J2.3115
G0 Z3.0
G0 Y113.2936
G0 Z0.405
G1 F1000.0 Z-0.005
G1 F2000.0 X50.2803
G3 X50.2042 Y113.7108 I-2.1039 J-0.1682
G3 X50.0113 Y114.0885 I-1.0259 J-0.2856
G3 X49.1293 Y114.4999 I-0.8538 J-0.6794
G3 X48.3027 Y114.1716 I-0.0267 J-1.1376
G3 X48.0362 Y113.7672 I0.8231 J-0.8326
G3 X47.9349 Y113.2936 I1.4436 J-0.5563
G1 X48.9647
G0 Z3.0
G0 X46.4903 Y112.4117
G0 Z0.405
G1 F1000.0 Z-0.005
G2 F2000.0 X46.5506 Y112.024 I-0.9882 J-0.3522
G2 X46.341 Y111.3516 I-1.1973 J0.0044
G2 X45.7438 Y110.8651 I-1.1158 J0.7599
G2 X44.8579 Y110.6951 I-0.8507 J2.039
G2 X44.2051 Y110.7626 I-0.0315 J2.883
G2 X43.608 Y111.0352 I0.3144 J1.4787
G2 X43.2415 Y111.4888 I0.8566 J1.0671
G2 X43.0622 Y112.0438 I1.7666 J0.877
G1 X43.7662 Y112.1545
G3 X43.8689 Y111.7991 I1.1981 J0.1536
G3 X44.0945 Y111.5059 I0.7834 J0.3693
G3 X44.4547 Y111.3273 I0.5842 J0.7258
G3 X44.8539 Y111.2804 I0.3814 J1.5252
G3 X45.2344 Y111.3182 I0.0198 J1.7347
G3 X45.5816 Y111.4782 I-0.1611 J0.8066
G3 X45.7542 Y111.6863 I-0.456 J0.5538
G3 X45.8189 Y111.9488 I-0.4876 J0.2594
G3 X45.6093 Y112.3285 I-0.4324 J0.009
G3 X45.4345 Y112.4084 I-0.4898 J-0.841
G3 X44.8816 Y112.5698 I-1.9826 J-5.7641
G2 X44.3313 Y112.7192 I3.4235 J13.6932
G2 X43.7939 Y112.9099 I1.1617 J4.1263
G2 X43.3351 Y113.3094 I0.4551 J0.9859
G2 X43.1809 Y113.875 I0.9245 J0.556
G2 X43.3075 Y114.3931 I1.084 J0.0097
G2 X43.6595 Y114.7925 I1.0279 J-0.551
G2 X44.1103 Y114.9982 I0.8241 J-1.2097
G2 X44.7273 Y115.0852 I0.6027 J-2.0429
G2 X45.5935 Y114.9428 I0.0455 J-2.4289
G2 X45.8985 Y114.7893 I-0.5257 J-1.4241
G2 X46.1472 Y114.5552 I-0.5275 J-0.8096
G2 X46.3075 Y114.2452 I-0.9722 J-0.6991
G2 X46.3924 Y113.9066 I-1.8601 J-0.6464
G1 X45.6963 Y113.8117
G3 X45.4195 Y114.3179 I-0.7549 J-0.084
G3 X45.1145 Y114.4629 I-0.4791 J-0.6145
G3 X44.7787 Y114.4999 I-0.3201 J-1.3647
G3 X44.4166 Y114.4713 I-0.0203 J-2.0529
G3 X44.0787 Y114.3377 I0.1133 J-0.7805
G3 X43.928 Y114.1732 I0.3552 J-0.4765
G3 X43.8691 Y113.958 I0.3568 J-0.2134
G3 X43.9561 Y113.7088 I0.393 J-0.0025
G3 X44.229 Y113.519 I0.4877 J0.41
G3 X44.8579 Y113.3371 I4.2301 J13.4435
G2 X45.389 Y113.187 I-4.3869 J-16.5448
G2 X45.9099 Y113.0048 I-1.4338 J-4.9355
G2 X46.3806 Y112.6331 I-0.3923 J-0.9804
G2 X46.4903 Y112.4117 I-0.8784 J-0.5735
G0 Z3.0
G0 X42.2633
G0 Z0.405
G1 F1000.0 Z-0.005
G1 F2000.0 Y110.79
G1 X41.5514
G1 Y114.9903
G1 X42.2633
G1 Y112.4117
G0 Z3.0
G0 X40.6964 Y112.5545
G0 Z0.405
G1 F1000.0 Z-0.005
G2 F2000.0 X40.6645 Y112.2965 I-4.0155 J0.366
G2 X40.4677 Y111.672 I-2.0586 J0.3053
G2 X39.7598 Y110.9522 I-1.5185 J0.7854
G2 X38.7473 Y110.6951 I-0.9942 J1.7933
G2 X37.9736 Y110.827 I-0.028 J2.1697
G2 X37.3195 Y111.2607 I0.6297 J1.6602
G2 X36.8905 Y112.0228 I1.3376 J1.2547
G2 X36.7776 Y112.8901 I2.9626 J0.8265
G2 X36.9116 Y113.8258 I2.9977 J0.0481
G2 X37.4263 Y114.6185 I1.6723 J-0.5222
G2 X38.0436 Y114.9742 I1.2237 J-1.4105
G2 X38.7473 Y115.0852 I0.6836 J-2.0465
G2 X39.5155 Y114.9503 I0.0261 J-2.1056
G2 X40.1632 Y114.5157 I-0.6553 J-1.6766
G2 X40.5937 Y113.7872 I-1.3184 J-1.2706
G2 X40.7129 Y112.9495 I-2.6277 J-0.8014
G2 X40.6964 Y112.5545 I-4.032 J-0.0289
G0 Z3.0
G0 X39.9694 Y112.6224
G0 Z0.405
G1 F1000.0 Z-0.005
G3 F2000.0 X39.9812 Y112.9139 I-2.7645 J0.2582
G3 X39.9099 Y113.5354 I-2.4767 J0.0306
G3 X39.6253 Y114.0925 I-1.2943 J-0.31
G3 X38.7473 Y114.4959 I-0.8598 J-0.7142
G3 X37.8613 Y114.0964 I-0.0233 J-1.1305
G3 X37.5783 Y113.5245 I1.0279 J-0.8647
G3 X37.5093 Y112.8901 I2.5872 J-0.6021
G3 X37.5785 Y112.254 I2.6638 J-0.0321
G3 X37.8613 Y111.6799 I1.3274 J0.2972
G3 X38.7473 Y111.2804 I0.8626 J0.731
G3 X39.6292 Y111.6838 I0.0202 J1.1217
G3 X39.913 Y112.268 I-1.0514 J0.8717
G3 X39.9694 Y112.6224 I-2.7081 J0.6127
G0 Z3.0
G0 X41.5514 Y115.7694
G0 Z0.405
G1 F1000.0 Z-0.005
G1 F2000.0 Y116.5881
G1 X42.2633
G1 Y115.7694
G1 X41.5514
G0 Z3.0
G0 X40.645 Y119.6796
G0 Z0.405
G1 F1000.0 Z-0.005
G2 F2000.0 X40.0014 Y119.6111 I-0.6018 J2.5962
G2 X39.3294 Y119.6599 I-0.0234 J4.3313
G2 X38.6804 Y119.8405 I0.3991 J2.6903
G2 X37.8459 Y120.5287 I0.7191 J1.7221
G2 X37.5295 Y121.5728 I1.6612 J1.0734
G1 X38.2533 Y121.6361
G3 X38.3303 Y121.2644 I2.0337 J0.2277
G3 X38.4906 Y120.9203 I1.2988 J0.3954
G3 X38.7518 Y120.654 I0.9222 J0.6436
G3 X39.0759 Y120.4694 I0.9891 J1.3595
G3 X39.9658 Y120.2993 I0.8562 J2.0669
G3 X40.741 Y120.4298 I0.0378 J2.1429
G3 X41.016 Y120.5717 I-0.48 J1.2677
G3 X41.2393 Y120.7858 I-0.4962 J0.7413
G3 X41.4054 Y121.2841 I-0.6664 J0.499
G3 X41.2472 Y121.7587 I-0.7467 J0.0148
G3 X41.0092 Y121.9657 I-0.6903 J-0.5534
G3 X40.7252 Y122.1028 I-0.8648 J-1.4289
G3 X40.2123 Y122.2552 I-1.8928 J-5.4306
G3 X39.6929 Y122.3836 I-6.562 J-25.4276
G2 X39.1239 Y122.5368 I2.4313 J10.1638
G2 X38.5736 Y122.7475 I0.9225 J3.2337
G2 X38.2281 Y122.9759 I0.8783 J1.7041
G2 X37.9527 Y123.2854 I0.8804 J1.0608
G2 X37.751 Y124.0092 I1.1413 J0.7081
G2 X38.0001 Y124.8279 I1.4644 J0.0016
G2 X38.7279 Y125.4093 I1.2813 J-0.8577
G2 X39.7918 Y125.607 I1.0277 J-2.5683
G2 X40.3699 Y125.5596 I0.015 J-3.3677
G2 X40.9269 Y125.3974 I-0.4192 J-2.4763
G2 X41.6863 Y124.7883 I-0.5934 J-1.5177
G2 X41.971 Y123.8747 I-1.4704 J-0.9595
G1 X41.2354 Y123.8193
G3 X41.1174 Y124.2753 I-1.4795 J-0.1397
G3 X40.832 Y124.6499 I-0.9331 J-0.4148
G3 X40.3514 Y124.8755 I-0.7258 J-0.9212
G3 X39.8234 Y124.9307 I-0.5018 J-2.2482
G3 X39.2947 Y124.8833 I-0.0284 J-2.6529
G3 X38.807 Y124.6736 I0.1972 J-1.1309
G3 X38.5755 Y124.4049 I0.5419 J-0.7008
G3 X38.4906 Y124.0606 I0.6301 J-0.3381
G3 X38.716 Y123.5464 I0.6592 J-0.0175
G3 X38.9842 Y123.3926 I0.6274 J0.7834
G3 X39.4224 Y123.2446 I1.4791 J3.6549
G3 X39.8709 Y123.1311 I2.4805 J8.8644
G2 X40.521 Y122.9731 I-3.4725 J-15.7053
G2 X41.1563 Y122.7633 I-1.1303 J-4.4889
G2 X41.5709 Y122.5181 I-0.904 J-2.0017
G2 X41.9038 Y122.1701 I-0.8823 J-1.1772
G2 X42.145 Y121.3474 I-1.191 J-0.796
G2 X41.8801 Y120.4733 I-1.5874 J0.004
G2 X41.1167 Y119.8366 I-1.466 J0.9815
G2 X40.645 Y119.6796 I-1.0735 J2.4393
G0 Z3.0
G0 X36.5676 Y121.293
G0 Z0.405
G1 F1000.0 Z-0.005
G2 F2000.0 X36.4458 Y121.0231 I-2.9277 J1.1584
G2 X35.4372 Y119.9671 I-2.1902 J1.0821
G2 X34.0292 Y119.6111 I-1.3907 J2.5382
G2 X33.2697 Y119.7058 I-0.0156 J2.9684
G2 X32.5658 Y120.0066 I0.6641 J2.5277
G2 X31.5889 Y121.0864 I1.32 J2.1761
G2 X31.2567 Y122.5339 I2.94 J1.4367
G2 X31.4238 Y123.7388 I4.0493 J0.0525
G2 X32.0319 Y124.7923 I2.5388 J-0.7633
G2 X32.9447 Y125.4163 I1.8518 J-1.7291
G2 X34.0332 Y125.611 I1.0514 J-2.7389
G2 X35.4807 Y125.2273 I0.0384 J-2.7778
G2 X36.4616 Y124.1555 I-1.2671 J-2.1443
G2 X36.7224 Y123.3982 I-2.8262 J-1.3969
G2 X36.8017 Y122.6012 I-3.7873 J-0.7794
G2 X36.7183 Y121.7908 I-3.8073 J-0.0176
G2 X36.5676 Y121.293 I-3.0785 J0.6606
G0 Z3.0
G0 X35.8492 Y121.5478
G0 Z0.405
G1 F1000.0 Z-0.005
G3 F2000.0 X35.8932 Y121.6879 I-1.8829 J0.6679
G3 X36.0107 Y122.6051 I-3.1919 J0.8751
G3 X35.9566 Y123.2351 I-3.4889 J0.0174
G3 X35.7695 Y123.8391 I-2.5112 J-0.4469
G3 X35.0694 Y124.6578 I-1.6631 J-0.7134
G3 X34.0371 Y124.9505 I-1.0074 J-1.5865
G3 X32.6331 Y124.3889 I-0.0284 J-1.9648
G3 X32.3334 Y123.9844 I1.0634 J-1.1012
G3 X32.1054 Y123.2699 I2.182 J-1.0899
G3 X32.0477 Y122.5221 I4.4092 J-0.7162
G3 X32.1697 Y121.6415 I2.9712 J-0.0373
G3 X32.6094 Y120.8688 I1.9013 J0.5705
G3 X34.0253 Y120.2677 I1.3712 J1.2616
G3 X34.8042 Y120.4156 I0.0248 J1.9937
G3 X35.4491 Y120.8767 I-0.7184 J1.6864
G3 X35.8492 Y121.5478 I-1.4827 J1.3389
G0 Z3.0
G0 X35.8442 Y116.5881
G0 Z0.405
G1 F1000.0 Z-0.005
G1 F2000.0 Y110.79
G1 X35.0572
G1 X32.0118 Y115.3463
G1 Y110.79
G1 X31.2761
G1 Y116.5881
G1 X32.0632
G1 X35.1086 Y112.0358
G1 Y116.5881
G1 X35.8442
G0 Z3.0
G0 X30.406 Y113.2461
G0 Z0.405
G1 F1000.0 Z-0.005
G1 F2000.0 Y112.5302
G1 X28.2188
G1 Y113.2461
G1 X30.406
G0 Z3.0
G0 X27.412
G0 Z0.405
G1 F1000.0 Z-0.005
G1 F2000.0 Y110.79
G1 X26.7001
G1 Y114.9903
G1 X27.412
G1 Y113.2461
G0 Z3.0
G0 X26.0 Y114.4366
G0 Z0.405
G1 F1000.0 Z-0.005
G1 F2000.0 X25.2842
G1 Y111.9805
G3 X25.2891 Y111.7835 I3.4492 J-0.0118
G3 X25.3198 Y111.5889 I0.7489 J0.0182
G3 X25.4424 Y111.4505 I0.2839 J0.128
G3 X25.6876 Y111.3991 I0.2215 J0.446
G3 X26.0 Y111.4268 I-0.0541 J2.3872
G1 X26.1029 Y110.7979
G2 X25.565 Y110.7346 I-0.5785 J2.5994
G2 X25.2568 Y110.7585 I-0.0143 J1.8159
G2 X24.9638 Y110.8572 I0.1372 J0.891
G2 X24.6632 Y111.1776 I0.3269 J0.6079
G2 X24.6112 Y111.384 I0.8403 J0.3216
G2 X24.5762 Y112.02 I4.6008 J0.5721
G1 Y114.4366
G1 X24.0541
G1 Y114.9903
G1 X24.5762
G1 Y116.0305
G1 X25.2842 Y116.4576
G1 Y114.9903
G1 X26.0
G1 Y114.4366
G0 Z3.0
G0 X26.7001 Y115.7694
G0 Z0.405
G1 F1000.0 Z-0.005
G1 F2000.0 Y116.5881
G1 X27.412
G1 Y115.7694
G1 X26.7001
G0 Z3.0
G0 X23.3422
G0 Z0.405
G1 F1000.0 Z-0.005
G1 F2000.0 Y110.79
G1 X22.6303
G1 Y116.5881
G1 X23.3422
G1 Y115.7694
G0 Z3.0
G0 X21.5308 Y114.9903
G0 Z0.405
G1 F1000.0 Z-0.005
G1 F2000.0 Y110.79
G1 X20.894
G1 Y111.407
G2 X20.3211 Y110.876 I-1.3797 J0.9141
G2 X19.5612 Y110.6951 I-0.7338 J1.3957
G2 X18.8651 Y110.8375 I-0.0123 J1.7127
G2 X18.603 Y110.9847 I0.5964 J1.3685
G2 X18.3865 Y111.1934 I0.5537 J0.7909
G2 X18.169 Y111.7234 I1.1431 J0.7788
G2 X18.1329 Y112.0547 I2.2994 J0.4183
G2 X18.1255 Y112.3879 I6.7329 J0.3159
G1 Y114.9903
G1 X18.8374
G1 Y112.6608
G3 X18.8439 Y112.2841 I9.5813 J-0.0231
G3 X18.8809 Y111.9093 I2.4604 J0.0537
G3 X19.1657 Y111.4663 I0.7345 J0.1592
G3 X19.7036 Y111.3081 I0.5085 J0.7353
G3 X20.3047 Y111.4703 I0.0035 J1.1826
G3 X20.7002 Y111.9172 I-0.4492 J0.796
G3 X20.7968 Y112.3231 I-1.4595 J0.5618
G3 X20.8189 Y112.7399 I-3.5428 J0.3964
G1 Y114.9903
G1 X21.5308
G0 Z3.0
G0 X16.9943
G0 Z0.405
G1 F1000.0 Z-0.005
G1 F2000.0 Y110.79
G1 X16.2547
G1 Y115.6429
G1 X14.5699 Y110.79
G1 X13.8777
G1 X12.2008 Y115.7259
G1 Y110.79
G1 X11.4612
G1 Y116.5881
G1 X12.6161
G1 X13.9885 Y112.4828
G2 X14.2653 Y111.6245 I-42.297 J-14.118
G2 X14.5738 Y112.554 I39.7879 J-12.6903
G1 X15.9621 Y116.5881
G1 X16.9943
G1 Y114.9903
G0 Z3.0
G0 X19.7712 Y119.71
G0 Z0.405
G1 F1000.0 Z-0.005
G1 F2000.0 Y125.5081
G1 X20.9261
G1 X22.2985 Y121.4028
G2 X22.5753 Y120.5445 I-42.297 J-14.118
G2 X22.8838 Y121.474 I39.7879 J-12.6903
G1 X24.2721 Y125.5081
G1 X25.3043
G1 Y119.71
G1 X24.5647
G1 Y124.5629
G1 X22.8799 Y119.71
G1 X22.1877
G1 X20.5108 Y124.6459
G1 Y119.71
G1 X19.7712
G0 Z3.0
G0 X26.5818
G0 Z0.405
G1 F1000.0 Z-0.005
G1 F2000.0 Y125.5081
G1 X30.4934
G1 Y124.8239
G1 X27.3491
G1 Y123.0283
G1 X30.0702
G1 Y122.3441
G1 X27.3491
G1 Y119.71
G1 X26.5818
( mounting )
G0 Z3.0
( T3 : 3.175 )
T3 M6
M3 S1000
G0 X7.5 Y125.5
G0 Z3.0
G0 X7.5125 Y125.5
G0 Z0.01
G1 F1000.0 Z0.0
G2 F2000.0 X7.4938 Y125.4892 Z-0.0333 I-0.0125 J0.0
G2 Y125.5108 Z-0.0667 I0.0062 J0.0108
G2 X7.5125 Y125.5 Z-0.1 I0.0063 J-0.0108
G2 X7.4938 Y125.4892 Z-0.1333 I-0.0125 J0.0
G2 Y125.5108 Z-0.1667 I0.0062 J0.0108
G2 X7.5125 Y125.5 Z-0.2 I0.0063 J-0.0108
G2 X7.4938 Y125.4892 Z-0.2333 I-0.0125 J0.0
G2 Y125.5108 Z-0.2667 I0.0062 J0.0108
G2 X7.5125 Y125.5 Z-0.3 I0.0063 J-0.0108
G2 X7.4938 Y125.4892 Z-0.3333 I-0.0125 J0.0
G2 Y125.5108 Z-0.3667 I0.0062 J0.0108
G2 X7.5125 Y125.5 Z-0.4 I0.0063 J-0.0108
G2 X7.4938 Y125.4892 Z-0.4333 I-0.0125 J0.0
G2 Y125.5108 Z-0.4667 I0.0062 J0.0108
G2 X7.5125 Y125.5 Z-0.5 I0.0063 J-0.0108
G2 X7.4938 Y125.4892 Z-0.5333 I-0.0125 J0.0
G2 Y125.5108 Z-0.5667 I0.0062 J0.0108
G2 X7.5125 Y125.5 Z-0.6 I0.0063 J-0.0108
G2 X7.4938 Y125.4892 Z-0.6333 I-0.0125 J0.0
G2 Y125.5108 Z-0.6667 I0.0062 J0.0108
G2 X7.5125 Y125.5 Z-0.7 I0.0063 J-0.0108
G2 X7.4938 Y125.4892 Z-0.7333 I-0.0125 J0.0
G2 Y125.5108 Z-0.7667 I0.0062 J0.0108
G2 X7.5125 Y125.5 Z-0.8 I0.0063 J-0.0108
G2 X7.4938 Y125.4892 Z-0.8333 I-0.0125 J0.0
G2 Y125.5108 Z-0.8667 I0.0062 J0.0108
G2 X7.5125 Y125.5 Z-0.9 I0.0063 J-0.0108
G2 X7.4938 Y125.4892 Z-0.9333 I-0.0125 J0.0
G2 Y125.5108 Z-0.9667 I0.0062 J0.0108
G2 X7.5125 Y125.5 Z-1.0 I0.0063 J-0.0108
G2 X7.4938 Y125.4892 Z-1.0333 I-0.0125 J0.0
G2 Y125.5108 Z-1.0667 I0.0062 J0.0108
G2 X7.5125 Y125.5 Z-1.1 I0.0063 J-0.0108
G2 X7.4938 Y125.4892 Z-1.1333 I-0.0125 J0.0
G2 Y125.5108 Z-1.1667 I0.0062 J0.0108
G2 X7.5125 Y125.5 Z-1.2 I0.0063 J-0.0108
G2 X7.4938 Y125.4892 Z-1.2333 I-0.0125 J0.0
G2 Y125.5108 Z-1.2667 I0.0062 J0.0108
G2 X7.5125 Y125.5 Z-1.3 I0.0063 J-0.0108
G2 X7.4938 Y125.4892 Z-1.3333 I-0.0125 J0.0
G2 Y125.5108 Z-1.3667 I0.0062 J0.0108
G2 X7.5125 Y125.5 Z-1.4 I0.0063 J-0.0108
G2 X7.4938 Y125.4892 Z-1.4333 I-0.0125 J0.0
G2 Y125.5108 Z-1.4667 I0.0062 J0.0108
G2 X7.5125 Y125.5 Z-1.5 I0.0063 J-0.0108
G2 X7.4938 Y125.4892 Z-1.5333 I-0.0125 J0.0
G2 Y125.5108 Z-1.5667 I0.0062 J0.0108
G2 X7.5125 Y125.5 Z-1.6 I0.0063 J-0.0108
G2 X7.4938 Y125.4892 Z-1.6333 I-0.0125 J0.0
G2 Y125.5108 Z-1.6667 I0.0062 J0.0108
G2 X7.5125 Y125.5 Z-1.7 I0.0063 J-0.0108
G2 X7.4938 Y125.4892 Z-1.7333 I-0.0125 J0.0
G2 Y125.5108 Z-1.7667 I0.0062 J0.0108
G2 X7.5125 Y125.5 Z-1.8 I0.0063 J-0.0108
G2 X7.4938 Y125.4892 Z-1.8333 I-0.0125 J0.0
G2 Y125.5108 Z-1.8667 I0.0062 J0.0108
G2 X7.5125 Y125.5 Z-1.9 I0.0063 J-0.0108
G2 X7.4938 Y125.4892 Z-1.9333 I-0.0125 J0.0
G2 Y125.5108 Z-1.9667 I0.0062 J0.0108
G2 X7.5125 Y125.5 Z-2.0 I0.0063 J-0.0108
G2 X7.4938 Y125.4892 Z-2.0333 I-0.0125 J0.0
G2 Y125.5108 Z-2.0667 I0.0062 J0.0108
G2 X7.5125 Y125.5 Z-2.1 I0.0063 J-0.0108
G2 X7.4938 Y125.4892 Z-2.1333 I-0.0125 J0.0
G2 Y125.5108 Z-2.1667 I0.0062 J0.0108
G2 X7.5125 Y125.5 Z-2.2 I0.0063 J-0.0108
G2 X7.4938 Y125.4892 Z-2.2333 I-0.0125 J0.0
G2 Y125.5108 Z-2.2667 I0.0062 J0.0108
G2 X7.5125 Y125.5 Z-2.3 I0.0063 J-0.0108
G2 X7.4938 Y125.4892 Z-2.3333 I-0.0125 J0.0
G2 Y125.5108 Z-2.3667 I0.0062 J0.0108
G2 X7.5125 Y125.5 Z-2.4 I0.0063 J-0.0108
G2 X7.4938 Y125.4892 Z-2.4333 I-0.0125 J0.0
G2 Y125.5108 Z-2.4667 I0.0062 J0.0108
G2 X7.5125 Y125.5 Z-2.5 I0.0063 J-0.0108
G2 X7.4938 Y125.4892 Z-2.5333 I-0.0125 J0.0
G2 Y125.5108 Z-2.5667 I0.0062 J0.0108
G2 X7.5125 Y125.5 Z-2.6 I0.0063 J-0.0108
G2 X7.4938 Y125.4892 Z-2.6333 I-0.0125 J0.0
G2 Y125.5108 Z-2.6667 I0.0062 J0.0108
G2 X7.5125 Y125.5 Z-2.7 I0.0063 J-0.0108
G2 X7.4938 Y125.4892 Z-2.7333 I-0.0125 J0.0
G2 Y125.5108 Z-2.7667 I0.0062 J0.0108
G2 X7.5125 Y125.5 Z-2.8 I0.0063 J-0.0108
G2 X7.4938 Y125.4892 Z-2.8333 I-0.0125 J0.0
G2 Y125.5108 Z-2.8667 I0.0062 J0.0108
G2 X7.5125 Y125.5 Z-2.9 I0.0063 J-0.0108
G2 X7.4938 Y125.4892 Z-2.9333 I-0.0125 J0.0
G2 Y125.5108 Z-2.9667 I0.0062 J0.0108
G2 X7.5125 Y125.5 Z-3.0 I0.0063 J-0.0108
G2 X7.4938 Y125.4892 Z-3.0333 I-0.0125 J0.0
G2 Y125.5108 Z-3.0667 I0.0062 J0.0108
G2 X7.5125 Y125.5 Z-3.1 I0.0062 J-0.0108
G2 X7.4938 Y125.4892 Z-3.1333 I-0.0125 J0.0
G2 Y125.5108 Z-3.1667 I0.0063 J0.0108
G2 X7.5125 Y125.5 Z-3.2 I0.0062 J-0.0108
G2 X7.4938 Y125.4892 I-0.0125 J0.0
G2 Y125.5108 I0.0063 J0.0108
G2 X7.5125 Y125.5 I0.0062 J-0.0108
G0 Z3.0
G0 X10.122 Y101.2
G0 Z0.01
G1 F1000.0 Z0.0
G2 F2000.0 X10.1033 Y101.1892 Z-0.0333 I-0.0125 J0.0
G2 Y101.2108 Z-0.0667 I0.0062 J0.0108
G2 X10.122 Y101.2 Z-0.1 I0.0063 J-0.0108
G2 X10.1033 Y101.1892 Z-0.1333 I-0.0125 J0.0
G2 Y101.2108 Z-0.1667 I0.0062 J0.0108
G2 X10.122 Y101.2 Z-0.2 I0.0063 J-0.0108
G2 X10.1033 Y101.1892 Z-0.2333 I-0.0125 J0.0
G2 Y101.2108 Z-0.2667 I0.0062 J0.0108
G2 X10.122 Y101.2 Z-0.3 I0.0063 J-0.0108
G2 X10.1033 Y101.1892 Z-0.3333 I-0.0125 J0.0
G2 Y101.2108 Z-0.3667 I0.0062 J0.0108
G2 X10.122 Y101.2 Z-0.4 I0.0063 J-0.0108
G2 X10.1033 Y101.1892 Z-0.4333 I-0.0125 J0.0
G2 Y101.2108 Z-0.4667 I0.0062 J0.0108
G2 X10.122 Y101.2 Z-0.5 I0.0063 J-0.0108
G2 X10.1033 Y101.1892 Z-0.5333 I-0.0125 J0.0
G2 Y101.2108 Z-0.5667 I0.0062 J0.0108
G2 X10.122 Y101.2 Z-0.6 I0.0063 J-0.0108
G2 X10.1033 Y101.1892 Z-0.6333 I-0.0125 J0.0
G2 Y101.2108 Z-0.6667 I0.0062 J0.0108
G2 X10.122 Y101.2 Z-0.7 I0.0063 J-0.0108
G2 X10.1033 Y101.1892 Z-0.7333 I-0.0125 J0.0
G2 Y101.2108 Z-0.7667 I0.0062 J0.0108
G2 X10.122 Y101.2 Z-0.8 I0.0063 J-0.0108
G2 X10.1033 Y101.1892 Z-0.8333 I-0.0125 J0.0
G2 Y101.2108 Z-0.8667 I0.0062 J0.0108
G2 X10.122 Y101.2 Z-0.9 I0.0063 J-0.0108
G2 X10.1033 Y101.1892 Z-0.9333 I-0.0125 J0.0
G2 Y101.2108 Z-0.9667 I0.0062 J0.0108
G2 X10.122 Y101.2 Z-1.0 I0.0063 J-0.0108
G2 X10.1033 Y101.1892 Z-1.0333 I-0.0125 J0.0
G2 Y101.2108 Z-1.0667 I0.0062 J0.0108
G2 X10.122 Y101.2 Z-1.1 I0.0063 J-0.0108
G2 X10.1033 Y101.1892 Z-1.1333 I-0.0125 J0.0
G2 Y101.2108 Z-1.1667 I0.0062 J0.0108
G2 X10.122 Y101.2 Z-1.2 I0.0063 J-0.0108
G2 X10.1033 Y101.1892 Z-1.2333 I-0.0125 J0.0
G2 Y101.2108 Z-1.2667 I0.0062 J0.0108
G2 X10.122 Y101.2 Z-1.3 I0.0063 J-0.0108
G2 X10.1033 Y101.1892 Z-1.3333 I-0.0125 J0.0
G2 Y101.2108 Z-1.3667 I0.0062 J0.0108
G2 X10.122 Y101.2 Z-1.4 I0.0063 J-0.0108
G2 X10.1033 Y101.1892 Z-1.4333 I-0.0125 J0.0
G2 Y101.2108 Z-1.4667 I0.0062 J0.0108
G2 X10.122 Y101.2 Z-1.5 I0.0063 J-0.0108
G2 X10.1033 Y101.1892 Z-1.5333 I-0.0125 J0.0
G2 Y101.2108 Z-1.5667 I0.0062 J0.0108
G2 X10.122 Y101.2 Z-1.6 I0.0063 J-0.0108
G2 X10.1033 Y101.1892 Z-1.6333 I-0.0125 J0.0
G2 Y101.2108 Z-1.6667 I0.0062 J0.0108
G2 X10.122 Y101.2 Z-1.7 I0.0063 J-0.0108
G2 X10.1033 Y101.1892 Z-1.7333 I-0.0125 J0.0
G2 Y101.2108 Z-1.7667 I0.0062 J0.0108
G2 X10.122 Y101.2 Z-1.8 I0.0063 J-0.0108
G2 X10.1033 Y101.1892 Z-1.8333 I-0.0125 J0.0
G2 Y101.2108 Z-1.8667 I0.0062 J0.0108
G2 X10.122 Y101.2 Z-1.9 I0.0063 J-0.0108
G2 X10.1033 Y101.1892 Z-1.9333 I-0.0125 J0.0
G2 Y101.2108 Z-1.9667 I0.0062 J0.0108
G2 X10.122 Y101.2 Z-2.0 I0.0063 J-0.0108
G2 X10.1033 Y101.1892 Z-2.0333 I-0.0125 J0.0
G2 Y101.2108 Z-2.0667 I0.0062 J0.0108
G2 X10.122 Y101.2 Z-2.1 I0.0063 J-0.0108
G2 X10.1033 Y101.1892 Z-2.1333 I-0.0125 J0.0
G2 Y101.2108 Z-2.1667 I0.0062 J0.0108
G2 X10.122 Y101.2 Z-2.2 I0.0063 J-0.0108
G2 X10.1033 Y101.1892 Z-2.2333 I-0.0125 J0.0
G2 Y101.2108 Z-2.2667 I0.0062 J0.0108
G2 X10.122 Y101.2 Z-2.3 I0.0063 J-0.0108
G2 X10.1033 Y101.1892 Z-2.3333 I-0.0125 J0.0
G2 Y101.2108 Z-2.3667 I0.0062 J0.0108
G2 X10.122 Y101.2 Z-2.4 I0.0063 J-0.0108
G2 X10.1033 Y101.1892 Z-2.4333 I-0.0125 J0.0
G2 Y101.2108 Z-2.4667 I0.0062 J0.0108
G2 X10.122 Y101.2 Z-2.5 I0.0063 J-0.0108
G2 X10.1033 Y101.1892 Z-2.5333 I-0.0125 J0.0
G2 Y101.2108 Z-2.5667 I0.0062 J0.0108
G2 X10.122 Y101.2 Z-2.6 I0.0063 J-0.0108
G2 X10.1033 Y101.1892 Z-2.6333 I-0.0125 J0.0
G2 Y101.2108 Z-2.6667 I0.0062 J0.0108
G2 X10.122 Y101.2 Z-2.7 I0.0063 J-0.0108
G2 X10.1033 Y101.1892 Z-2.7333 I-0.0125 J0.0
G2 Y101.2108 Z-2.7667 I0.0062 J0.0108
G2 X10.122 Y101.2 Z-2.8 I0.0062 J-0.0108
G2 X10.1033 Y101.1892 Z-2.8333 I-0.0125 J0.0
G2 Y101.2108 Z-2.8667 I0.0062 J0.0108
G2 X10.122 Y101.2 Z-2.9 I0.0062 J-0.0108
G2 X10.1033 Y101.1892 Z-2.9333 I-0.0125 J0.0
G2 Y101.2108 Z-2.9667 I0.0062 J0.0108
G2 X10.122 Y101.2 Z-3.0 I0.0062 J-0.0108
G2 X10.1033 Y101.1892 Z-3.0333 I-0.0125 J0.0
G2 Y101.2108 Z-3.0667 I0.0062 J0.0108
G2 X10.122 Y101.2 Z-3.1 I0.0062 J-0.0108
G2 X10.1033 Y101.1892 Z-3.1333 I-0.0125 J0.0
G2 Y101.2108 Z-3.1667 I0.0063 J0.0108
G2 X10.122 Y101.2 Z-3.2 I0.0062 J-0.0108
G2 X10.1033 Y101.1892 I-0.0125 J0.0
G2 Y101.2108 I0.0063 J0.0108
G2 X10.122 Y101.2 I0.0062 J-0.0108
G0 Z3.0
G0 X29.3206
G0 Z0.01
G1 F1000.0 Z0.0
G2 F2000.0 X29.3018 Y101.1892 Z-0.0333 I-0.0125 J0.0
G2 Y101.2108 Z-0.0667 I0.0062 J0.0108
G2 X29.3206 Y101.2 Z-0.1 I0.0063 J-0.0108
G2 X29.3018 Y101.1892 Z-0.1333 I-0.0125 J0.0
G2 Y101.2108 Z-0.1667 I0.0062 J0.0108
G2 X29.3206 Y101.2 Z-0.2 I0.0063 J-0.0108
G2 X29.3018 Y101.1892 Z-0.2333 I-0.0125 J0.0
G2 Y101.2108 Z-0.2667 I0.0062 J0.0108
G2 X29.3206 Y101.2 Z-0.3 I0.0063 J-0.0108
G2 X29.3018 Y101.1892 Z-0.3333 I-0.0125 J0.0
G2 Y101.2108 Z-0.3667 I0.0062 J0.0108
G2 X29.3206 Y101.2 Z-0.4 I0.0063 J-0.0108
G2 X29.3018 Y101.1892 Z-0.4333 I-0.0125 J0.0
G2 Y101.2108 Z-0.4667 I0.0062 J0.0108
G2 X29.3206 Y101.2 Z-0.5 I0.0063 J-0.0108
G2 X29.3018 Y101.1892 Z-0.5333 I-0.0125 J0.0
G2 Y101.2108 Z-0.5667 I0.0062 J0.0108
G2 X29.3206 Y101.2 Z-0.6 I0.0063 J-0.0108
G2 X29.3018 Y101.1892 Z-0.6333 I-0.0125 J0.0
G2 Y101.2108 Z-0.6667 I0.0062 J0.0108
G2 X29.3206 Y101.2 Z-0.7 I0.0063 J-0.0108
G2 X29.3018 Y101.1892 Z-0.7333 I-0.0125 J0.0
G2 Y101.2108 Z-0.7667 I0.0062 J0.0108
G2 X29.3206 Y101.2 Z-0.8 I0.0063 J-0.0108
G2 X29.3018 Y101.1892 Z-0.8333 I-0.0125 J0.0
G2 Y101.2108 Z-0.8667 I0.0062 J0.0108
G2 X29.3206 Y101.2 Z-0.9 I0.0063 J-0.0108
G2 X29.3018 Y101.1892 Z-0.9333 I-0.0125 J0.0
G2 Y101.2108 Z-0.9667 I0.0062 J0.0108
G2 X29.3206 Y101.2 Z-1.0 I0.0063 J-0.0108
G2 X29.3018 Y101.1892 Z-1.0333 I-0.0125 J0.0
G2 Y101.2108 Z-1.0667 I0.0062 J0.0108
G2 X29.3206 Y101.2 Z-1.1 I0.0063 J-0.0108
G2 X29.3018 Y101.1892 Z-1.1333 I-0.0125 J0.0
G2 Y101.2108 Z-1.1667 I0.0062 J0.0108
G2 X29.3206 Y101.2 Z-1.2 I0.0063 J-0.0108
G2 X29.3018 Y101.1892 Z-1.2333 I-0.0125 J0.0
G2 Y101.2108 Z-1.2667 I0.0062 J0.0108
G2 X29.3206 Y101.2 Z-1.3 I0.0063 J-0.0108
G2 X29.3018 Y101.1892 Z-1.3333 I-0.0125 J0.0
G2 Y101.2108 Z-1.3667 I0.0062 J0.0108
G2 X29.3206 Y101.2 Z-1.4 I0.0063 J-0.0108
G2 X29.3018 Y101.1892 Z-1.4333 I-0.0125 J0.0
G2 Y101.2108 Z-1.4667 I0.0062 J0.0108
G2 X29.3206 Y101.2 Z-1.5 I0.0063 J-0.0108
G2 X29.3018 Y101.1892 Z-1.5333 I-0.0125 J0.0
G2 Y101.2108 Z-1.5667 I0.0062 J0.0108
G2 X29.3206 Y101.2 Z-1.6 I0.0063 J-0.0108
G2 X29.3018 Y101.1892 Z-1.6333 I-0.0125 J0.0
G2 Y101.2108 Z-1.6667 I0.0062 J0.0108
G2 X29.3206 Y101.2 Z-1.7 I0.0063 J-0.0108
G2 X29.3018 Y101.1892 Z-1.7333 I-0.0125 J0.0
G2 Y101.2108 Z-1.7667 I0.0062 J0.0108
G2 X29.3206 Y101.2 Z-1.8 I0.0063 J-0.0108
G2 X29.3018 Y101.1892 Z-1.8333 I-0.0125 J0.0
G2 Y101.2108 Z-1.8667 I0.0062 J0.0108
G2 X29.3206 Y101.2 Z-1.9 I0.0063 J-0.0108
G2 X29.3018 Y101.1892 Z-1.9333 I-0.0125 J0.0
G2 Y101.2108 Z-1.9667 I0.0062 J0.0108
G2 X29.3206 Y101.2 Z-2.0 I0.0063 J-0.0108
G2 X29.3018 Y101.1892 Z-2.0333 I-0.0125 J0.0
G2 Y101.2108 Z-2.0667 I0.0062 J0.0108
G2 X29.3206 Y101.2 Z-2.1 I0.0063 J-0.0108
G2 X29.3018 Y101.1892 Z-2.1333 I-0.0125 J0.0
G2 Y101.2108 Z-2.1667 I0.0062 J0.0108
G2 X29.3206 Y101.2 Z-2.2 I0.0063 J-0.0108
G2 X29.3018 Y101.1892 Z-2.2333 I-0.0125 J0.0
G2 Y101.2108 Z-2.2667 I0.0062 J0.0108
G2 X29.3206 Y101.2 Z-2.3 I0.0063 J-0.0108
G2 X29.3018 Y101.1892 Z-2.3333 I-0.0125 J0.0
G2 Y101.2108 Z-2.3667 I0.0062 J0.0108
G2 X29.3206 Y101.2 Z-2.4 I0.0063 J-0.0108
G2 X29.3018 Y101.1892 Z-2.4333 I-0.0125 J0.0
G2 Y101.2108 Z-2.4667 I0.0062 J0.0108
G2 X29.3206 Y101.2 Z-2.5 I0.0063 J-0.0108
G2 X29.3018 Y101.1892 Z-2.5333 I-0.0125 J0.0
G2 Y101.2108 Z-2.5667 I0.0062 J0.0108
G2 X29.3206 Y101.2 Z-2.6 I0.0063 J-0.0108
G2 X29.3018 Y101.1892 Z-2.6333 I-0.0125 J0.0
G2 Y101.2108 Z-2.6667 I0.0062 J0.0108
G2 X29.3206 Y101.2 Z-2.7 I0.0063 J-0.0108
G2 X29.3018 Y101.1892 Z-2.7333 I-0.0125 J0.0
G2 Y101.2108 Z-2.7667 I0.0062 J0.0108
G2 X29.3206 Y101.2 Z-2.8 I0.0063 J-0.0108
G2 X29.3018 Y101.1892 Z-2.8333 I-0.0125 J0.0
G2 Y101.2108 Z-2.8667 I0.0062 J0.0108
G2 X29.3206 Y101.2 Z-2.9 I0.0063 J-0.0108
G2 X29.3018 Y101.1892 Z-2.9333 I-0.0125 J0.0
G2 Y101.2108 Z-2.9667 I0.0062 J0.0108
G2 X29.3206 Y101.2 Z-3.0 I0.0063 J-0.0108
G2 X29.3018 Y101.1892 Z-3.0333 I-0.0125 J0.0
G2 Y101.2108 Z-3.0667 I0.0062 J0.0108
G2 X29.3206 Y101.2 Z-3.1 I0.0063 J-0.0108
G2 X29.3018 Y101.1892 Z-3.1333 I-0.0125 J0.0
G2 Y101.2108 Z-3.1667 I0.0062 J0.0108
G2 X29.3206 Y101.2 Z-3.2 I0.0063 J-0.0108
G2 X29.3018 Y101.1892 I-0.0125 J0.0
G2 Y101.2108 I0.0063 J0.0108
G2 X29.3206 Y101.2 I0.0062 J-0.0108
G0 Z3.0
G0 X49.2025
G0 Z0.01
G1 F1000.0 Z0.0
G2 F2000.0 X49.1838 Y101.1892 Z-0.0333 I-0.0125 J0.0
G2 Y101.2108 Z-0.0667 I0.0062 J0.0108
G2 X49.2025 Y101.2 Z-0.1 I0.0063 J-0.0108
G2 X49.1838 Y101.1892 Z-0.1333 I-0.0125 J0.0
G2 Y101.2108 Z-0.1667 I0.0062 J0.0108
G2 X49.2025 Y101.2 Z-0.2 I0.0063 J-0.0108
G2 X49.1838 Y101.1892 Z-0.2333 I-0.0125 J0.0
G2 Y101.2108 Z-0.2667 I0.0062 J0.0108
G2 X49.2025 Y101.2 Z-0.3 I0.0063 J-0.0108
G2 X49.1838 Y101.1892 Z-0.3333 I-0.0125 J0.0
G2 Y101.2108 Z-0.3667 I0.0062 J0.0108
G2 X49.2025 Y101.2 Z-0.4 I0.0063 J-0.0108
G2 X49.1838 Y101.1892 Z-0.4333 I-0.0125 J0.0
G2 Y101.2108 Z-0.4667 I0.0062 J0.0108
G2 X49.2025 Y101.2 Z-0.5 I0.0063 J-0.0108
G2 X49.1838 Y101.1892 Z-0.5333 I-0.0125 J0.0
G2 Y101.2108 Z-0.5667 I0.0062 J0.0108
G2 X49.2025 Y101.2 Z-0.6 I0.0063 J-0.0108
G2 X49.1838 Y101.1892 Z-0.6333 I-0.0125 J0.0
G2 Y101.2108 Z-0.6667 I0.0062 J0.0108
G2 X49.2025 Y101.2 Z-0.7 I0.0063 J-0.0108
G2 X49.1838 Y101.1892 Z-0.7333 I-0.0125 J0.0
G2 Y101.2108 Z-0.7667 I0.0062 J0.0108
G2 X49.2025 Y101.2 Z-0.8 I0.0063 J-0.0108
G2 X49.1838 Y101.1892 Z-0.8333 I-0.0125 J0.0
G2 Y101.2108 Z-0.8667 I0.0062 J0.0108
G2 X49.2025 Y101.2 Z-0.9 I0.0063 J-0.0108
G2 X49.1838 Y101.1892 Z-0.9333 I-0.0125 J0.0
G2 Y101.2108 Z-0.9667 I0.0062 J0.0108
G2 X49.2025 Y101.2 Z-1.0 I0.0063 J-0.0108
G2 X49.1838 Y101.1892 Z-1.0333 I-0.0125 J0.0
G2 Y101.2108 Z-1.0667 I0.0062 J0.0108
G2 X49.2025 Y101.2 Z-1.1 I0.0063 J-0.0108
G2 X49.1838 Y101.1892 Z-1.1333 I-0.0125 J0.0
G2 Y101.2108 Z-1.1667 I0.0062 J0.0108
G2 X49.2025 Y101.2 Z-1.2 I0.0063 J-0.0108
G2 X49.1838 Y101.1892 Z-1.2333 I-0.0125 J0.0
G2 Y101.2108 Z-1.2667 I0.0062 J0.0108
G2 X49.2025 Y101.2 Z-1.3 I0.0063 J-0.0108
G2 X49.1838 Y101.1892 Z-1.3333 I-0.0125 J0.0
G2 Y101.2108 Z-1.3667 I0.0062 J0.0108
G2 X49.2025 Y101.2 Z-1.4 I0.0063 J-0.0108
G2 X49.1838 Y101.1892 Z-1.4333 I-0.0125 J0.0
G2 Y101.2108 Z-1.4667 I0.0062 J0.0108
G2 X49.2025 Y101.2 Z-1.5 I0.0063 J-0.0108
G2 X49.1838 Y101.1892 Z-1.5333 I-0.0125 J0.0
G2 Y101.2108 Z-1.5667 I0.0062 J0.0108
G2 X49.2025 Y101.2 Z-1.6 I0.0063 J-0.0108
G2 X49.1838 Y101.1892 Z-1.6333 I-0.0125 J0.0
G2 Y101.2108 Z-1.6667 I0.0062 J0.0108
G2 X49.2025 Y101.2 Z-1.7 I0.0063 J-0.0108
G2 X49.1838 Y101.1892 Z-1.7333 I-0.0125 J0.0
G2 Y101.2108 Z-1.7667 I0.0062 J0.0108
G2 X49.2025 Y101.2 Z-1.8 I0.0063 J-0.0108
G2 X49.1838 Y101.1892 Z-1.8333 I-0.0125 J0.0
G2 Y101.2108 Z-1.8667 I0.0062 J0.0108
G2 X49.2025 Y101.2 Z-1.9 I0.0063 J-0.0108
G2 X49.1838 Y101.1892 Z-1.9333 I-0.0125 J0.0
G2 Y101.2108 Z-1.9667 I0.0062 J0.0108
G2 X49.2025 Y101.2 Z-2.0 I0.0063 J-0.0108
G2 X49.1838 Y101.1892 Z-2.0333 I-0.0125 J0.0
G2 Y101.2108 Z-2.0667 I0.0062 J0.0108
G2 X49.2025 Y101.2 Z-2.1 I0.0063 J-0.0108
G2 X49.1838 Y101.1892 Z-2.1333 I-0.0125 J0.0
G2 Y101.2108 Z-2.1667 I0.0062 J0.0108
G2 X49.2025 Y101.2 Z-2.2 I0.0063 J-0.0108
G2 X49.1838 Y101.1892 Z-2.2333 I-0.0125 J0.0
G2 Y101.2108 Z-2.2667 I0.0062 J0.0108
G2 X49.2025 Y101.2 Z-2.3 I0.0063 J-0.0108
G2 X49.1838 Y101.1892 Z-2.3333 I-0.0125 J0.0
G2 Y101.2108 Z-2.3667 I0.0062 J0.0108
G2 X49.2025 Y101.2 Z-2.4 I0.0063 J-0.0108
G2 X49.1838 Y101.1892 Z-2.4333 I-0.0125 J0.0
G2 Y101.2108 Z-2.4667 I0.0062 J0.0108
G2 X49.2025 Y101.2 Z-2.5 I0.0063 J-0.0108
G2 X49.1838 Y101.1892 Z-2.5333 I-0.0125 J0.0
G2 Y101.2108 Z-2.5667 I0.0062 J0.0108
G2 X49.2025 Y101.2 Z-2.6 I0.0063 J-0.0108
G2 X49.1838 Y101.1892 Z-2.6333 I-0.0125 J0.0
G2 Y101.2108 Z-2.6667 I0.0062 J0.0108
G2 X49.2025 Y101.2 Z-2.7 I0.0063 J-0.0108
G2 X49.1838 Y101.1892 Z-2.7333 I-0.0125 J0.0
G2 Y101.2108 Z-2.7667 I0.0062 J0.0108
G2 X49.2025 Y101.2 Z-2.8 I0.0063 J-0.0108
G2 X49.1838 Y101.1892 Z-2.8333 I-0.0125 J0.0
G2 Y101.2108 Z-2.8667 I0.0062 J0.0108
G2 X49.2025 Y101.2 Z-2.9 I0.0063 J-0.0108
G2 X49.1838 Y101.1892 Z-2.9333 I-0.0125 J0.0
G2 Y101.2108 Z-2.9667 I0.0063 J0.0108
G2 X49.2025 Y101.2 Z-3.0 I0.0063 J-0.0108
G2 X49.1838 Y101.1892 Z-3.0333 I-0.0125 J0.0
G2 Y101.2108 Z-3.0667 I0.0063 J0.0108
G2 X49.2025 Y101.2 Z-3.1 I0.0063 J-0.0108
G2 X49.1838 Y101.1892 Z-3.1333 I-0.0125 J0.0
G2 Y101.2108 Z-3.1667 I0.0063 J0.0108
G2 X49.2025 Y101.2 Z-3.2 I0.0063 J-0.0108
G2 X49.1838 Y101.1892 I-0.0125 J0.0
G2 Y101.2108 I0.0063 J0.0108
G2 X49.2025 Y101.2 I0.0062 J-0.0108
G0 Z3.0
G0 X53.2325 Y125.5
G0 Z0.01
G1 F1000.0 Z0.0
G2 F2000.0 X53.2137 Y125.4892 Z-0.0333 I-0.0125 J0.0
G2 Y125.5108 Z-0.0667 I0.0062 J0.0108
G2 X53.2325 Y125.5 Z-0.1 I0.0063 J-0.0108
G2 X53.2137 Y125.4892 Z-0.1333 I-0.0125 J0.0
G2 Y125.5108 Z-0.1667 I0.0062 J0.0108
G2 X53.2325 Y125.5 Z-0.2 I0.0063 J-0.0108
G2 X53.2137 Y125.4892 Z-0.2333 I-0.0125 J0.0
G2 Y125.5108 Z-0.2667 I0.0062 J0.0108
G2 X53.2325 Y125.5 Z-0.3 I0.0063 J-0.0108
G2 X53.2137 Y125.4892 Z-0.3333 I-0.0125 J0.0
G2 Y125.5108 Z-0.3667 I0.0062 J0.0108
G2 X53.2325 Y125.5 Z-0.4 I0.0063 J-0.0108
G2 X53.2137 Y125.4892 Z-0.4333 I-0.0125 J0.0
G2 Y125.5108 Z-0.4667 I0.0062 J0.0108
G2 X53.2325 Y125.5 Z-0.5 I0.0063 J-0.0108
G2 X53.2137 Y125.4892 Z-0.5333 I-0.0125 J0.0
G2 Y125.5108 Z-0.5667 I0.0062 J0.0108
G2 X53.2325 Y125.5 Z-0.6 I0.0063 J-0.0108
G2 X53.2137 Y125.4892 Z-0.6333 I-0.0125 J0.0
G2 Y125.5108 Z-0.6667 I0.0062 J0.0108
G2 X53.2325 Y125.5 Z-0.7 I0.0063 J-0.0108
G2 X53.2137 Y125.4892 Z-0.7333 I-0.0125 J0.0
G2 Y125.5108 Z-0.7667 I0.0062 J0.0108
G2 X53.2325 Y125.5 Z-0.8 I0.0063 J-0.0108
G2 X53.2137 Y125.4892 Z-0.8333 I-0.0125 J0.0
G2 Y125.5108 Z-0.8667 I0.0062 J0.0108
G2 X53.2325 Y125.5 Z-0.9 I0.0063 J-0.0108
G2 X53.2137 Y125.4892 Z-0.9333 I-0.0125 J0.0
G2 Y125.5108 Z-0.9667 I0.0062 J0.0108
G2 X53.2325 Y125.5 Z-1.0 I0.0063 J-0.0108
G2 X53.2137 Y125.4892 Z-1.0333 I-0.0125 J0.0
G2 Y125.5108 Z-1.0667 I0.0062 J0.0108
G2 X53.2325 Y125.5 Z-1.1 I0.0063 J-0.0108
G2 X53.2137 Y125.4892 Z-1.1333 I-0.0125 J0.0
G2 Y125.5108 Z-1.1667 I0.0062 J0.0108
G2 X53.2325 Y125.5 Z-1.2 I0.0063 J-0.0108
G2 X53.2137 Y125.4892 Z-1.2333 I-0.0125 J0.0
G2 Y125.5108 Z-1.2667 I0.0062 J0.0108
G2 X53.2325 Y125.5 Z-1.3 I0.0063 J-0.0108
G2 X53.2137 Y125.4892 Z-1.3333 I-0.0125 J0.0
G2 Y125.5108 Z-1.3667 I0.0062 J0.0108
G2 X53.2325 Y125.5 Z-1.4 I0.0063 J-0.0108
G2 X53.2137 Y125.4892 Z-1.4333 I-0.0125 J0.0
G2 Y125.5108 Z-1.4667 I0.0062 J0.0108
G2 X53.2325 Y125.5 Z-1.5 I0.0063 J-0.0108
G2 X53.2137 Y125.4892 Z-1.5333 I-0.0125 J0.0
G2 Y125.5108 Z-1.5667 I0.0062 J0.0108
G2 X53.2325 Y125.5 Z-1.6 I0.0063 J-0.0108
G2 X53.2137 Y125.4892 Z-1.6333 I-0.0125 J0.0
G2 Y125.5108 Z-1.6667 I0.0062 J0.0108
G2 X53.2325 Y125.5 Z-1.7 I0.0063 J-0.0108
G2 X53.2137 Y125.4892 Z-1.7333 I-0.0125 J0.0
G2 Y125.5108 Z-1.7667 I0.0062 J0.0108
G2 X53.2325 Y125.5 Z-1.8 I0.0063 J-0.0108
G2 X53.2137 Y125.4892 Z-1.8333 I-0.0125 J0.0
G2 Y125.5108 Z-1.8667 I0.0062 J0.0108
G2 X53.2325 Y125.5 Z-1.9 I0.0063 J-0.0108
G2 X53.2137 Y125.4892 Z-1.9333 I-0.0125 J0.0
G2 Y125.5108 Z-1.9667 I0.0062 J0.0108
G2 X53.2325 Y125.5 Z-2.0 I0.0063 J-0.0108
G2 X53.2137 Y125.4892 Z-2.0333 I-0.0125 J0.0
G2 Y125.5108 Z-2.0667 I0.0062 J0.0108
G2 X53.2325 Y125.5 Z-2.1 I0.0063 J-0.0108
G2 X53.2137 Y125.4892 Z-2.1333 I-0.0125 J0.0
G2 Y125.5108 Z-2.1667 I0.0062 J0.0108
G2 X53.2325 Y125.5 Z-2.2 I0.0063 J-0.0108
G2 X53.2137 Y125.4892 Z-2.2333 I-0.0125 J0.0
G2 Y125.5108 Z-2.2667 I0.0062 J0.0108
G2 X53.2325 Y125.5 Z-2.3 I0.0063 J-0.0108
G2 X53.2137 Y125.4892 Z-2.3333 I-0.0125 J0.0
G2 Y125.5108 Z-2.3667 I0.0062 J0.0108
G2 X53.2325 Y125.5 Z-2.4 I0.0063 J-0.0108
G2 X53.2137 Y125.4892 Z-2.4333 I-0.0125 J0.0
G2 Y125.5108 Z-2.4667 I0.0062 J0.0108
G2 X53.2325 Y125.5 Z-2.5 I0.0063 J-0.0108
G2 X53.2137 Y125.4892 Z-2.5333 I-0.0125 J0.0
G2 Y125.5108 Z-2.5667 I0.0062 J0.0108
G2 X53.2325 Y125.5 Z-2.6 I0.0063 J-0.0108
G2 X53.2137 Y125.4892 Z-2.6333 I-0.0125 J0.0
G2 Y125.5108 Z-2.6667 I0.0062 J0.0108
G2 X53.2325 Y125.5 Z-2.7 I0.0063 J-0.0108
G2 X53.2137 Y125.4892 Z-2.7333 I-0.0125 J0.0
G2 Y125.5108 Z-2.7667 I0.0062 J0.0108
G2 X53.2325 Y125.5 Z-2.8 I0.0063 J-0.0108
G2 X53.2137 Y125.4892 Z-2.8333 I-0.0125 J0.0
G2 Y125.5108 Z-2.8667 I0.0062 J0.0108
G2 X53.2325 Y125.5 Z-2.9 I0.0063 J-0.0108
G2 X53.2137 Y125.4892 Z-2.9333 I-0.0125 J0.0
G2 Y125.5108 Z-2.9667 I0.0063 J0.0108
G2 X53.2325 Y125.5 Z-3.0 I0.0063 J-0.0108
G2 X53.2137 Y125.4892 Z-3.0333 I-0.0125 J0.0
G2 Y125.5108 Z-3.0667 I0.0063 J0.0108
G2 X53.2325 Y125.5 Z-3.1 I0.0063 J-0.0108
G2 X53.2137 Y125.4892 Z-3.1333 I-0.0125 J0.0
G2 Y125.5108 Z-3.1667 I0.0063 J0.0108
G2 X53.2325 Y125.5 Z-3.2 I0.0063 J-0.0108
G2 X53.2137 Y125.4892 I-0.0125 J0.0
G2 Y125.5108 I0.0063 J0.0108
G2 X53.2325 Y125.5 I0.0062 J-0.0108
G0 Z3.0
G0 X49.5199 Y67.7
G0 Z0.01
G1 F1000.0 Z0.0
G2 F2000.0 X49.5011 Y67.6892 Z-0.0333 I-0.0125 J0.0
G2 Y67.7108 Z-0.0667 I0.0062 J0.0108
G2 X49.5199 Y67.7 Z-0.1 I0.0063 J-0.0108
G2 X49.5011 Y67.6892 Z-0.1333 I-0.0125 J0.0
G2 Y67.7108 Z-0.1667 I0.0062 J0.0108
G2 X49.5199 Y67.7 Z-0.2 I0.0063 J-0.0108
G2 X49.5011 Y67.6892 Z-0.2333 I-0.0125 J0.0
G2 Y67.7108 Z-0.2667 I0.0062 J0.0108
G2 X49.5199 Y67.7 Z-0.3 I0.0063 J-0.0108
G2 X49.5011 Y67.6892 Z-0.3333 I-0.0125 J0.0
G2 Y67.7108 Z-0.3667 I0.0062 J0.0108
G2 X49.5199 Y67.7 Z-0.4 I0.0063 J-0.0108
G2 X49.5011 Y67.6892 Z-0.4333 I-0.0125 J0.0
G2 Y67.7108 Z-0.4667 I0.0062 J0.0108
G2 X49.5199 Y67.7 Z-0.5 I0.0063 J-0.0108
G2 X49.5011 Y67.6892 Z-0.5333 I-0.0125 J0.0
G2 Y67.7108 Z-0.5667 I0.0062 J0.0108
G2 X49.5199 Y67.7 Z-0.6 I0.0063 J-0.0108
G2 X49.5011 Y67.6892 Z-0.6333 I-0.0125 J0.0
G2 Y67.7108 Z-0.6667 I0.0062 J0.0108
G2 X49.5199 Y67.7 Z-0.7 I0.0063 J-0.0108
G2 X49.5011 Y67.6892 Z-0.7333 I-0.0125 J0.0
G2 Y67.7108 Z-0.7667 I0.0062 J0.0108
G2 X49.5199 Y67.7 Z-0.8 I0.0063 J-0.0108
G2 X49.5011 Y67.6892 Z-0.8333 I-0.0125 J0.0
G2 Y67.7108 Z-0.8667 I0.0062 J0.0108
G2 X49.5199 Y67.7 Z-0.9 I0.0063 J-0.0108
G2 X49.5011 Y67.6892 Z-0.9333 I-0.0125 J0.0
G2 Y67.7108 Z-0.9667 I0.0062 J0.0108
G2 X49.5199 Y67.7 Z-1.0 I0.0063 J-0.0108
G2 X49.5011 Y67.6892 Z-1.0333 I-0.0125 J0.0
G2 Y67.7108 Z-1.0667 I0.0062 J0.0108
G2 X49.5199 Y67.7 Z-1.1 I0.0063 J-0.0108
G2 X49.5011 Y67.6892 Z-1.1333 I-0.0125 J0.0
G2 Y67.7108 Z-1.1667 I0.0062 J0.0108
G2 X49.5199 Y67.7 Z-1.2 I0.0063 J-0.0108
G2 X49.5011 Y67.6892 Z-1.2333 I-0.0125 J0.0
G2 Y67.7108 Z-1.2667 I0.0062 J0.0108
G2 X49.5199 Y67.7 Z-1.3 I0.0063 J-0.0108
G2 X49.5011 Y67.6892 Z-1.3333 I-0.0125 J0.0
G2 Y67.7108 Z-1.3667 I0.0062 J0.0108
G2 X49.5199 Y67.7 Z-1.4 I0.0063 J-0.0108
G2 X49.5011 Y67.6892 Z-1.4333 I-0.0125 J0.0
G2 Y67.7108 Z-1.4667 I0.0062 J0.0108
G2 X49.5199 Y67.7 Z-1.5 I0.0063 J-0.0108
G2 X49.5011 Y67.6892 Z-1.5333 I-0.0125 J0.0
G2 Y67.7108 Z-1.5667 I0.0062 J0.0108
G2 X49.5199 Y67.7 Z-1.6 I0.0063 J-0.0108
G2 X49.5011 Y67.6892 Z-1.6333 I-0.0125 J0.0
G2 Y67.7108 Z-1.6667 I0.0062 J0.0108
G2 X49.5199 Y67.7 Z-1.7 I0.0063 J-0.0108
G2 X49.5011 Y67.6892 Z-1.7333 I-0.0125 J0.0
G2 Y67.7108 Z-1.7667 I0.0062 J0.0108
G2 X49.5199 Y67.7 Z-1.8 I0.0063 J-0.0108
G2 X49.5011 Y67.6892 Z-1.8333 I-0.0125 J0.0
G2 Y67.7108 Z-1.8667 I0.0062 J0.0108
G2 X49.5199 Y67.7 Z-1.9 I0.0063 J-0.0108
G2 X49.5011 Y67.6892 Z-1.9333 I-0.0125 J0.0
G2 Y67.7108 Z-1.9667 I0.0062 J0.0108
G2 X49.5199 Y67.7 Z-2.0 I0.0063 J-0.0108
G2 X49.5011 Y67.6892 Z-2.0333 I-0.0125 J0.0
G2 Y67.7108 Z-2.0667 I0.0062 J0.0108
G2 X49.5199 Y67.7 Z-2.1 I0.0063 J-0.0108
G2 X49.5011 Y67.6892 Z-2.1333 I-0.0125 J0.0
G2 Y67.7108 Z-2.1667 I0.0062 J0.0108
G2 X49.5199 Y67.7 Z-2.2 I0.0063 J-0.0108
G2 X49.5011 Y67.6892 Z-2.2333 I-0.0125 J0.0
G2 Y67.7108 Z-2.2667 I0.0062 J0.0108
G2 X49.5199 Y67.7 Z-2.3 I0.0063 J-0.0108
G2 X49.5011 Y67.6892 Z-2.3333 I-0.0125 J0.0
G2 Y67.7108 Z-2.3667 I0.0062 J0.0108
G2 X49.5199 Y67.7 Z-2.4 I0.0063 J-0.0108
G2 X49.5011 Y67.6892 Z-2.4333 I-0.0125 J0.0
G2 Y67.7108 Z-2.4667 I0.0062 J0.0108
G2 X49.5199 Y67.7 Z-2.5 I0.0063 J-0.0108
G2 X49.5011 Y67.6892 Z-2.5333 I-0.0125 J0.0
G2 Y67.7108 Z-2.5667 I0.0062 J0.0108
G2 X49.5199 Y67.7 Z-2.6 I0.0063 J-0.0108
G2 X49.5011 Y67.6892 Z-2.6333 I-0.0125 J0.0
G2 Y67.7108 Z-2.6667 I0.0062 J0.0108
G2 X49.5199 Y67.7 Z-2.7 I0.0063 J-0.0108
G2 X49.5011 Y67.6892 Z-2.7333 I-0.0125 J0.0
G2 Y67.7108 Z-2.7667 I0.0062 J0.0108
G2 X49.5199 Y67.7 Z-2.8 I0.0063 J-0.0108
G2 X49.5011 Y67.6892 Z-2.8333 I-0.0125 J0.0
G2 Y67.7108 Z-2.8667 I0.0062 J0.0108
G2 X49.5199 Y67.7 Z-2.9 I0.0063 J-0.0108
G2 X49.5011 Y67.6892 Z-2.9333 I-0.0125 J0.0
G2 Y67.7108 Z-2.9667 I0.0063 J0.0108
G2 X49.5199 Y67.7 Z-3.0 I0.0063 J-0.0108
G2 X49.5011 Y67.6892 Z-3.0333 I-0.0125 J0.0
G2 Y67.7108 Z-3.0667 I0.0063 J0.0108
G2 X49.5199 Y67.7 Z-3.1 I0.0063 J-0.0108
G2 X49.5011 Y67.6892 Z-3.1333 I-0.0125 J0.0
G2 Y67.7108 Z-3.1667 I0.0063 J0.0108
G2 X49.5199 Y67.7 Z-3.2 I0.0063 J-0.0108
G2 X49.5011 Y67.6892 I-0.0125 J0.0
G2 Y67.7108 I0.0063 J0.0108
G2 X49.5199 Y67.7 I0.0062 J-0.0108
G0 Z3.0
G0 X44.172 Y49.8369
G0 Z0.01
G1 F1000.0 Z0.0
G2 F2000.0 X44.1532 Y49.8261 Z-0.0333 I-0.0125 J0.0
G2 Y49.8478 Z-0.0667 I0.0063 J0.0108
G2 X44.172 Y49.8369 Z-0.1 I0.0063 J-0.0108
G2 X44.1532 Y49.8261 Z-0.1333 I-0.0125 J0.0
G2 Y49.8478 Z-0.1667 I0.0063 J0.0108
G2 X44.172 Y49.8369 Z-0.2 I0.0063 J-0.0108
G2 X44.1532 Y49.8261 Z-0.2333 I-0.0125 J0.0
G2 Y49.8478 Z-0.2667 I0.0063 J0.0108
G2 X44.172 Y49.8369 Z-0.3 I0.0063 J-0.0108
G2 X44.1532 Y49.8261 Z-0.3333 I-0.0125 J0.0
G2 Y49.8478 Z-0.3667 I0.0063 J0.0108
G2 X44.172 Y49.8369 Z-0.4 I0.0063 J-0.0108
G2 X44.1532 Y49.8261 Z-0.4333 I-0.0125 J0.0
G2 Y49.8478 Z-0.4667 I0.0063 J0.0108
G2 X44.172 Y49.8369 Z-0.5 I0.0063 J-0.0108
G2 X44.1532 Y49.8261 Z-0.5333 I-0.0125 J0.0
G2 Y49.8478 Z-0.5667 I0.0063 J0.0108
G2 X44.172 Y49.8369 Z-0.6 I0.0063 J-0.0108
G2 X44.1532 Y49.8261 Z-0.6333 I-0.0125 J0.0
G2 Y49.8478 Z-0.6667 I0.0063 J0.0108
G2 X44.172 Y49.8369 Z-0.7 I0.0063 J-0.0108
G2 X44.1532 Y49.8261 Z-0.7333 I-0.0125 J0.0
G2 Y49.8478 Z-0.7667 I0.0063 J0.0108
G2 X44.172 Y49.8369 Z-0.8 I0.0063 J-0.0108
G2 X44.1532 Y49.8261 Z-0.8333 I-0.0125 J0.0
G2 Y49.8478 Z-0.8667 I0.0063 J0.0108
G2 X44.172 Y49.8369 Z-0.9 I0.0063 J-0.0108
G2 X44.1532 Y49.8261 Z-0.9333 I-0.0125 J0.0
G2 Y49.8478 Z-0.9667 I0.0063 J0.0108
G2 X44.172 Y49.8369 Z-1.0 I0.0063 J-0.0108
G2 X44.1532 Y49.8261 Z-1.0333 I-0.0125 J0.0
G2 Y49.8478 Z-1.0667 I0.0063 J0.0108
G2 X44.172 Y49.8369 Z-1.1 I0.0063 J-0.0108
G2 X44.1532 Y49.8261 Z-1.1333 I-0.0125 J0.0
G2 Y49.8478 Z-1.1667 I0.0063 J0.0108
G2 X44.172 Y49.8369 Z-1.2 I0.0063 J-0.0108
G2 X44.1532 Y49.8261 Z-1.2333 I-0.0125 J0.0
G2 Y49.8478 Z-1.2667 I0.0063 J0.0108
G2 X44.172 Y49.8369 Z-1.3 I0.0063 J-0.0108
G2 X44.1532 Y49.8261 Z-1.3333 I-0.0125 J0.0
G2 Y49.8478 Z-1.3667 I0.0063 J0.0108
G2 X44.172 Y49.8369 Z-1.4 I0.0063 J-0.0108
G2 X44.1532 Y49.8261 Z-1.4333 I-0.0125 J0.0
G2 Y49.8478 Z-1.4667 I0.0063 J0.0108
G2 X44.172 Y49.8369 Z-1.5 I0.0063 J-0.0108
G2 X44.1532 Y49.8261 Z-1.5333 I-0.0125 J0.0
G2 Y49.8478 Z-1.5667 I0.0063 J0.0108
G2 X44.172 Y49.8369 Z-1.6 I0.0063 J-0.0108
G2 X44.1532 Y49.8261 Z-1.6333 I-0.0125 J0.0
G2 Y49.8478 Z-1.6667 I0.0063 J0.0108
G2 X44.172 Y49.8369 Z-1.7 I0.0063 J-0.0108
G2 X44.1532 Y49.8261 Z-1.7333 I-0.0125 J0.0
G2 Y49.8478 Z-1.7667 I0.0063 J0.0108
G2 X44.172 Y49.8369 Z-1.8 I0.0063 J-0.0108
G2 X44.1532 Y49.8261 Z-1.8333 I-0.0125 J0.0
G2 Y49.8478 Z-1.8667 I0.0063 J0.0108
G2 X44.172 Y49.8369 Z-1.9 I0.0063 J-0.0108
G2 X44.1532 Y49.8261 Z-1.9333 I-0.0125 J0.0
G2 Y49.8478 Z-1.9667 I0.0063 J0.0108
G2 X44.172 Y49.8369 Z-2.0 I0.0063 J-0.0108
G2 X44.1532 Y49.8261 Z-2.0333 I-0.0125 J0.0
G2 Y49.8478 Z-2.0667 I0.0063 J0.0108
G2 X44.172 Y49.8369 Z-2.1 I0.0063 J-0.0108
G2 X44.1532 Y49.8261 Z-2.1333 I-0.0125 J0.0
G2 Y49.8478 Z-2.1667 I0.0063 J0.0108
G2 X44.172 Y49.8369 Z-2.2 I0.0063 J-0.0108
G2 X44.1532 Y49.8261 Z-2.2333 I-0.0125 J0.0
G2 Y49.8478 Z-2.2667 I0.0063 J0.0108
G2 X44.172 Y49.8369 Z-2.3 I0.0063 J-0.0108
G2 X44.1532 Y49.8261 Z-2.3333 I-0.0125 J0.0
G2 Y49.8478 Z-2.3667 I0.0063 J0.0108
G2 X44.172 Y49.8369 Z-2.4 I0.0063 J-0.0108
G2 X44.1532 Y49.8261 Z-2.4333 I-0.0125 J0.0
G2 Y49.8478 Z-2.4667 I0.0063 J0.0108
G2 X44.172 Y49.8369 Z-2.5 I0.0063 J-0.0108
G2 X44.1532 Y49.8261 Z-2.5333 I-0.0125 J0.0
G2 Y49.8478 Z-2.5667 I0.0063 J0.0108
G2 X44.172 Y49.8369 Z-2.6 I0.0063 J-0.0108
G2 X44.1532 Y49.8261 Z-2.6333 I-0.0125 J0.0
G2 Y49.8478 Z-2.6667 I0.0063 J0.0108
G2 X44.172 Y49.8369 Z-2.7 I0.0063 J-0.0108
G2 X44.1532 Y49.8261 Z-2.7333 I-0.0125 J0.0
G2 Y49.8478 Z-2.7667 I0.0063 J0.0108
G2 X44.172 Y49.8369 Z-2.8 I0.0063 J-0.0108
G2 X44.1532 Y49.8261 Z-2.8333 I-0.0125 J0.0
G2 Y49.8478 Z-2.8667 I0.0063 J0.0108
G2 X44.172 Y49.8369 Z-2.9 I0.0063 J-0.0108
G2 X44.1532 Y49.8261 Z-2.9333 I-0.0125 J0.0
G2 Y49.8478 Z-2.9667 I0.0063 J0.0108
G2 X44.172 Y49.8369 Z-3.0 I0.0062 J-0.0108
G2 X44.1532 Y49.8261 Z-3.0333 I-0.0125 J0.0
G2 Y49.8478 Z-3.0667 I0.0063 J0.0108
G2 X44.172 Y49.8369 Z-3.1 I0.0062 J-0.0108
G2 X44.1532 Y49.8261 Z-3.1333 I-0.0125 J0.0
G2 Y49.8478 Z-3.1667 I0.0063 J0.0108
G2 X44.172 Y49.8369 Z-3.2 I0.0062 J-0.0108
G2 X44.1532 Y49.8261 I-0.0125 J0.0
G2 Y49.8478 I0.0063 J0.0108
G2 X44.172 Y49.8369 I0.0062 J-0.0108
G0 Z3.0
G0 X48.9571 Y34.9954
G0 Z0.01
G1 F1000.0 Z0.0
G2 F2000.0 X48.9383 Y34.9846 Z-0.0333 I-0.0125 J0.0
G2 Y35.0062 Z-0.0667 I0.0063 J0.0108
G2 X48.9571 Y34.9954 Z-0.1 I0.0063 J-0.0108
G2 X48.9383 Y34.9846 Z-0.1333 I-0.0125 J0.0
G2 Y35.0062 Z-0.1667 I0.0063 J0.0108
G2 X48.9571 Y34.9954 Z-0.2 I0.0063 J-0.0108
G2 X48.9383 Y34.9846 Z-0.2333 I-0.0125 J0.0
G2 Y35.0062 Z-0.2667 I0.0063 J0.0108
G2 X48.9571 Y34.9954 Z-0.3 I0.0063 J-0.0108
G2 X48.9383 Y34.9846 Z-0.3333 I-0.0125 J0.0
G2 Y35.0062 Z-0.3667 I0.0063 J0.0108
G2 X48.9571 Y34.9954 Z-0.4 I0.0063 J-0.0108
G2 X48.9383 Y34.9846 Z-0.4333 I-0.0125 J0.0
G2 Y35.0062 Z-0.4667 I0.0063 J0.0108
G2 X48.9571 Y34.9954 Z-0.5 I0.0063 J-0.0108
G2 X48.9383 Y34.9846 Z-0.5333 I-0.0125 J0.0
G2 Y35.0062 Z-0.5667 I0.0063 J0.0108
G2 X48.9571 Y34.9954 Z-0.6 I0.0063 J-0.0108
G2 X48.9383 Y34.9846 Z-0.6333 I-0.0125 J0.0
G2 Y35.0062 Z-0.6667 I0.0063 J0.0108
G2 X48.9571 Y34.9954 Z-0.7 I0.0063 J-0.0108
G2 X48.9383 Y34.9846 Z-0.7333 I-0.0125 J0.0
G2 Y35.0062 Z-0.7667 I0.0063 J0.0108
G2 X48.9571 Y34.9954 Z-0.8 I0.0063 J-0.0108
G2 X48.9383 Y34.9846 Z-0.8333 I-0.0125 J0.0
G2 Y35.0062 Z-0.8667 I0.0063 J0.0108
G2 X48.9571 Y34.9954 Z-0.9 I0.0063 J-0.0108
G2 X48.9383 Y34.9846 Z-0.9333 I-0.0125 J0.0
G2 Y35.0062 Z-0.9667 I0.0063 J0.0108
G2 X48.9571 Y34.9954 Z-1.0 I0.0063 J-0.0108
G2 X48.9383 Y34.9846 Z-1.0333 I-0.0125 J0.0
G2 Y35.0062 Z-1.0667 I0.0063 J0.0108
G2 X48.9571 Y34.9954 Z-1.1 I0.0063 J-0.0108
G2 X48.9383 Y34.9846 Z-1.1333 I-0.0125 J0.0
G2 Y35.0062 Z-1.1667 I0.0063 J0.0108
G2 X48.9571 Y34.9954 Z-1.2 I0.0063 J-0.0108
G2 X48.9383 Y34.9846 Z-1.2333 I-0.0125 J0.0
G2 Y35.0062 Z-1.2667 I0.0063 J0.0108
G2 X48.9571 Y34.9954 Z-1.3 I0.0063 J-0.0108
G2 X48.9383 Y34.9846 Z-1.3333 I-0.0125 J0.0
G2 Y35.0062 Z-1.3667 I0.0063 J0.0108
G2 X48.9571 Y34.9954 Z-1.4 I0.0063 J-0.0108
G2 X48.9383 Y34.9846 Z-1.4333 I-0.0125 J0.0
G2 Y35.0062 Z-1.4667 I0.0063 J0.0108
G2 X48.9571 Y34.9954 Z-1.5 I0.0063 J-0.0108
G2 X48.9383 Y34.9846 Z-1.5333 I-0.0125 J0.0
G2 Y35.0062 Z-1.5667 I0.0063 J0.0108
G2 X48.9571 Y34.9954 Z-1.6 I0.0063 J-0.0108
G2 X48.9383 Y34.9846 Z-1.6333 I-0.0125 J0.0
G2 Y35.0062 Z-1.6667 I0.0063 J0.0108
G2 X48.9571 Y34.9954 Z-1.7 I0.0063 J-0.0108
G2 X48.9383 Y34.9846 Z-1.7333 I-0.0125 J0.0
G2 Y35.0062 Z-1.7667 I0.0063 J0.0108
G2 X48.9571 Y34.9954 Z-1.8 I0.0063 J-0.0108
G2 X48.9383 Y34.9846 Z-1.8333 I-0.0125 J0.0
G2 Y35.0062 Z-1.8667 I0.0063 J0.0108
G2 X48.9571 Y34.9954 Z-1.9 I0.0063 J-0.0108
G2 X48.9383 Y34.9846 Z-1.9333 I-0.0125 J0.0
G2 Y35.0062 Z-1.9667 I0.0063 J0.0108
G2 X48.9571 Y34.9954 Z-2.0 I0.0063 J-0.0108
G2 X48.9383 Y34.9846 Z-2.0333 I-0.0125 J0.0
G2 Y35.0062 Z-2.0667 I0.0063 J0.0108
G2 X48.9571 Y34.9954 Z-2.1 I0.0063 J-0.0108
G2 X48.9383 Y34.9846 Z-2.1333 I-0.0125 J0.0
G2 Y35.0062 Z-2.1667 I0.0063 J0.0108
G2 X48.9571 Y34.9954 Z-2.2 I0.0063 J-0.0108
G2 X48.9383 Y34.9846 Z-2.2333 I-0.0125 J0.0
G2 Y35.0062 Z-2.2667 I0.0063 J0.0108
G2 X48.9571 Y34.9954 Z-2.3 I0.0063 J-0.0108
G2 X48.9383 Y34.9846 Z-2.3333 I-0.0125 J0.0
G2 Y35.0062 Z-2.3667 I0.0063 J0.0108
G2 X48.9571 Y34.9954 Z-2.4 I0.0063 J-0.0108
G2 X48.9383 Y34.9846 Z-2.4333 I-0.0125 J0.0
G2 Y35.0062 Z-2.4667 I0.0063 J0.0108
G2 X48.9571 Y34.9954 Z-2.5 I0.0063 J-0.0108
G2 X48.9383 Y34.9846 Z-2.5333 I-0.0125 J0.0
G2 Y35.0062 Z-2.5667 I0.0063 J0.0108
G2 X48.9571 Y34.9954 Z-2.6 I0.0063 J-0.0108
G2 X48.9383 Y34.9846 Z-2.6333 I-0.0125 J0.0
G2 Y35.0062 Z-2.6667 I0.0063 J0.0108
G2 X48.9571 Y34.9954 Z-2.7 I0.0063 J-0.0108
G2 X48.9383 Y34.9846 Z-2.7333 I-0.0125 J0.0
G2 Y35.0062 Z-2.7667 I0.0063 J0.0108
G2 X48.9571 Y34.9954 Z-2.8 I0.0063 J-0.0108
G2 X48.9383 Y34.9846 Z-2.8333 I-0.0125 J0.0
G2 Y35.0062 Z-2.8667 I0.0063 J0.0108
G2 X48.9571 Y34.9954 Z-2.9 I0.0063 J-0.0108
G2 X48.9383 Y34.9846 Z-2.9333 I-0.0125 J0.0
G2 Y35.0062 Z-2.9667 I0.0063 J0.0108
G2 X48.9571 Y34.9954 Z-3.0 I0.0062 J-0.0108
G2 X48.9383 Y34.9846 Z-3.0333 I-0.0125 J0.0
G2 Y35.0062 Z-3.0667 I0.0063 J0.0108
G2 X48.9571 Y34.9954 Z-3.1 I0.0062 J-0.0108
G2 X48.9383 Y34.9846 Z-3.1333 I-0.0125 J0.0
G2 Y35.0062 Z-3.1667 I0.0063 J0.0108
G2 X48.9571 Y34.9954 Z-3.2 I0.0062 J-0.0108
G2 X48.9383 Y34.9846 I-0.0125 J0.0
G2 Y35.0062 I0.0063 J0.0108
G2 X48.9571 Y34.9954 I0.0062 J-0.0108
G0 Z3.0
G0 X44.6021 Y18.2333
G0 Z0.01
G1 F1000.0 Z0.0
G2 F2000.0 X44.5834 Y18.2225 Z-0.0333 I-0.0125 J0.0
G2 Y18.2441 Z-0.0667 I0.0063 J0.0108
G2 X44.6021 Y18.2333 Z-0.1 I0.0063 J-0.0108
G2 X44.5834 Y18.2225 Z-0.1333 I-0.0125 J0.0
G2 Y18.2441 Z-0.1667 I0.0063 J0.0108
G2 X44.6021 Y18.2333 Z-0.2 I0.0063 J-0.0108
G2 X44.5834 Y18.2225 Z-0.2333 I-0.0125 J0.0
G2 Y18.2441 Z-0.2667 I0.0063 J0.0108
G2 X44.6021 Y18.2333 Z-0.3 I0.0063 J-0.0108
G2 X44.5834 Y18.2225 Z-0.3333 I-0.0125 J0.0
G2 Y18.2441 Z-0.3667 I0.0063 J0.0108
G2 X44.6021 Y18.2333 Z-0.4 I0.0063 J-0.0108
G2 X44.5834 Y18.2225 Z-0.4333 I-0.0125 J0.0
G2 Y18.2441 Z-0.4667 I0.0063 J0.0108
G2 X44.6021 Y18.2333 Z-0.5 I0.0063 J-0.0108
G2 X44.5834 Y18.2225 Z-0.5333 I-0.0125 J0.0
G2 Y18.2441 Z-0.5667 I0.0063 J0.0108
G2 X44.6021 Y18.2333 Z-0.6 I0.0063 J-0.0108
G2 X44.5834 Y18.2225 Z-0.6333 I-0.0125 J0.0
G2 Y18.2441 Z-0.6667 I0.0063 J0.0108
G2 X44.6021 Y18.2333 Z-0.7 I0.0063 J-0.0108
G2 X44.5834 Y18.2225 Z-0.7333 I-0.0125 J0.0
G2 Y18.2441 Z-0.7667 I0.0063 J0.0108
G2 X44.6021 Y18.2333 Z-0.8 I0.0063 J-0.0108
G2 X44.5834 Y18.2225 Z-0.8333 I-0.0125 J0.0
G2 Y18.2441 Z-0.8667 I0.0063 J0.0108
G2 X44.6021 Y18.2333 Z-0.9 I0.0063 J-0.0108
G2 X44.5834 Y18.2225 Z-0.9333 I-0.0125 J0.0
G2 Y18.2441 Z-0.9667 I0.0063 J0.0108
G2 X44.6021 Y18.2333 Z-1.0 I0.0063 J-0.0108
G2 X44.5834 Y18.2225 Z-1.0333 I-0.0125 J0.0
G2 Y18.2441 Z-1.0667 I0.0063 J0.0108
G2 X44.6021 Y18.2333 Z-1.1 I0.0063 J-0.0108
G2 X44.5834 Y18.2225 Z-1.1333 I-0.0125 J0.0
G2 Y18.2441 Z-1.1667 I0.0063 J0.0108
G2 X44.6021 Y18.2333 Z-1.2 I0.0063 J-0.0108
G2 X44.5834 Y18.2225 Z-1.2333 I-0.0125 J0.0
G2 Y18.2441 Z-1.2667 I0.0063 J0.0108
G2 X44.6021 Y18.2333 Z-1.3 I0.0063 J-0.0108
G2 X44.5834 Y18.2225 Z-1.3333 I-0.0125 J0.0
G2 Y18.2441 Z-1.3667 I0.0063 J0.0108
G2 X44.6021 Y18.2333 Z-1.4 I0.0063 J-0.0108
G2 X44.5834 Y18.2225 Z-1.4333 I-0.0125 J0.0
G2 Y18.2441 Z-1.4667 I0.0063 J0.0108
G2 X44.6021 Y18.2333 Z-1.5 I0.0063 J-0.0108
G2 X44.5834 Y18.2225 Z-1.5333 I-0.0125 J0.0
G2 Y18.2441 Z-1.5667 I0.0063 J0.0108
G2 X44.6021 Y18.2333 Z-1.6 I0.0063 J-0.0108
G2 X44.5834 Y18.2225 Z-1.6333 I-0.0125 J0.0
G2 Y18.2441 Z-1.6667 I0.0063 J0.0108
G2 X44.6021 Y18.2333 Z-1.7 I0.0063 J-0.0108
G2 X44.5834 Y18.2225 Z-1.7333 I-0.0125 J0.0
G2 Y18.2441 Z-1.7667 I0.0063 J0.0108
G2 X44.6021 Y18.2333 Z-1.8 I0.0063 J-0.0108
G2 X44.5834 Y18.2225 Z-1.8333 I-0.0125 J0.0
G2 Y18.2441 Z-1.8667 I0.0063 J0.0108
G2 X44.6021 Y18.2333 Z-1.9 I0.0063 J-0.0108
G2 X44.5834 Y18.2225 Z-1.9333 I-0.0125 J0.0
G2 Y18.2441 Z-1.9667 I0.0063 J0.0108
G2 X44.6021 Y18.2333 Z-2.0 I0.0063 J-0.0108
G2 X44.5834 Y18.2225 Z-2.0333 I-0.0125 J0.0
G2 Y18.2441 Z-2.0667 I0.0063 J0.0108
G2 X44.6021 Y18.2333 Z-2.1 I0.0063 J-0.0108
G2 X44.5834 Y18.2225 Z-2.1333 I-0.0125 J0.0
G2 Y18.2441 Z-2.1667 I0.0063 J0.0108
G2 X44.6021 Y18.2333 Z-2.2 I0.0063 J-0.0108
G2 X44.5834 Y18.2225 Z-2.2333 I-0.0125 J0.0
G2 Y18.2441 Z-2.2667 I0.0063 J0.0108
G2 X44.6021 Y18.2333 Z-2.3 I0.0063 J-0.0108
G2 X44.5834 Y18.2225 Z-2.3333 I-0.0125 J0.0
G2 Y18.2441 Z-2.3667 I0.0063 J0.0108
G2 X44.6021 Y18.2333 Z-2.4 I0.0063 J-0.0108
G2 X44.5834 Y18.2225 Z-2.4333 I-0.0125 J0.0
G2 Y18.2441 Z-2.4667 I0.0063 J0.0108
G2 X44.6021 Y18.2333 Z-2.5 I0.0063 J-0.0108
G2 X44.5834 Y18.2225 Z-2.5333 I-0.0125 J0.0
G2 Y18.2441 Z-2.5667 I0.0063 J0.0108
G2 X44.6021 Y18.2333 Z-2.6 I0.0063 J-0.0108
G2 X44.5834 Y18.2225 Z-2.6333 I-0.0125 J0.0
G2 Y18.2441 Z-2.6667 I0.0063 J0.0108
G2 X44.6021 Y18.2333 Z-2.7 I0.0063 J-0.0108
G2 X44.5834 Y18.2225 Z-2.7333 I-0.0125 J0.0
G2 Y18.2441 Z-2.7667 I0.0063 J0.0108
G2 X44.6021 Y18.2333 Z-2.8 I0.0063 J-0.0108
G2 X44.5834 Y18.2225 Z-2.8333 I-0.0125 J0.0
G2 Y18.2441 Z-2.8667 I0.0063 J0.0108
G2 X44.6021 Y18.2333 Z-2.9 I0.0063 J-0.0108
G2 X44.5834 Y18.2225 Z-2.9333 I-0.0125 J0.0
G2 Y18.2441 Z-2.9667 I0.0063 J0.0108
G2 X44.6021 Y18.2333 Z-3.0 I0.0062 J-0.0108
G2 X44.5834 Y18.2225 Z-3.0333 I-0.0125 J0.0
G2 Y18.2441 Z-3.0667 I0.0063 J0.0108
G2 X44.6021 Y18.2333 Z-3.1 I0.0062 J-0.0108
G2 X44.5834 Y18.2225 Z-3.1333 I-0.0125 J0.0
