( Made using CamBam - http://www.cambam.co.uk )
( multinoisemodule_pcb 12/8/2014 8:05:04 PM )
( T1 : 0.04 )
( T2 : 0.031 )
( T3 : 0.0039 )
G20 G90 G64 G40
G0 Z0.125
( T1 : 0.04 )
T1 M6
( Drill1 .04 )
G17
M3 S1000
( Drill2 .031 )
( T2 : 0.031 )
T2 M6
M3 S1000
( Engrave1 )
( T3 : 0.0039 )
T3 M6
M3 S1000
G0 X1.7862 Y0.1774
G0 Z0.0624
G1 F20.0 Z-0.0026
G2 F40.0 X1.7569 Y0.1792 I-0.012 J0.0452
G2 X1.7566 Y0.1793 I0.0011 J0.0028
G2 X1.745 Y0.1909 I0.0135 J0.0251
G2 X1.7447 Y0.1915 I0.0026 J0.0014
G2 X1.7431 Y0.2206 I0.0645 J0.0182
G2 X1.7447 Y0.2493 I0.0955 J0.0092
G2 X1.7449 Y0.25 I0.0029 J-0.0006
G2 X1.7566 Y0.2617 I0.0237 J-0.012
G2 X1.7572 Y0.262 I0.0014 J-0.0027
G2 X1.7861 Y0.2636 I0.0184 J-0.0692
G2 X1.8151 Y0.262 I0.0108 J-0.0668
G2 X1.8157 Y0.2617 I-0.0008 J-0.0029
G2 X1.8274 Y0.25 I-0.0118 J-0.0235
G2 X1.8276 Y0.2496 I-0.0027 J-0.0013
G2 X1.8292 Y0.2204 I-0.0552 J-0.0178
G2 X1.8276 Y0.1916 I-0.0719 J-0.0104
G2 X1.8274 Y0.191 I-0.0029 J0.0008
G2 X1.8157 Y0.1793 I-0.0236 J0.0119
G2 X1.8153 Y0.1791 I-0.0014 J0.0027
G2 X1.7862 Y0.1774 I-0.0176 J0.051
G0 Z0.125
G0 X1.7855 Y0.1603
G0 Z0.0624
G1 F20.0 Z-0.0026
G1 F40.0 X1.8047 Y0.1595
G1 X1.8466 Y0.1562
G2 X1.8758 Y0.1504 I-0.0164 J-0.1593
G3 X1.876 Y0.1503 I0.0009 J0.0029
G2 X1.8912 Y0.1427 I-0.008 J-0.0347
G3 X1.8914 Y0.1425 I0.002 J0.0023
G2 X1.8995 Y0.1355 I-0.0387 J-0.0532
G3 X1.9001 Y0.1351 I0.0021 J0.0021
G1 X1.9084 Y0.1299
G3 X1.9091 Y0.1295 I0.0016 J0.0025
G1 X1.9154 Y0.1275
G3 X1.9167 Y0.1274 I0.0009 J0.0029
G3 X1.9338 Y0.1362 I-0.0038 J0.0283
G3 X1.9505 Y0.1529 I-0.4789 J0.4956
G3 X1.9593 Y0.1703 I-0.0157 J0.019
G1 Y0.1704
G3 X1.9569 Y0.1784 I-0.0128 J0.0004
G3 X1.9507 Y0.1878 I-0.0219 J-0.0076
G1 X1.9429 Y0.1967
G3 X1.9249 Y0.2106 I-0.0412 J-0.0346
G3 X1.9246 Y0.2108 I-0.0013 J-0.0027
G3 X1.9079 Y0.2107 I-0.0083 J-0.0229
G3 X1.9077 Y0.2106 I0.001 J-0.0028
G3 X1.8898 Y0.1968 I0.0231 J-0.0485
G1 X1.8809 Y0.1898
G1 X1.8718 Y0.1855
G3 X1.8715 Y0.1853 I0.0013 J-0.0027
G2 X1.8683 Y0.1847 I-0.0026 J0.0043
G2 X1.8691 Y0.1872 I0.0054 J-0.0002
G3 X1.8692 Y0.1876 I-0.0026 J0.0016
G2 X1.8806 Y0.1997 I0.024 J-0.011
G3 X1.881 Y0.2 I-0.0014 J0.0026
G3 X1.9025 Y0.2177 I-0.4556 J0.5766
G3 X1.9333 Y0.2432 I-0.1106 J0.1648
G3 X1.9335 Y0.2434 I-0.0021 J0.0021
G3 X1.9466 Y0.2656 I-0.0689 J0.0556
G3 X1.9467 Y0.266 I-0.0028 J0.0011
G3 X1.9493 Y0.2976 I-0.0976 J0.024
G1 Y0.3406
G3 X1.9464 Y0.3436 I-0.003 J0.0
G1 X1.8638 Y0.3447
G1 X1.8085 Y0.3455
G1 X1.8609 Y0.3564
G3 X1.9019 Y0.3663 I-0.0205 J0.1737
G1 X1.9313 Y0.376
G3 X1.9457 Y0.3848 I-0.0034 J0.0217
G3 Y0.3883 I-0.0024 J0.0018
G3 X1.9364 Y0.3965 I-0.0242 J-0.0181
G3 X1.936 Y0.3967 I-0.0015 J-0.0026
G3 X1.9094 Y0.4058 I-0.0771 J-0.1827
G3 X1.909 Y0.4059 I-0.0008 J-0.0029
G2 X1.8699 Y0.4147 I0.0324 J0.2342
G3 X1.8695 Y0.4148 I-0.0009 J-0.0029
G1 X1.807 Y0.4266
G1 X1.866 Y0.4383
G3 X1.9041 Y0.4472 I-0.1608 J0.7709
G3 X1.9043 Y0.4473 I-0.0008 J0.0029
G1 X1.9321 Y0.4564
G3 X1.9458 Y0.4651 I-0.0042 J0.0218
G3 X1.9461 Y0.468 I-0.0024 J0.0018
G3 X1.9372 Y0.477 I-0.0151 J-0.0061
G3 X1.9115 Y0.4855 I-0.0307 J-0.0494
G1 X1.8724 Y0.4936
G1 X1.8276 Y0.5029
G3 X1.8274 I-0.0006 J-0.0029
G2 X1.8032 Y0.512 I0.0089 J0.0603
G2 X1.7936 Y0.5228 I0.0373 J0.0429
G3 X1.7729 Y0.5461 I-0.0568 J-0.0296
G3 X1.7725 Y0.5463 I-0.0017 J-0.0025
G3 X1.7421 Y0.548 I-0.0173 J-0.0364
G1 X1.742
G3 X1.7194 Y0.5262 I0.0137 J-0.0369
G3 X1.7203 Y0.4938 I0.0373 J-0.0152
G3 X1.743 Y0.4739 I0.0337 J0.0156
G3 X1.7434 Y0.4738 I0.0009 J0.0029
G3 X1.7753 Y0.4765 I0.0111 J0.06
G2 X1.7898 Y0.4792 I0.019 J-0.0617
G3 X1.79 I-0.0002 J0.003
G2 X1.8126 Y0.4782 I0.0086 J-0.0638
G3 X1.8132 Y0.4781 I0.0007 J0.0029
G2 X1.8403 Y0.4735 I-0.0026 J-0.098
G3 X1.8406 I0.0009 J0.0029
G1 X1.876 Y0.4654
G1 X1.8128 Y0.4544
G3 X1.8125 Y0.4543 I0.0005 J-0.003
G2 X1.7723 Y0.4458 I-0.081 J0.285
G3 X1.7455 Y0.437 I0.0076 J-0.0679
G3 X1.7364 Y0.4282 I0.0082 J-0.0175
G3 X1.7367 Y0.425 I0.0027 J-0.0014
G3 X1.7501 Y0.4165 I0.018 J0.0134
G3 X1.7785 Y0.4072 I0.0428 J0.0833
G3 X1.8164 Y0.3984 I0.1356 J0.4966
G1 X1.8757 Y0.3868
G1 X1.8108 Y0.3739
G3 X1.7875 Y0.3686 I0.0057 J-0.0785
G3 X1.7644 Y0.3632 I0.0105 J-0.0979
G3 X1.7378 Y0.353 I0.0167 J-0.0834
G3 X1.7282 Y0.3412 I0.0098 J-0.0177
G3 X1.7283 Y0.3394 I0.0029 J-0.0009
G3 X1.7377 Y0.3284 I0.0184 J0.0062
G3 X1.7378 Y0.3283 I0.0014 J0.0027
G3 X1.7689 Y0.3227 I0.0264 J0.0573
G2 X1.8283 Y0.3198 I0.014 J-0.317
G3 X1.8286 I0.0004 J0.003
G1 X1.9233 Y0.317
G1 Y0.2929
G2 X1.9199 Y0.2753 I-0.0836 J0.0073
G2 X1.9093 Y0.2586 I-0.0432 J0.0156
G3 X1.9092 Y0.2585 I0.0021 J-0.0021
G2 X1.89 Y0.2404 I-0.1106 J0.0981
G1 X1.872 Y0.2266
G3 X1.8575 Y0.2167 I0.1153 J-0.1831
G3 X1.8569 Y0.2161 I0.0018 J-0.0024
G2 X1.8528 Y0.2136 I-0.0054 J0.0042
G2 X1.852 Y0.2156 I0.0026 J0.0022
G3 X1.8519 Y0.2161 I-0.003 J-0.0002
G2 X1.85 Y0.2283 I0.0647 J0.0163
G1 Y0.2284
G2 X1.8492 Y0.246 I0.1681 J0.0159
G1 Y0.2816
G3 X1.8461 Y0.2846 I-0.003 J0.0
G1 X1.7885 Y0.2816
G1 X1.7309 Y0.2786
G3 X1.7281 Y0.2756 I0.0002 J-0.003
G1 Y0.2205
G1 Y0.1654
G3 X1.731 Y0.1624 I0.003 J0.0
G1 X1.7855 Y0.1603
G0 Z0.125
G0 X1.7766 Y0.1384
G0 Z0.0624
G1 F20.0 Z-0.0026
G3 F40.0 X1.7439 Y0.1429 I-0.0252 J-0.0618
G1 X1.7438
G3 X1.7162 Y0.1307 I0.0078 J-0.0554
G3 X1.7158 Y0.1303 I0.0019 J-0.0023
G2 X1.7087 Y0.125 I-0.0146 J0.012
G2 X1.7036 Y0.1249 I-0.0026 J0.008
G2 X1.6962 Y0.1305 I0.015 J0.0275
G3 X1.6958 Y0.1308 I-0.0021 J-0.0021
G3 X1.6717 Y0.1416 I-0.0369 J-0.0503
G3 X1.6406 Y0.1418 I-0.0158 J-0.064
G3 X1.6167 Y0.1313 I0.017 J-0.0716
G1 X1.6087 Y0.1258
G2 X1.6029 Y0.1262 I-0.0024 J0.0072
G3 X1.6023 Y0.1264 I-0.0013 J-0.0027
G2 X1.5937 Y0.1319 I0.0034 J0.0147
G3 X1.5936 Y0.132 I-0.0024 J-0.0018
G2 X1.5818 Y0.1574 I0.0395 J0.0338
G2 X1.5797 Y0.1864 I0.1545 J0.0261
G3 Y0.1866 I-0.003 J0.0001
G2 X1.5798 Y0.2785 I1.7055 J0.0437
G2 X1.5943 Y0.3438 I0.1683 J-0.003
G3 X1.6028 Y0.3603 I-0.0555 J0.0392
G3 X1.6047 Y0.3753 I-0.0272 J0.011
G3 X1.5995 Y0.3904 I-0.0282 J-0.0012
G3 X1.5725 Y0.4164 I-0.0474 J-0.0221
G1 X1.5724
G3 X1.5397 Y0.4167 I-0.0167 J-0.0414
G3 X1.5125 Y0.3907 I0.0162 J-0.0442
G3 X1.5123 Y0.3903 I0.0028 J-0.0012
G3 X1.5089 Y0.3653 I0.0852 J-0.0246
G3 X1.5181 Y0.3395 I0.0389 J-0.0007
G3 X1.5191 Y0.3387 I0.0023 J0.0019
G2 X1.5341 Y0.3285 I-0.0281 J-0.0576
G2 X1.5382 Y0.3184 I-0.0137 J-0.0115
G3 X1.5383 Y0.3178 I0.003 J0.0002
G2 X1.5416 Y0.2868 I-0.0891 J-0.0252
G3 Y0.2865 I0.003 J-0.0002
G1 X1.5429 Y0.2403
G2 X1.5416 Y0.1765 I-0.5563 J-0.0207
G2 X1.5334 Y0.1462 I-0.1036 J0.0118
G2 X1.5116 Y0.123 I-0.0717 J0.0454
G3 X1.5113 Y0.1227 I0.0018 J-0.0024
G2 X1.4749 Y0.0994 I-0.0765 J0.0793
G2 X1.4383 Y0.0948 I-0.0281 J0.0769
G2 X1.4021 Y0.109 I0.009 J0.0766
G3 X1.3836 Y0.1192 I-0.0574 J-0.0821
G3 X1.3831 Y0.1194 I-0.0012 J-0.0028
G3 X1.3677 Y0.1191 I-0.0071 J-0.0324
G3 X1.3672 Y0.1189 I0.0007 J-0.0029
G3 X1.348 Y0.1081 I0.0478 J-0.1076
G2 X1.3097 Y0.0962 I-0.043 J0.0702
G3 X1.3095 Y0.0961 I0.0002 J-0.003
G2 X1.2736 Y0.1018 I-0.0087 J0.0615
G2 X1.2586 Y0.1206 I0.0118 J0.0247
G2 X1.2643 Y0.1331 I0.0193 J-0.0013
G2 X1.289 Y0.1419 I0.0242 J-0.0287
G3 X1.2894 Y0.142 I0.0 J0.003
G1 X1.3178 Y0.1456
G1 X1.346 Y0.1497
G3 X1.3649 Y0.1562 I-0.0031 J0.0399
G3 X1.3657 Y0.157 I-0.0016 J0.0025
G3 X1.3728 Y0.1882 I-0.0338 J0.024
G1 X1.3737 Y0.2655
G1 Y0.2656
G1 Y0.3757
G3 X1.371 Y0.3787 I-0.003 J0.0
G1 X1.341 Y0.3815
G1 X1.3232 Y0.3843
G1 Y0.3844
G2 X1.3056 Y0.3889 I0.0126 J0.0844
G1 X1.2911 Y0.3945
G3 X1.2741 Y0.3994 I-0.0361 J-0.0929
G3 X1.2739 Y0.3995 I-0.0006 J-0.0029
G1 X1.2505 Y0.402
G3 X1.2248 Y0.4019 I-0.0122 J-0.1013
G3 X1.1948 Y0.3982 I-0.0036 J-0.0939
G3 X1.1947 Y0.3981 I0.0008 J-0.0029
G3 X1.181 Y0.3894 I0.0117 J-0.0336
G3 X1.1804 Y0.3886 I0.0021 J-0.0021
G3 X1.1775 Y0.3707 I0.031 J-0.0143
G3 X1.181 Y0.3518 I0.031 J-0.0039
G3 X1.182 Y0.3507 I0.0026 J0.0014
G3 X1.2053 Y0.3443 I0.0214 J0.032
G1 X1.2342 Y0.344
G3 X1.2343 I0.0 J0.003
G1 X1.2632 Y0.3449
G1 X1.3427 Y0.347
G1 Y0.2653
G1 X1.3416 Y0.207
G3 Y0.2066 I0.003 J-0.0001
G2 X1.3364 Y0.1865 I-0.0297 J-0.003
G2 X1.3229 Y0.1834 I-0.0118 J0.0204
G1 X1.3099 Y0.1849
G2 X1.299 Y0.1883 I0.0036 J0.0305
G1 X1.2906 Y0.1936
G3 X1.2904 Y0.1937 I-0.0016 J-0.0025
G3 X1.2778 Y0.1989 I-0.031 J-0.0578
G3 X1.2773 Y0.199 I-0.0008 J-0.0029
G1 X1.256 Y0.2017
G3 X1.2292 Y0.2016 I-0.0132 J-0.0797
G3 X1.1962 Y0.198 I-0.0041 J-0.1169
G3 X1.181 Y0.1893 I0.0065 J-0.0287
G3 X1.1805 Y0.1886 I0.0022 J-0.002
G3 X1.1775 Y0.1705 I0.03 J-0.0144
G3 X1.1799 Y0.1544 I0.0309 J-0.0036
G3 X1.1882 Y0.144 I0.0196 J0.0072
G3 X1.1883 Y0.1439 I0.0016 J0.0025
G3 X1.2024 Y0.1393 I0.0184 J0.0322
G1 X1.2136 Y0.1356
G2 X1.2203 Y0.1293 I-0.0239 J-0.0319
G2 X1.2225 Y0.1212 I-0.0156 J-0.0087
G2 X1.2122 Y0.1066 I-0.0206 J0.0036
G3 X1.2121 Y0.1065 I0.0015 J-0.0026
G2 X1.1783 Y0.0968 I-0.0325 J0.0496
G3 X1.1781 I-0.0001 J-0.003
G1 X1.1191 Y0.0934
G1 X1.0784
G1 Y0.1605
G3 X1.077 Y0.2104 I-0.3812 J0.0144
G3 Y0.2105 I-0.003 J-0.0003
G3 X1.0679 Y0.2353 I-0.0614 J-0.0083
G3 X1.0677 Y0.2357 I-0.0025 J-0.0016
G3 X1.0442 Y0.2526 I-0.0472 J-0.0405
G1 X1.0259 Y0.2643
G1 X1.0085 Y0.277
G1 X0.9959 Y0.2876
G3 X0.9806 Y0.2974 I-0.0285 J-0.0281
G3 X0.9586 Y0.3018 I-0.0225 J-0.0546
G1 X0.9585
G1 X0.9288 Y0.3017
G3 X0.8958 Y0.2981 I-0.0032 J-0.1263
G3 X0.8807 Y0.2894 I0.0057 J-0.0274
G3 X0.8802 Y0.2887 I0.0022 J-0.002
G3 X0.8771 Y0.2706 I0.0287 J-0.0142
G3 X0.8808 Y0.2519 I0.0306 J-0.0037
G3 X0.8814 Y0.2511 I0.0026 J0.0015
G3 X0.9007 Y0.242 I0.0245 J0.0268
G3 X0.9451 Y0.2368 I0.0654 J0.3694
G3 X0.9454 I0.0002 J0.003
G2 X1.0133 Y0.2277 I0.0103 J-0.181
G2 X1.0383 Y0.2069 I-0.0248 J-0.0551
G2 X1.0424 Y0.1567 I-0.0866 J-0.0323
G3 X1.0423 Y0.1561 I0.0029 J-0.0006
G1 Y0.0968
G1 X0.5598 Y0.0944
G1 X0.0773 Y0.092
G1 Y0.3113
G1 Y0.5322
G1 X0.1011 Y0.5544
G3 X0.1229 Y0.5797 I-0.0329 J0.0503
G3 X0.123 Y0.5799 I-0.0027 J0.0012
G3 Y0.6019 I-0.0302 J0.011
G3 X0.1228 Y0.6023 I-0.0028 J-0.001
G3 X0.1011 Y0.6275 I-0.062 J-0.0315
G2 X0.0891 Y0.6402 I0.0402 J0.0497
G3 X0.0888 Y0.6406 I-0.0024 J-0.0017
G2 X0.0804 Y0.6527 I0.0328 J0.0319
G3 X0.0803 Y0.653 I-0.0027 J-0.0013
G2 X0.0773 Y0.6611 I0.0194 J0.0117
G2 X0.0801 Y0.6688 I0.0144 J-0.001
G1 Y0.6689
G1 X0.089 Y0.6816
G1 X0.1015 Y0.6948
G1 X0.1141 Y0.708
G3 X0.1142 Y0.7081 I-0.0022 J0.0021
G3 X0.1233 Y0.7206 I-0.0733 J0.0635
G3 X0.1273 Y0.7309 I-0.0138 J0.0113
G3 Y0.7316 I-0.003 J0.0002
G3 X0.1234 Y0.7414 I-0.0265 J-0.0048
G3 X0.1142 Y0.7539 I-0.0952 J-0.0601
G3 X0.1012 Y0.7675 I-0.059 J-0.0434
G1 X0.0773 Y0.7897
G1 Y1.0501
G1 Y1.3087
G1 X0.3273
G1 X0.5791
G1 X0.6477 Y1.2396
G3 X0.6942 Y1.1952 I0.3017 J0.2695
G3 X0.7251 Y1.1741 I0.0999 J0.1128
G3 X0.7258 Y1.1738 I0.0014 J0.0027
G1 X0.7516 Y1.1686
G3 X0.7522 I0.0006 J0.0029
G1 X0.782
G1 Y1.1162
G3 X0.7835 Y1.0855 I0.3174 J-0.0001
G3 X0.7881 Y1.064 I0.0488 J-0.001
G3 Y1.0639 I0.0027 J0.0013
G3 X0.7955 Y1.054 I0.0327 J0.0167
G3 X0.7963 Y1.0534 I0.0021 J0.0022
G3 X0.8164 Y1.0505 I0.0152 J0.0336
G2 X0.8527 Y1.0479 I-0.0024 J-0.2933
G3 X0.9002 Y1.046 I0.0378 J0.3446
G1 X0.9902 Y1.0434
G3 X0.9933 Y1.0464 I0.0001 J0.003
G1 Y1.0713
G3 X0.9902 Y1.0895 I-0.0346 J0.0036
G3 X0.9897 Y1.0903 I-0.0027 J-0.0013
G3 X0.9746 Y1.099 I-0.0213 J-0.0194
G3 X0.9413 Y1.1026 I-0.0296 J-0.1193
G3 X0.9153 Y1.1027 I-0.0147 J-0.3816
G3 X0.8929 Y1.0999 I-0.0037 J-0.0603
G3 X0.8803 Y1.0947 I0.016 J-0.0572
G3 X0.8799 Y1.0944 I0.0014 J-0.0026
G2 X0.8715 Y1.0895 I-0.0232 J0.0299
G2 X0.8585 Y1.0859 I-0.0227 J0.0563
G1 X0.8584
G2 X0.8436 Y1.0845 I-0.0145 J0.0746
G3 X0.843 Y1.0844 I0.0 J-0.003
G2 X0.8263 Y1.0866 I-0.0053 J0.0246
G2 X0.8194 Y1.0999 I0.0154 J0.0165
G3 X0.8193 Y1.1001 I-0.003 J-0.0004
G2 X0.8161 Y1.1389 I0.1525 J0.0323
G3 Y1.1392 I-0.003 J0.0001
G1 X0.8131 Y1.1967
G3 X0.8103 Y1.1996 I-0.003 J-0.0002
G1 X0.7703 Y1.2028
G2 X0.7407 Y1.2095 I0.0099 J0.1121
G2 X0.7087 Y1.2303 I0.0811 J0.1594
G1 Y1.2304
G2 X0.6607 Y1.2744 I0.2252 J0.2935
G3 X0.6606 Y1.2746 I-0.0022 J-0.002
G1 X0.589 Y1.3439
G3 X0.587 Y1.3447 I-0.0021 J-0.0022
G1 X0.3306
G1 X0.0773
G1 Y1.3768
G3 X0.0772 Y1.3775 I-0.003 J0.0
G2 X0.0786 Y1.3994 I0.034 J0.0087
G2 X0.0867 Y1.4074 I0.0179 J-0.01
G2 X0.1091 Y1.4089 I0.014 J-0.0413
G3 X0.1097 Y1.4088 I0.0006 J0.0029
G2 X0.13 Y1.4068 I0.0011 J-0.0926
G1 X0.1301
G2 X0.1506 Y1.4015 I-0.0369 J-0.1846
G1 X0.1669 Y1.3939
G3 X0.1935 Y1.3841 I0.0386 J0.0635
G3 X0.1938 Y1.384 I0.0005 J0.003
G3 X0.2185 Y1.3899 I0.0031 J0.0421
G3 X0.2186 I-0.0015 J0.0026
G3 X0.2374 Y1.4109 I-0.0294 J0.0452
G1 Y1.411
G3 X0.2392 Y1.45 I-0.0456 J0.0217
G3 Y1.4501 I-0.0028 J-0.001
G3 X0.2124 Y1.4766 I-0.0443 J-0.018
G3 X0.173 Y1.4746 I-0.0175 J-0.0442
G3 X0.1727 Y1.4744 I0.0014 J-0.0027
G1 X0.1626 Y1.4677
G3 X0.1545 Y1.4594 I0.0145 J-0.0223
G3 X0.1543 Y1.4589 I0.0025 J-0.0016
G2 X0.1519 Y1.4534 I-0.0441 J0.0156
G1 X0.1473 Y1.4493
G2 X0.134 Y1.4461 I-0.0296 J0.0946
G3 X0.1338 I0.0005 J-0.003
G2 X0.1146 Y1.4448 I-0.0131 J0.0529
G3 X0.1143 Y1.4449 I-0.0003 J-0.003
G1 X0.0773
G1 Y1.567
G1 Y1.6891
G1 X0.1597
G1 X0.1852 Y1.6886
G1 X0.2107 Y1.6876
G3 X0.2108 I0.0001 J0.003
G2 X0.2455 Y1.6827 I-0.0008 J-0.1319
G2 X0.267 Y1.6743 I-0.0208 J-0.0847
G1 Y1.6742
G3 X0.2934 Y1.6644 I0.0504 J0.0951
G3 X0.2939 I0.0007 J0.0029
G3 X0.3185 Y1.6702 I0.0025 J0.0445
G3 X0.3187 I-0.0015 J0.0026
G3 X0.3375 Y1.6913 I-0.0282 J0.0442
G3 X0.3393 Y1.7303 I-0.0457 J0.0217
G3 Y1.7304 I-0.0028 J-0.001
G3 X0.3125 Y1.7569 I-0.0444 J-0.0182
G3 X0.2731 Y1.7549 I-0.0175 J-0.0438
G3 X0.2728 Y1.7547 I0.0014 J-0.0027
G1 X0.2627 Y1.748
G3 X0.2626 Y1.7479 I0.0017 J-0.0025
G3 X0.2548 Y1.7399 I0.0235 J-0.0309
G3 X0.2544 Y1.7394 I0.0024 J-0.0018
G1 X0.252 Y1.7337
G2 X0.2422 Y1.7299 I-0.0113 J0.0144
G3 X0.2417 Y1.7298 I0.0002 J-0.003
G2 X0.2106 Y1.7265 I-0.0263 J0.0983
G3 X0.2104 I-0.0001 J-0.003
G1 X0.1643 Y1.7252
G1 X0.0773
G1 Y1.8326
G1 X0.0787 Y1.9011
G3 Y1.9013 I-0.003 J0.0001
G2 X0.0836 Y1.9424 I0.141 J0.004
G2 X0.0929 Y1.9661 I0.1023 J-0.0265
G3 X0.1032 Y1.9847 I-0.0457 J0.0374
G3 Y1.9849 I-0.0028 J0.001
G3 Y2.0001 I-0.0282 J0.0076
G3 X0.1031 Y2.0006 I-0.0029 J-0.0008
G3 X0.0929 Y2.0188 I-0.1309 J-0.0608
G2 X0.0844 Y2.0388 I0.0529 J0.0344
G2 X0.079 Y2.0686 I0.2928 J0.0679
G2 X0.0773 Y2.1072 I0.3737 J0.0367
G1 Y2.1697
G1 X0.1095
G1 X0.1304 Y2.1676
G2 X0.1505 Y2.1624 I-0.0065 J-0.0663
G1 X0.1669 Y2.1548
G3 X0.1935 Y2.1449 I0.0387 J0.0637
G3 X0.1937 I0.0005 J0.003
G3 X0.2185 Y2.1507 I0.0035 J0.0404
G3 X0.2374 Y2.1718 I-0.0227 J0.0394
G3 X0.2393 Y2.2129 I-0.0437 J0.0226
G3 X0.2392 Y2.2131 I-0.0028 J-0.0011
G3 X0.2097 Y2.238 I-0.0418 J-0.0197
G3 X0.2094 I-0.0008 J-0.0029
G3 X0.1677 Y2.2311 I-0.0109 J-0.0635
G1 X0.1511 Y2.2234
G1 X0.1301 Y2.2178
G2 X0.1096 Y2.2157 I-0.0215 J0.1099
G1 X0.0773
G1 Y2.2828
G1 Y2.3499
G1 X0.1382
G2 X0.1798 Y2.3486 I0.0089 J-0.3776
G3 X0.18 I0.0003 J0.003
G2 X0.198 Y2.3433 I-0.0013 J-0.0378
G2 X0.2046 Y2.3314 I-0.0248 J-0.0216
G3 X0.2108 Y2.3183 I0.0242 J0.0034
G3 X0.211 Y2.3181 I0.0022 J0.002
G3 X0.2211 Y2.3119 I0.0231 J0.0265
G3 X0.2217 Y2.3118 I0.0011 J0.0028
G3 X0.2365 Y2.3115 I0.008 J0.0434
G3 X0.2534 Y2.3175 I-0.0011 J0.0302
G3 X0.2539 Y2.318 I-0.0018 J0.0024
G3 X0.2611 Y2.336 I-0.0237 J0.0199
G3 X0.2625 Y2.3728 I-0.5439 J0.0383
G3 X0.2611 Y2.4099 I-0.1765 J0.0122
G3 X0.2539 Y2.4278 I-0.0309 J-0.002
G3 X0.2533 Y2.4284 I-0.0023 J-0.0019
G3 X0.2366 Y2.4342 I-0.0194 J-0.0287
G3 X0.2216 Y2.434 I-0.0071 J-0.0323
G3 X0.2106 Y2.4273 I0.0034 J-0.0178
G3 X0.2103 Y2.4267 I0.0024 J-0.0018
G1 X0.2048 Y2.415
G3 X0.2046 Y2.4144 I0.0027 J-0.0013
G2 X0.198 Y2.4026 I-0.0248 J0.006
G2 X0.1798 Y2.3972 I-0.0199 J0.0341
G3 X0.1797 I0.0001 J-0.003
G2 X0.1378 Y2.3959 I-0.0353 J0.4571
G3 X0.1001 Y2.3985 I-0.0309 J-0.1776
G3 X0.0619 Y2.39 I-0.0043 J-0.0708
G3 X0.0613 Y2.3896 I0.0014 J-0.0026
G3 X0.0344 Y2.341 I0.059 J-0.0645
G1 X0.0343
G3 X0.0312 Y2.2067 I0.4216 J-0.077
G2 X0.03 Y2.1024 I-0.7465 J-0.0432
G3 Y2.102 I0.003 J-0.0002
G2 X0.0252 Y2.046 I-0.2117 J-0.0102
G3 Y2.0458 I0.0029 J-0.0006
G2 X0.0156 Y2.0189 I-0.0768 J0.0122
G3 X0.0053 Y2.0003 I0.0485 J-0.039
G3 X0.0052 Y2.0001 I0.0028 J-0.001
G3 Y1.9849 I0.0288 J-0.0076
G3 X0.0053 Y1.9846 I0.0029 J0.0008
G3 X0.0155 Y1.9662 I0.061 J0.0216
G2 X0.0258 Y1.8974 I-0.1191 J-0.053
G3 X0.0257 Y1.8971 I0.003 J-0.0004
G3 X0.0302 Y1.6289 I3.3633 J-0.0783
G2 X0.0309 Y1.0135 I-9.1626 J-0.3184
G1 X0.0245 Y0.7782
G1 Y0.7781
G1 X0.0242 Y0.7192
G1 Y0.7191
G1 X0.026 Y0.6309
G1 X0.0187 Y0.0984
G3 Y0.0979 I0.003 J0.0
G3 X0.0382 Y0.0646 I0.0489 J0.0062
G3 X0.0384 Y0.0644 I0.0018 J0.0024
G3 X0.0676 Y0.0529 I0.0514 J0.0877
G1 X0.0677
G3 X0.1882 Y0.0478 I0.0756 J0.3615
G2 X0.328 Y0.0493 I0.0835 J-1.2935
G1 X0.3281
G1 X0.4682 Y0.046
G1 X0.7698 Y0.0427
G1 X1.0713 Y0.0435
G1 X1.187 Y0.0431
G1 X1.2449 Y0.0417
G3 X1.2451 I0.0001 J0.003
G2 X1.3024 Y0.0391 I0.0117 J-0.3693
G3 X1.3029 I0.0004 J0.003
G2 X1.3525 Y0.0294 I0.0034 J-0.1145
G3 X1.3694 Y0.0219 I0.0398 J0.0672
G3 X1.3699 Y0.0218 I0.0009 J0.0029
G3 X1.3849 Y0.0226 I0.0055 J0.0389
G3 X1.3851 Y0.0227 I-0.0007 J0.0029
G3 X1.4028 Y0.0322 I-0.0206 J0.0597
G2 X1.4371 Y0.0457 I0.0476 J-0.0703
G2 X1.472 Y0.0424 I0.0101 J-0.0795
G2 X1.5067 Y0.0222 I-0.0362 J-0.102
G3 X1.5276 Y0.0072 I0.0777 J0.0865
G3 X1.5468 Y0.0007 I0.0211 J0.0303
G3 X1.566 Y0.0022 I0.0058 J0.0485
G3 X1.5662 Y0.0023 I-0.0008 J0.0029
G2 X1.5807 Y0.0052 I0.018 J-0.051
G3 X1.5809 I-0.0002 J0.003
G1 X1.5964 Y0.0072
G2 X1.6083 Y0.0076 I0.0087 J-0.0854
G1 X1.6213 Y0.0071
G3 X1.6384 Y0.0068 I0.0296 J1.0382
G3 X1.656 Y0.0066 I0.0128 J0.5383
G1 X1.6736 Y0.0068
G3 X1.6907 Y0.0071 I-0.0009 J0.4664
G3 X1.6909 I-0.0001 J0.003
G2 X1.7035 Y0.0076 I0.0124 J-0.1612
G1 X1.7158 Y0.0072
G2 X1.7308 Y0.0053 I-0.0025 J-0.0796
G1 X1.7309
G1 X1.7463 Y0.0021
G3 X1.7464 I0.0006 J0.0029
G3 X1.765 Y0.0006 I0.0183 J0.113
G3 X1.7652 Y0.0007 I0.0 J0.003
G3 X1.7844 Y0.0072 I-0.0039 J0.0425
G3 X1.7845 Y0.0073 I-0.0016 J0.0025
G1 X1.8051 Y0.022
G3 X1.8053 Y0.0222 I-0.0017 J0.0024
G2 X1.8301 Y0.0389 I0.0835 J-0.097
G2 X1.8631 Y0.0459 I0.0478 J-0.1443
G1 X1.8632
G2 X1.925 Y0.0473 I0.0386 J-0.3294
G3 X1.9253 I0.0002 J0.003
G1 X2.0164
G3 X2.0194 Y0.0503 I0.0 J0.003
G1 Y1.4458
G1 X2.0144 Y1.9076
G1 X2.0147 Y2.1384
G1 Y2.1385
G2 X2.0185 Y2.3693 I5.1707 J0.0313
G3 X2.0211 Y2.4676 I-6.8655 J0.2286
G3 X2.014 Y2.7625 I-2.739 J0.0824
G3 Y2.7626 I-0.003 J-0.0002
G1 X2.0036 Y2.8477
G3 X2.0015 Y2.8502 I-0.003 J-0.0004
G3 X1.9891 Y2.8534 I-0.0284 J-0.0855
G1 X1.989
G3 X1.9726 Y2.8556 I-0.0561 J-0.3564
G1 X1.9725
G3 X1.9553 Y2.8564 I-0.0172 J-0.1742
G1 X1.9374 Y2.8585
G2 X1.9195 Y2.8637 I0.0048 J0.0504
G3 X1.9191 Y2.8638 I-0.0013 J-0.0027
G2 X1.904 Y2.8712 I0.0242 J0.069
G3 X1.9038 Y2.8713 I-0.0016 J-0.0025
G3 X1.8618 Y2.8784 I-0.0311 J-0.0563
G3 X1.8616 Y2.8783 I0.0005 J-0.003
G3 X1.8315 Y2.854 I0.0108 J-0.0441
G3 X1.8314 Y2.8537 I0.0027 J-0.0013
G3 X1.8329 Y2.8133 I0.0485 J-0.0185
G3 X1.8519 Y2.7917 I0.0477 J0.0229
G3 X1.852 Y2.7916 I0.0016 J0.0025
G3 X1.8766 Y2.7856 I0.0227 J0.0393
G3 X1.8772 I-0.0001 J0.003
G3 X1.9037 Y2.7955 I-0.0263 J0.1116
G3 X1.9041 Y2.7957 I-0.0014 J0.0027
G2 X1.9184 Y2.8029 I0.028 J-0.0378
G3 X1.919 Y2.8032 I-0.0009 J0.0029
G2 X1.9353 Y2.8083 I0.0211 J-0.0388
G1 X1.9354
G1 X1.9513 Y2.8104
G2 X1.9667 Y2.8079 I0.0027 J-0.0318
G2 X1.9723 Y2.7906 I-0.0221 J-0.0167
G3 Y2.7905 I0.003 J-0.0001
G1 X1.9734 Y2.7383
G1 X1.9722 Y2.6885
G3 Y2.6881 I0.003 J-0.0001
G2 X1.9675 Y2.6696 I-0.0269 J-0.0029
G2 X1.9566 Y2.6662 I-0.0104 J0.0141
G1 X1.9468 Y2.6675
G2 X1.941 Y2.6703 I0.0036 J0.0147
G2 X1.9393 Y2.6735 I0.0044 J0.0045
G3 X1.9391 Y2.6741 I-0.0029 J-0.0006
G3 X1.9282 Y2.6894 I-0.0449 J-0.0202
G3 X1.9279 Y2.6897 I-0.0021 J-0.0022
G3 X1.9045 Y2.7001 I-0.0387 J-0.056
G3 X1.8811 Y2.7 I-0.0115 J-0.0544
G3 X1.8805 Y2.6998 I0.0006 J-0.0029
G3 X1.8605 Y2.6845 I0.0216 J-0.0489
G3 X1.849 Y2.6614 I0.044 J-0.0365
G3 X1.8496 Y2.6378 I0.0436 J-0.0107
G1 Y2.6377
G3 X1.8678 Y2.6138 I0.042 J0.0131
G3 X1.8943 Y2.6057 I0.0274 J0.0423
G3 X1.8944 I0.0001 J0.003
G3 X1.9233 Y2.615 I-0.0015 J0.0546
G3 X1.9235 Y2.6151 I-0.0017 J0.0025
G2 X1.9589 Y2.6306 I0.0462 J-0.0572
G2 X1.9685 Y2.6115 I-0.0167 J-0.0203
G3 Y2.6113 I0.003 J0.0001
G1 X1.9712 Y2.5864
G2 X1.9734 Y2.4382 I-1.2007 J-0.0919
G3 X1.9725 Y2.3033 I0.7404 J-0.0723
G3 X1.9726 Y2.3027 I0.003 J0.0003
G2 X1.9676 Y2.253 I-0.0625 J-0.0188
G2 X1.9559 Y2.2457 I-0.0141 J0.0096
G3 X1.9558 I0.0004 J-0.003
G2 X1.9475 Y2.2468 I-0.0025 J0.0133
G3 X1.9469 Y2.247 I-0.0013 J-0.0027
G2 X1.941 Y2.2498 I0.0026 J0.013
G2 X1.9393 Y2.2528 I0.0033 J0.0038
G3 X1.936 Y2.2606 I-0.0133 J-0.0011
G3 X1.9283 Y2.2684 I-0.0227 J-0.0146
G3 X1.9175 Y2.2755 I-0.0209 J-0.0199
G3 X1.8784 Y2.2775 I-0.0219 J-0.0451
G1 X1.8783
G3 X1.8515 Y2.251 I0.0169 J-0.0439
G3 X1.8514 Y2.2509 I0.0028 J-0.0011
G3 X1.8532 Y2.212 I0.0487 J-0.0172
G3 X1.8722 Y2.1908 I0.0389 J0.0157
G3 X1.8969 Y2.1849 I0.0209 J0.0334
G3 X1.9241 Y2.195 I-0.0042 J0.0529
G2 X1.9416 Y2.205 I0.0832 J-0.1248
G3 X1.9418 Y2.2052 I-0.0013 J0.0027
G2 X1.9592 Y2.2101 I0.0172 J-0.0275
G2 X1.9695 Y2.188 I-0.0154 J-0.0206
G3 Y2.1876 I0.003 J-0.0002
G1 X1.9713 Y2.1596
G1 X1.9737 Y2.0762
G1 Y2.0761
G2 X1.9734 Y1.993 I-0.9451 J-0.0376
G3 X1.971 Y1.9232 I0.6875 J-0.0588
G3 X1.9724 Y1.8532 I0.6456 J-0.022
G3 Y1.853 I0.003 J0.0002
G2 X1.9684 Y1.7916 I-0.1312 J-0.0222
G2 X1.9604 Y1.7808 I-0.0288 J0.013
G2 X1.941 Y1.7758 I-0.0219 J0.0447
G3 X1.94 Y1.7756 I0.0001 J-0.003
G3 X1.9152 Y1.7552 I0.0206 J-0.0503
G3 X1.9033 Y1.7327 I0.0298 J-0.03
G3 Y1.7317 I0.003 J-0.0005
G3 X1.9153 Y1.709 I0.0407 J0.007
G3 X1.9395 Y1.689 I0.0726 J0.0632
G3 X1.9625 Y1.6831 I0.0191 J0.0263
G3 X1.9633 Y1.6833 I-0.0004 J0.003
G2 X1.9689 Y1.6836 I0.0034 J-0.0083
G2 X1.972 Y1.6781 I-0.0064 J-0.0072
G3 X1.9721 Y1.6778 I0.003 J0.0005
G2 X1.9734 Y1.6625 I-0.0335 J-0.0105
G3 Y1.6624 I0.003 J-0.0004
G1 X1.972 Y1.6459
G2 X1.9694 Y1.6409 I-0.0081 J0.0011
G1 X1.9622 Y1.6412
G3 X1.9396 Y1.6353 I-0.0007 J-0.0435
G3 X1.9154 Y1.6153 I0.0487 J-0.0837
G3 X1.9033 Y1.5924 I0.0249 J-0.0277
G3 Y1.5915 I0.003 J-0.0004
G3 X1.9152 Y1.569 I0.0412 J0.0073
G3 X1.94 Y1.5486 I0.0457 J0.0304
G3 X1.9409 Y1.5484 I0.0011 J0.0028
G2 X1.9603 Y1.5434 I-0.0046 J-0.0581
G2 X1.9683 Y1.529 I-0.0275 J-0.0246
G2 X1.9724 Y1.4497 I-0.2511 J-0.0527
G3 Y1.4495 I0.003 J-0.0003
G3 X1.9734 Y1.2712 I1.6899 J-0.0796
G1 X1.9753 Y1.2008
G3 Y1.2007 I0.003 J0.0001
G2 X1.9727 Y1.1308 I-0.3215 J-0.0227
G3 X1.9707 Y1.0293 I0.319 J-0.0568
G1 X1.9739 Y1.0097
G3 Y1.0094 I0.003 J0.0005
G2 X1.9745 Y1.0002 I-0.0217 J-0.006
G3 X1.9746 Y0.9989 I0.003 J-0.0004
G2 X1.9712 Y0.9944 I-0.0034 J-0.001
G2 X1.9668 Y0.9959 I0.0007 J0.0088
G3 X1.966 Y0.9963 I-0.0017 J-0.0025
G2 X1.9569 Y1.0012 I0.0072 J0.0246
G3 X1.9436 Y1.0094 I-0.0248 J-0.0253
G3 X1.9018 Y1.0163 I-0.0304 J-0.0533
G3 X1.9017 I0.0006 J-0.0029
G3 X1.8716 Y0.9919 I0.0108 J-0.0441
G3 X1.8715 Y0.9917 I0.0027 J-0.0013
G3 X1.8729 Y0.9512 I0.0458 J-0.0187
G3 X1.892 Y0.9296 I0.0457 J0.0212
G3 X1.8922 Y0.9295 I0.0016 J0.0025
G3 X1.9166 Y0.9235 I0.0241 J0.0453
G3 X1.9171 I0.0 J0.003
G3 X1.9439 Y0.9335 I-0.0125 J0.075
G1 X1.944
G1 X1.9564 Y0.9412
G3 X1.9566 Y0.9413 I-0.0016 J0.0026
G2 X1.9662 Y0.9464 I0.0232 J-0.0321
G3 X1.9668 Y0.9468 I-0.001 J0.0028
G2 X1.9712 Y0.9483 I0.0051 J-0.0073
G2 X1.9781 Y0.9393 I0.0004 J-0.0068
G3 X1.978 Y0.9388 I0.0028 J-0.001
G1 X1.9707 Y0.8928
G3 X1.9639 Y0.8149 I0.514 J-0.0847
G3 Y0.8147 I0.003 J0.0
G3 X1.9727 Y0.7373 I0.6082 J0.0298
G2 X1.9734 Y0.5211 I-1.3976 J-0.1128
G3 Y0.5208 I0.003 J-0.0002
G1 Y0.0934
G1 X1.903
G3 X1.9028 I0.0 J-0.003
G2 X1.8539 Y0.0949 I-0.0169 J0.2423
G3 X1.8538 I-0.0004 J-0.003
G2 X1.8274 Y0.1017 I0.0061 J0.0782
G2 X1.8085 Y0.1173 I0.031 J0.0568
G3 X1.8081 Y0.1177 I-0.0023 J-0.0019
G3 X1.7781 Y0.1378 I-0.123 J-0.1517
G3 X1.7778 Y0.1379 I-0.0014 J-0.0026
G3 X1.7766 Y0.1384 I-0.0264 J-0.0613
G0 Z0.125
G0 X1.9043 Y0.1679
G0 Z0.0624
G1 F20.0 Z-0.0026
G2 F40.0 X1.904 Y0.171 I0.0112 J0.0026
G2 X1.9058 Y0.1774 I0.0137 J-0.0003
G1 Y0.1775
G2 X1.9105 Y0.1821 I0.0112 J-0.0065
G2 X1.917 Y0.1839 I0.0066 J-0.0112
G2 X1.9236 Y0.1821 I-0.0001 J-0.0131
G2 X1.9282 Y0.1775 I-0.0067 J-0.0114
G2 X1.93 Y0.1709 I-0.0107 J-0.0065
G2 Y0.1707 I-0.003 J0.0
G2 X1.9284 Y0.1646 I-0.0162 J0.0011
G2 X1.9232 Y0.1595 I-0.009 J0.0039
G2 X1.9228 Y0.1594 I-0.0012 J0.0028
G1 X1.9178 Y0.158
G2 X1.9173 Y0.1579 I-0.0008 J0.0029
G2 X1.9102 Y0.1598 I-0.001 J0.0103
G2 X1.9099 Y0.1601 I0.0018 J0.0024
G1 X1.9063 Y0.1637
G2 X1.9059 Y0.1642 I0.0021 J0.0021
G2 X1.9043 Y0.1679 I0.0097 J0.0063
G0 Z0.125
G0 X1.7603 Y0.5
G0 Z0.0624
G1 F20.0 Z-0.0026
G1 F40.0 X1.7602
G2 X1.7598 Y0.4998 I-0.0012 J0.0028
G1 X1.7548 Y0.4985
G2 X1.7543 Y0.4984 I-0.0008 J0.0029
G2 X1.7472 Y0.5003 I-0.001 J0.0103
G2 X1.7468 Y0.5006 I0.0018 J0.0024
G1 X1.7432 Y0.5042
G2 X1.7428 Y0.5047 I0.0021 J0.0021
G2 X1.741 Y0.5115 I0.0097 J0.0063
G2 X1.7427 Y0.5179 I0.0137 J-0.0003
G2 X1.7474 Y0.5226 I0.0112 J-0.0065
G2 X1.754 Y0.5244 I0.0066 J-0.0112
G2 X1.7605 Y0.5226 I-0.0001 J-0.0131
G2 X1.7652 Y0.5179 I-0.0067 J-0.0114
G2 X1.767 Y0.5113 I-0.0107 J-0.0065
G2 Y0.5112 I-0.003 J0.0
G2 X1.7653 Y0.5051 I-0.0162 J0.0011
G2 X1.7603 Y0.5 I-0.009 J0.0039
G0 Z0.125
G0 X1.6882 Y0.5352
G0 Z0.0624
G1 F20.0 Z-0.0026
G3 F40.0 X1.6934 Y0.5466 I-0.2199 J0.1074
G2 X1.8098 Y0.6101 I0.1151 J-0.0725
G3 X1.81 I0.0 J0.003
G1 X1.8914 Y0.6129
G3 X1.8943 Y0.6159 I-0.0001 J0.003
G1 X1.8971 Y0.7428
G1 X1.8999 Y0.8698
G3 X1.8991 Y0.8718 I-0.003 J0.0001
G1 X1.8693 Y0.9058
G2 X1.8501 Y0.9319 I0.1819 J0.1538
G2 X1.8411 Y0.9604 I0.062 J0.0354
G3 X1.841 Y0.9607 I-0.003 J-0.0003
G2 X1.8372 Y1.007 I0.1942 J0.0394
G3 Y1.0073 I-0.003 J0.0001
G1 X1.8342 Y1.0766
G3 X1.8313 Y1.0795 I-0.003 J-0.0001
G1 X1.7638 Y1.0824
G1 X1.7298 Y1.0852
G3 X1.7297 I-0.0002 J-0.003
G2 X1.7063 Y1.0894 I0.0022 J0.0792
G3 X1.7059 Y1.0895 I-0.001 J-0.0028
G2 X1.6986 Y1.0933 I0.0028 J0.0144
G1 X1.696 Y1.0989
G3 X1.6959 Y1.0992 I-0.0027 J-0.0012
G3 X1.688 Y1.1072 I-0.0197 J-0.0115
G3 X1.6772 Y1.1143 I-0.0199 J-0.0186
G3 X1.6381 Y1.1162 I-0.0219 J-0.0465
G3 X1.6112 Y1.0897 I0.0166 J-0.0436
G1 Y1.0896
G3 X1.613 Y1.0507 I0.0478 J-0.0173
G3 X1.632 Y1.0295 I0.0403 J0.017
G3 X1.6567 Y1.0237 I0.0213 J0.035
G3 X1.6568 I-0.0002 J0.003
G3 X1.6835 Y1.0335 I-0.0081 J0.0632
G1 X1.7016 Y1.0411
G1 X1.7275 Y1.0464
G2 X1.7557 Y1.0484 I0.0256 J-0.1607
G1 X1.7558
G1 X1.8032
G1 Y0.9883
G3 X1.8031 Y0.9664 I0.2698 J-0.0124
G3 Y0.9662 I0.003 J0.0001
G1 X1.8049 Y0.9445
G3 X1.805 Y0.9444 I0.003 J0.0003
G3 X1.8137 Y0.9175 I0.077 J0.0103
G3 X1.8138 Y0.9174 I0.0026 J0.0014
G1 X1.8446 Y0.8667
G1 X1.8425 Y0.6554
G1 X1.7319 Y0.6406
G3 X1.7312 Y0.6404 I0.0004 J-0.003
G3 X1.6938 Y0.6147 I0.0378 J-0.0949
G1 Y0.6146
G3 X1.6485 Y0.545 I0.1906 J-0.1732
G2 X1.5194 Y0.4838 I-0.1303 J0.1083
G1 X1.4888 Y0.4841
G1 X1.4734 Y0.4845
G1 X1.4582 Y0.4852
G3 X1.4581 I-0.0001 J-0.003
G2 X1.4261 Y0.4908 I0.0004 J0.0961
G2 X1.408 Y0.5028 I0.0261 J0.059
G3 X1.396 Y0.5134 I-0.0303 J-0.0223
G3 X1.3849 Y0.5208 I-0.029 J-0.0316
G3 X1.3761 Y0.5238 I-0.0123 J-0.0211
G3 X1.3756 I-0.0004 J-0.003
G3 X1.3662 Y0.5206 I0.0008 J-0.0174
G1 X1.3555 Y0.5134
G3 X1.3551 Y0.5132 I0.0017 J-0.0025
G1 X1.3437 Y0.5031
G3 X1.3435 Y0.5029 I0.002 J-0.0023
G2 X1.3232 Y0.4876 I-0.0594 J0.0577
G1 X1.3231 Y0.4875
G2 X1.3066 Y0.4847 I-0.0121 J0.0211
G2 X1.2909 Y0.4937 I0.0174 J0.0485
G3 X1.2907 Y0.4939 I-0.0019 J-0.0023
G3 X1.2774 Y0.4993 I-0.0182 J-0.0255
G1 X1.2773
G1 X1.2559 Y0.502
G3 X1.2555 I-0.0004 J-0.003
G1 X1.2295 Y0.5019
G3 X1.1962 Y0.4984 I-0.0027 J-0.1321
G3 X1.181 Y0.4896 I0.005 J-0.0263
G3 X1.1805 Y0.4887 I0.0023 J-0.002
G3 X1.1775 Y0.4708 I0.038 J-0.0155
G3 X1.181 Y0.4521 I0.0343 J-0.0033
G3 X1.1817 Y0.4511 I0.0027 J0.0013
G3 X1.2033 Y0.4438 I0.0204 J0.0249
G3 X1.2556 Y0.4427 I0.031 J0.2404
G1 X1.2974 Y0.441
G3 X1.2975 I0.0001 J0.003
G2 X1.3313 Y0.4365 I0.0007 J-0.1224
G3 X1.3315 I0.0008 J0.0029
G2 X1.3525 Y0.4298 I-0.0233 J-0.1108
G3 X1.3694 Y0.4224 I0.0397 J0.067
G3 X1.3698 Y0.4223 I0.0009 J0.0029
G3 X1.3849 Y0.4231 I0.0056 J0.0365
G3 X1.3856 Y0.4233 I-0.0008 J0.0029
G1 X1.4025 Y0.4324
G3 X1.4026 I-0.0014 J0.0026
G2 X1.4251 Y0.4413 I0.0397 J-0.0677
G1 X1.4639 Y0.4463
G2 X1.5238 Y0.4478 I0.0461 J-0.6482
G3 X1.6039 Y0.4505 I0.0311 J0.2634
G3 X1.6042 Y0.4506 I-0.0006 J0.0029
G3 X1.6471 Y0.4756 I-0.0306 J0.1018
G3 X1.6473 Y0.4757 I-0.0021 J0.0022
G3 X1.6882 Y0.5352 I-0.179 J0.1669
G0 Z0.125
G0 X1.6049 Y0.5531
G0 Z0.0624
G1 F20.0 Z-0.0026
G3 F40.0 X1.609 Y0.5973 I-0.1805 J0.0388
G1 X1.6103 Y0.6245
G2 X1.6137 Y0.6446 I0.0763 J-0.0026
G1 X1.6187 Y0.6547
G1 X1.6287 Y0.6764
G3 X1.629 Y0.6772 I-0.0027 J0.0013
G3 X1.6235 Y0.7117 I-0.0551 J0.009
G3 Y0.7119 I-0.0027 J-0.0014
G3 X1.6053 Y0.741 I-0.531 J-0.3106
G3 X1.6046 Y0.7417 I-0.0025 J-0.0017
G3 X1.5745 Y0.759 I-0.0891 J-0.1201
G3 X1.5412 Y0.7638 I-0.025 J-0.0559
G3 X1.541 I0.0004 J-0.003
G3 X1.519 Y0.7534 I0.0104 J-0.0507
G3 X1.5185 Y0.753 I0.0019 J-0.0023
G2 X1.5128 Y0.7489 I-0.0103 J0.0083
G3 X1.5123 Y0.7486 I0.001 J-0.0028
G2 X1.5011 Y0.7455 I-0.0119 J0.0204
G3 X1.5009 Y0.7454 I0.0001 J-0.003
G1 X1.4856 Y0.7441
G2 X1.4712 Y0.7454 I-0.002 J0.0595
G1 X1.4592 Y0.7488
G1 X1.4525 Y0.7535
G3 X1.4321 Y0.7628 I-0.0322 J-0.0437
G1 X1.432
G3 X1.4008 Y0.7623 I-0.0144 J-0.0689
G3 X1.377 Y0.7525 I0.0272 J-0.0996
G2 X1.3685 Y0.7483 I-0.0369 J0.0643
G2 X1.3575 Y0.7511 I0.0006 J0.0256
G1 X1.339 Y0.7624
G3 X1.3117 Y0.7765 I-0.0762 J-0.1142
G1 X1.3116
G3 X1.2689 Y0.7828 I-0.0379 J-0.1101
G1 X1.1915 Y0.7841
G1 X1.0784
G1 Y1.1452
G1 X1.076 Y1.2705
G1 Y1.3332
G2 X1.0774 Y1.3956 I2.6232 J-0.0281
G3 X1.072 Y1.5009 I-0.399 J0.0322
G3 Y1.5012 I-0.0029 J-0.0005
G3 X1.058 Y1.5361 I-0.1567 J-0.0424
G3 X1.0577 Y1.5365 I-0.0026 J-0.0014
G2 X1.0474 Y1.5543 I0.0574 J0.0452
G1 X1.0407 Y1.5765
G2 X1.0383 Y1.601 I0.2937 J0.0405
G3 Y1.6012 I-0.003 J-0.0002
G2 X1.0405 Y1.6271 I0.0656 J0.0076
G3 Y1.6273 I-0.0029 J0.0008
G2 X1.0489 Y1.6448 I0.0436 J-0.01
G3 X1.049 Y1.645 I-0.0024 J0.0019
G2 X1.0668 Y1.661 I0.0424 J-0.0291
G3 X1.0671 Y1.6613 I-0.0014 J0.0026
G2 X1.0847 Y1.6724 I0.0704 J-0.0922
G3 X1.0851 Y1.6726 I-0.0014 J0.0027
G2 X1.1026 Y1.6807 I0.0312 J-0.0446
G1 X1.1176 Y1.6845
G1 X1.1177
G3 X1.1399 Y1.6936 I-0.0302 J0.1062
G3 X1.1598 Y1.7126 I-0.027 J0.0481
G3 X1.1685 Y1.7338 I-0.0312 J0.0251
G3 X1.1684 Y1.7347 I-0.003 J0.0003
G3 X1.1562 Y1.7559 I-0.037 J-0.0071
G3 X1.132 Y1.7755 I-0.0718 J-0.0643
G3 X1.1105 Y1.7816 I-0.0233 J-0.041
G3 X1.1095 Y1.7815 I-0.0001 J-0.003
G2 X1.1024 Y1.7807 I-0.0053 J0.0167
G3 X1.1021 I-0.0003 J-0.003
G2 X1.0953 Y1.7828 I0.0001 J0.0125
G1 X1.0885 Y1.7882
G2 X1.0811 Y1.8117 I0.0268 J0.0213
G3 Y1.8121 I-0.003 J0.0002
G2 X1.083 Y1.8382 I0.0879 J0.0067
G3 X1.0831 Y1.8387 I-0.0029 J0.0007
G3 X1.0779 Y1.977 I-0.7325 J0.0419
G2 X1.0741 Y2.1934 I2.9943 J0.1606
G3 Y2.1935 I-0.003 J0.0001
G1 X1.0706 Y2.4108
G1 X1.0686 Y2.5061
G1 X1.0661 Y2.6012
G3 X1.0614 Y2.7235 I-1.6806 J-0.0033
G1 X1.0533 Y2.8586
G3 X1.0503 Y2.8614 I-0.003 J-0.0002
G1 X0.72
G1 X0.3897
G3 X0.3873 Y2.8602 I0.0 J-0.003
G1 X0.3375 Y2.7926
G1 X0.2886 Y2.7263
G1 X0.2223
G1 X0.1882 Y2.7276
G2 X0.1644 Y2.731 I0.0229 J0.2468
G2 X0.1565 Y2.7351 I0.0118 J0.0326
G1 X0.1466 Y2.7491
G3 X0.1461 Y2.7496 I-0.0025 J-0.0017
G3 X0.1224 Y2.7602 I-0.03 J-0.0357
G3 X0.0991 Y2.7601 I-0.0113 J-0.0605
G3 X0.0987 Y2.7599 I0.0006 J-0.0029
G3 X0.0785 Y2.7445 I0.014 J-0.0393
G3 X0.067 Y2.7215 I0.0421 J-0.0354
G3 X0.0676 Y2.6978 I0.0425 J-0.0107
G3 X0.0858 Y2.6739 I0.0438 J0.0146
G3 X0.1123 Y2.6658 I0.0278 J0.0436
G3 X0.1126 I0.0001 J0.003
G3 X0.141 Y2.6749 I-0.0057 J0.067
G2 X0.1619 Y2.6835 I0.144 J-0.3185
G2 X0.1922 Y2.6885 I0.0286 J-0.0783
G3 X0.1928 Y2.6886 I0.0001 J0.003
G2 X0.2131 Y2.6897 I0.0147 J-0.0819
G3 X0.2136 I0.0002 J0.003
G2 X0.2341 Y2.6903 I0.0147 J-0.1592
G3 X0.2342 Y2.6902 I0.0001 J0.003
G1 X0.3048
G3 X0.3051 Y2.6903 I0.0 J0.003
G1 X0.3179 Y2.6915
G3 X0.3199 Y2.6926 I-0.0003 J0.003
G1 X0.4214 Y2.8138
G1 X0.9859 Y2.8162
G1 X1.0111 Y2.7954
G1 X1.0197 Y2.186
G1 X1.0098 Y2.1871
G3 X1.0096 I-0.0003 J-0.003
G2 X0.9988 Y2.1905 I0.0014 J0.0234
G1 X0.9903 Y2.1958
G3 X0.9901 Y2.1959 I-0.0016 J-0.0025
G3 X0.9774 Y2.2011 I-0.0295 J-0.0541
G3 X0.977 Y2.2012 I-0.0008 J-0.0029
G1 X0.9556 Y2.2039
G3 X0.9289 Y2.2038 I-0.0132 J-0.0782
G3 X0.8959 Y2.2003 I-0.003 J-0.1269
G3 X0.8806 Y2.1915 I0.005 J-0.0263
G3 X0.8801 Y2.1906 I0.0023 J-0.002
G3 X0.8771 Y2.1728 I0.0411 J-0.016
G3 X0.8807 Y2.1537 I0.0294 J-0.0043
G3 X0.8817 Y2.1527 I0.0026 J0.0015
G3 X0.9049 Y2.1463 I0.0214 J0.0321
G1 X0.9338 Y2.1459
G3 X0.934 I0.0 J0.003
G1 X0.9628 Y2.1469
G1 X1.0423 Y2.149
G1 Y1.9692
G1 Y1.9691
G1 X1.043 Y1.9152
G1 X1.0436 Y1.8614
G3 X1.0476 Y1.7985 I0.4631 J-0.0019
G3 Y1.7982 I0.003 J0.0004
G3 X1.055 Y1.7727 I0.2146 J0.0484
G3 X1.0554 Y1.772 I0.0028 J0.001
G2 X1.0681 Y1.7449 I-0.0715 J-0.0501
G2 X1.0616 Y1.7134 I-0.0561 J-0.0048
G2 X1.0362 Y1.6812 I-0.1531 J0.0941
G3 X1.0144 Y1.6588 I0.2458 J-0.2614
G3 X1.0142 Y1.6586 I0.0022 J-0.002
G3 X1.0043 Y1.6342 I0.0435 J-0.0319
G3 X1.0023 Y1.5975 I0.1683 J-0.0278
G3 X1.0041 Y1.5643 I0.1704 J-0.0072
G3 X1.0108 Y1.5411 I0.0528 J0.0025
G3 X1.011 Y1.5407 I0.0026 J0.0015
G1 X1.0229 Y1.5251
G3 X1.0231 Y1.5249 I0.0024 J0.0018
G2 X1.0359 Y1.5049 I-0.047 J-0.0441
G2 X1.0413 Y1.456 I-0.1076 J-0.0366
G3 X1.0412 Y1.4557 I0.003 J-0.0003
G1 Y1.4004
G1 X1.0423 Y1.3452
G1 Y1.1846
G1 X1.0225
G1 X1.0096 Y1.186
G3 X1.0094 I-0.0003 J-0.003
G2 X0.9987 Y1.1894 I0.0015 J0.0233
G1 X0.9903 Y1.1947
G3 X0.9901 Y1.1948 I-0.0016 J-0.0025
G3 X0.9774 Y1.2 I-0.0301 J-0.0556
G3 X0.977 Y1.2001 I-0.0008 J-0.0029
G1 X0.9556 Y1.2028
G3 X0.9289 Y1.2027 I-0.0132 J-0.0785
G3 X0.8959 Y1.1992 I-0.003 J-0.1267
G3 X0.8806 Y1.1903 I0.005 J-0.0263
G3 X0.8801 Y1.1895 I0.0023 J-0.002
G3 X0.8771 Y1.1717 I0.0411 J-0.016
G3 X0.8807 Y1.1526 I0.0294 J-0.0043
G3 X0.8817 Y1.1516 I0.0026 J0.0015
G3 X0.9049 Y1.1452 I0.0214 J0.0321
G1 X0.9338 Y1.1448
G3 X0.934 I0.0 J0.003
G1 X0.9628 Y1.1457
G1 X1.0423 Y1.1479
G1 Y0.9412
G1 Y0.7332
G1 X1.0177 Y0.717
G1 X1.0176
G2 X0.9984 Y0.7081 I-0.0341 J0.0486
G1 X0.9725 Y0.7033
G2 X0.9406 Y0.7029 I-0.0176 J0.1301
G3 X0.9402 I-0.0003 J-0.003
G1 X0.9124 Y0.7027
G3 X0.9123 I0.0 J-0.003
G3 X0.8904 Y0.6997 I0.0056 J-0.1218
G3 X0.8898 Y0.6995 I0.0007 J-0.0029
G1 X0.8793 Y0.6944
G3 X0.879 Y0.6943 I0.0013 J-0.0027
G1 X0.8632 Y0.6847
G2 X0.846 Y0.6862 I-0.0065 J0.0235
G2 X0.838 Y0.6961 I0.0073 J0.0141
G2 X0.8391 Y0.7021 I0.0094 J0.0015
G3 X0.8394 Y0.7027 I-0.0026 J0.0014
G2 X0.8424 Y0.709 I0.0195 J-0.0055
G1 X0.8472 Y0.7139
G3 X0.8477 Y0.7146 I-0.0021 J0.0021
G1 X0.8528 Y0.7238
G3 X0.853 Y0.7243 I-0.0026 J0.0014
G3 X0.8567 Y0.7429 I-0.0702 J0.0238
G3 X0.8581 Y0.7663 I-0.0987 J0.0176
G3 X0.8563 Y0.794 I-0.0948 J0.0077
G3 X0.8498 Y0.8123 I-0.0419 J-0.0047
G3 X0.8496 Y0.8126 I-0.0025 J-0.0016
G3 X0.8375 Y0.8233 I-0.0446 J-0.0382
G3 X0.8178 Y0.8324 I-0.031 J-0.0409
G3 X0.8176 Y0.8325 I-0.0007 J-0.0029
G3 X0.8039 Y0.8308 I-0.0042 J-0.0229
G3 X0.8036 Y0.8307 I0.0012 J-0.0027
G3 X0.7884 Y0.8174 I0.0285 J-0.0477
G3 X0.7747 Y0.793 I0.0541 J-0.0467
G3 X0.7746 Y0.7927 I0.0028 J-0.0009
G3 X0.7744 Y0.7618 I0.0823 J-0.016
G3 X0.7874 Y0.7261 I0.1065 J0.0187
G1 X0.7949 Y0.7093
G3 X0.795 Y0.709 I0.0027 J0.0012
G2 X0.8 Y0.6933 I-0.0348 J-0.0197
G3 X0.8001 Y0.6928 I0.003 J0.0003
G2 X0.8021 Y0.6804 I-0.0454 J-0.0134
G1 Y0.6803
G3 X0.807 Y0.6606 I0.0527 J0.0028
G3 X0.8077 Y0.6597 I0.0027 J0.0013
G3 X0.8349 Y0.6493 I0.0269 J0.0295
G1 X0.8974 Y0.6422
G1 X0.8975
G1 X0.974 Y0.6353
G3 X0.9762 Y0.636 I0.0003 J0.003
G1 X1.0268 Y0.6783
G3 Y0.6784 I-0.0019 J0.0023
G1 X1.0522 Y0.7016
G3 X1.071 Y0.7225 I-0.0486 J0.0624
G3 X1.0711 Y0.7227 I-0.0026 J0.0016
G1 X1.078 Y0.7356
G2 X1.0856 Y0.7429 I0.0154 J-0.0084
G2 X1.1176 Y0.747 I0.024 J-0.0614
G3 X1.1178 Y0.7469 I0.0004 J0.003
G3 X1.1859 Y0.7481 I0.0241 J0.5927
G1 X1.2348 Y0.7476
G2 X1.2832 Y0.7431 I0.0005 J-0.2577
G3 X1.2837 I0.0006 J0.0029
G2 X1.3302 Y0.7256 I-0.0012 J-0.0738
G2 X1.3427 Y0.6903 I-0.0691 J-0.0443
G3 Y0.6901 I0.003 J0.0003
G3 X1.3559 Y0.6536 I0.0987 J0.015
G3 X1.3561 Y0.6534 I0.0026 J0.0016
G3 X1.3879 Y0.6276 I0.0624 J0.0444
G3 X1.426 Y0.6229 I0.0271 J0.0628
G3 X1.4548 Y0.6305 I-0.0251 J0.152
G1 X1.4685 Y0.6342
G1 X1.4829 Y0.6358
G2 X1.5007 Y0.6313 I0.0028 J-0.0262
G2 X1.5029 Y0.605 I-0.0368 J-0.0163
G3 Y0.6045 I0.0029 J-0.0007
G3 X1.5102 Y0.5605 I0.0954 J-0.0066
G3 X1.5299 Y0.5299 I0.0863 J0.0339
G3 X1.5302 Y0.5296 I0.0022 J0.0021
G3 X1.5591 Y0.5179 I0.0342 J0.0427
G3 X1.5887 Y0.5256 I0.005 J0.0414
G3 X1.589 Y0.5258 I-0.0018 J0.0024
G3 X1.6045 Y0.5514 I-0.0354 J0.039
G3 Y0.5515 I-0.0029 J0.0008
G3 X1.6049 Y0.5531 I-0.1801 J0.0405
G0 Z0.125
G0 X1.7147 Y0.696
G0 Z0.0624
G1 F20.0 Z-0.0026
G3 F40.0 X1.7268 Y0.6886 I0.0394 J0.0512
G1 X1.7425 Y0.6811
G3 X1.7431 Y0.6809 I0.0013 J0.0027
G1 X1.7554 Y0.6781
G3 X1.756 Y0.678 I0.0007 J0.0029
G3 X1.7696 Y0.681 I0.0012 J0.0267
G3 X1.7859 Y0.6889 I-0.0119 J0.0459
G1 X1.8015 Y0.6993
G3 X1.8018 Y0.6995 I-0.0017 J0.0025
G3 X1.8248 Y0.7304 I-0.0584 J0.0675
G3 Y0.7305 I-0.0027 J0.0012
G3 X1.8274 Y0.7664 I-0.0543 J0.0219
G3 X1.8273 Y0.7666 I-0.0029 J-0.0007
G3 X1.8087 Y0.7979 I-0.081 J-0.027
G3 X1.8084 Y0.7982 I-0.0022 J-0.002
G2 X1.7983 Y0.8096 I0.0271 J0.0341
G2 X1.7956 Y0.819 I0.0194 J0.0107
G1 X1.7993 Y0.8306
G3 X1.8047 Y0.8542 I-0.0512 J0.0242
G3 Y0.8545 I-0.003 J0.0
G3 X1.7969 Y0.8768 I-0.0503 J-0.005
G3 X1.7769 Y0.8942 I-0.0383 J-0.0238
G3 X1.7383 Y0.8959 I-0.0215 J-0.0488
G3 X1.7382 I0.001 J-0.0028
G3 X1.7114 Y0.8696 I0.0188 J-0.046
G3 X1.7113 Y0.8694 I0.0028 J-0.0012
G3 X1.7127 Y0.8312 I0.048 J-0.0174
G3 X1.7129 Y0.8308 I0.0027 J0.0012
G2 X1.7167 Y0.8194 I-0.0197 J-0.0129
G1 Y0.8193
G2 X1.7143 Y0.8101 I-0.0147 J-0.0012
G1 X1.7035 Y0.7979
G3 X1.6849 Y0.7666 I0.0583 J-0.0559
G3 X1.6848 Y0.7663 I0.0029 J-0.0009
G3 X1.6874 Y0.7306 I0.0598 J-0.0137
G1 Y0.7305
G3 X1.7105 Y0.6995 I0.0695 J0.0276
G3 X1.7147 Y0.696 I0.0436 J0.0477
G0 Z0.125
G0 X1.545 Y0.933
G0 Z0.0624
G1 F20.0 Z-0.0026
G3 F40.0 X1.5579 Y0.9474 I-0.026 J0.0363
G3 X1.5636 Y0.9722 I-0.0366 J0.0214
G3 X1.5635 Y0.9724 I-0.003 J-0.0002
G3 X1.5532 Y0.9997 I-0.0675 J-0.0099
G2 X1.5442 Y1.0161 I0.1222 J0.0783
G2 X1.5441 Y1.0271 I0.0221 J0.0056
G2 X1.5527 Y1.0418 I0.0385 J-0.0126
G3 X1.5664 Y1.0653 I-0.0345 J0.0359
G3 Y1.0655 I-0.0029 J0.0007
G3 X1.565 Y1.0832 I-0.0305 J0.0065
G3 X1.5649 Y1.0834 I-0.0028 J-0.0011
G3 X1.548 Y1.1037 I-0.0465 J-0.0217
G3 X1.5362 Y1.114 I-0.0325 J-0.0252
G3 X1.525 Y1.1214 I-0.0275 J-0.0293
G3 X1.5163 Y1.1245 I-0.0123 J-0.0214
G3 X1.5157 I-0.0004 J-0.003
G3 X1.5064 Y1.1212 I0.0009 J-0.0174
G1 X1.4956 Y1.1141
G3 X1.4953 Y1.1138 I0.0017 J-0.0025
G1 X1.4838 Y1.1037
G3 X1.4836 Y1.1035 I0.002 J-0.0023
G2 X1.4716 Y1.0941 I-0.0343 J0.0313
G1 X1.4574 Y1.0869
G2 X1.4458 Y1.0845 I-0.0127 J0.0311
G2 X1.4341 Y1.087 I0.0015 J0.0354
G3 X1.4337 Y1.0871 I-0.0011 J-0.0028
G2 X1.4204 Y1.0937 I0.0088 J0.0342
G1 Y1.0938
G1 X1.4079 Y1.1036
G3 X1.3961 Y1.114 I-0.0337 J-0.0264
G3 X1.3848 Y1.1214 I-0.0276 J-0.0295
G3 X1.3761 Y1.1245 I-0.0124 J-0.0214
G3 X1.3756 I-0.0004 J-0.003
G3 X1.3662 Y1.1212 I0.0008 J-0.0173
G1 X1.3555 Y1.1141
G3 X1.3551 Y1.1138 I0.0017 J-0.0025
G1 X1.3437 Y1.1037
G3 X1.3435 Y1.1036 I0.002 J-0.0023
G2 X1.3232 Y1.0882 I-0.0595 J0.0577
G1 X1.3231
G2 X1.3066 Y1.0854 I-0.0121 J0.0211
G2 X1.2909 Y1.0944 I0.0174 J0.0485
G3 X1.2907 Y1.0945 I-0.0019 J-0.0023
G3 X1.2774 Y1.1 I-0.0182 J-0.0255
G1 X1.2773
G1 X1.2559 Y1.1027
G3 X1.2555 I-0.0004 J-0.003
G1 X1.2295 Y1.1026
G3 X1.1962 Y1.099 I-0.0027 J-0.1322
G3 X1.181 Y1.0902 I0.005 J-0.0263
G3 X1.1805 Y1.0894 I0.0023 J-0.002
G3 X1.1775 Y1.0715 I0.038 J-0.0155
G3 X1.181 Y1.0527 I0.0343 J-0.0033
G3 X1.1817 Y1.0518 I0.0027 J0.0013
G3 X1.2033 Y1.0445 I0.0204 J0.0249
G3 X1.2556 Y1.0434 I0.031 J0.2402
G1 X1.2974 Y1.0417
G3 X1.2975 I0.0001 J0.003
G2 X1.3313 Y1.0372 I0.0008 J-0.1214
G3 X1.3315 Y1.0371 I0.0008 J0.0029
G2 X1.3525 Y1.0305 I-0.0253 J-0.1174
G3 X1.3695 Y1.023 I0.0361 J0.0589
G3 X1.3699 Y1.0229 I0.0008 J0.0029
G3 X1.3848 Y1.0237 I0.0053 J0.0406
G3 X1.385 Y1.0238 I-0.0007 J0.0029
G3 X1.4028 Y1.0333 I-0.0165 J0.0523
G2 X1.4333 Y1.046 I0.0473 J-0.0704
G3 X1.4335 Y1.0461 I-0.0006 J0.0029
G2 X1.4625 Y1.0465 I0.0155 J-0.0595
G1 X1.4626
G2 X1.483 Y1.0351 I-0.0071 J-0.0367
G2 X1.4882 Y1.0254 I-0.0219 J-0.0181
G2 X1.4871 Y1.0155 I-0.0141 J-0.0034
G1 X1.4782 Y0.9992
G3 X1.4706 Y0.9565 I0.0523 J-0.0313
G3 X1.4707 Y0.9564 I0.0029 J0.0006
G3 X1.4952 Y0.9264 I0.0442 J0.0112
G3 X1.4953 I0.0013 J0.0027
G3 X1.5367 Y0.9283 I0.0186 J0.0443
G3 X1.545 Y0.933 I-0.0177 J0.041
G0 Z0.125
G0 X1.402 Y0.8696
G0 Z0.0624
G1 F20.0 Z-0.0026
G3 F40.0 X1.4018 Y0.8701 I-0.06 J-0.0266
G3 X1.4017 Y0.8702 I-0.0027 J-0.0012
G3 X1.3852 Y0.8898 I-0.049 J-0.0246
G3 X1.3596 Y0.8986 I-0.0261 J-0.0343
G3 X1.3595 I0.0 J-0.003
G3 X1.3342 Y0.8938 I0.0036 J-0.088
G3 X1.3338 Y0.8937 I0.001 J-0.0028
G2 X1.3197 Y0.8887 I-0.0272 J0.0542
G2 X1.3053 Y0.8893 I-0.0057 J0.0361
G1 X1.2861 Y0.8959
G2 X1.2634 Y0.913 I0.0146 J0.0429
G2 X1.2604 Y0.9297 I0.0198 J0.0122
G2 X1.2772 Y0.9415 I0.0247 J-0.0174
G3 X1.2898 Y0.9474 I-0.0099 J0.0377
G3 X1.2905 Y0.948 I-0.0017 J0.0024
G3 X1.2965 Y0.9578 I-0.0413 J0.0319
G3 X1.2967 Y0.9585 I-0.0027 J0.0013
G3 X1.2969 Y0.9734 I-0.0412 J0.008
G3 X1.291 Y0.9903 I-0.0303 J-0.0012
G3 X1.2905 Y0.9908 I-0.0024 J-0.0018
G3 X1.2724 Y0.998 I-0.0199 J-0.0237
G3 X1.2357 Y0.9994 I-0.0375 J-0.5226
G3 X1.1986 Y0.998 I-0.0122 J-0.1753
G3 X1.1806 Y0.9908 I0.002 J-0.031
G3 X1.1801 Y0.9902 I0.0019 J-0.0023
G3 X1.1742 Y0.9736 I0.0286 J-0.0194
G3 X1.1744 Y0.9585 I0.0325 J-0.0071
G3 X1.1811 Y0.9475 I0.0181 J0.0036
G3 X1.1812 Y0.9474 I0.0019 J0.0024
G3 X1.194 Y0.9415 I0.0222 J0.031
G3 X1.1942 I0.0007 J0.0029
G2 X1.2031 Y0.9371 I-0.0028 J-0.017
G1 X1.2104 Y0.929
G2 X1.2126 Y0.9218 I-0.0086 J-0.0066
G1 X1.2099 Y0.9127
G2 X1.2038 Y0.906 I-0.0142 J0.0067
G1 X1.1936 Y0.901
G3 X1.1813 Y0.8951 I0.0103 J-0.0379
G3 X1.1807 Y0.8947 I0.0017 J-0.0024
G3 X1.1746 Y0.8845 I0.0251 J-0.0223
G3 X1.1744 Y0.8841 I0.0028 J-0.0011
G3 X1.1742 Y0.8691 I0.0339 J-0.0081
G3 X1.1805 Y0.8521 I0.0284 J0.0009
G3 X1.1808 Y0.8518 I0.0023 J0.0019
G3 X1.2 Y0.8436 I0.0209 J0.0223
G3 X1.2396 Y0.8401 I0.031 J0.1286
G1 X1.2751 Y0.8363
G1 X1.2752
G2 X1.3019 Y0.8292 I-0.0064 J-0.0775
G1 X1.3218 Y0.8182
G3 X1.3467 Y0.8017 I0.0593 J0.0625
G3 X1.3471 Y0.8015 I0.0012 J0.0028
G3 X1.3663 Y0.8017 I0.0093 J0.0327
G3 X1.3668 Y0.8019 I-0.0009 J0.0029
G3 X1.3878 Y0.819 I-0.0268 J0.0545
G3 X1.4028 Y0.8363 I-0.0355 J0.046
G3 X1.4071 Y0.8516 I-0.0203 J0.0139
G3 X1.407 Y0.8518 I-0.003 J-0.0002
G3 X1.402 Y0.8696 I-0.0651 J-0.0088
G0 Z0.125
G0 X1.291 Y0.6965
G0 Z0.0624
G1 F20.0 Z-0.0026
G3 F40.0 X1.2908 Y0.6966 I-0.0016 J-0.0025
G3 X1.2803 Y0.7005 I-0.0176 J-0.0312
G3 X1.2801 I-0.0006 J-0.0029
G1 X1.2616 Y0.703
G3 X1.2378 Y0.704 I-0.0165 J-0.1088
G3 X1.208 Y0.7017 I-0.0033 J-0.1488
G3 X1.185 Y0.6929 I0.0076 J-0.0543
G3 X1.1643 Y0.676 I0.0333 J-0.062
G1 X1.0239 Y0.6167
G3 X1.0221 Y0.6141 I0.0012 J-0.0028
G1 X1.0112 Y0.4034
G2 X0.9408 Y0.3994 I-0.0428 J0.13
G3 X0.9404 I-0.0006 J-0.0029
G3 X0.8988 Y0.3977 I-0.0137 J-0.1752
G3 X0.881 Y0.39 I0.003 J-0.0315
G3 X0.8804 Y0.3892 I0.002 J-0.0023
G3 X0.8771 Y0.3706 I0.0254 J-0.0141
G3 X0.8801 Y0.3526 I0.032 J-0.0039
G3 X0.8805 Y0.352 I0.0027 J0.0013
G3 X0.8952 Y0.3432 I0.0202 J0.0168
G3 X0.8954 Y0.3431 I0.0006 J0.0029
G3 X0.9261 Y0.3397 I0.0716 J0.4981
G3 X0.9263 Y0.3396 I0.0002 J0.003
G3 X0.9588 Y0.3403 I0.0064 J0.5227
G3 X0.9591 I-0.0001 J0.003
G3 X0.9889 Y0.3483 I-0.0267 J0.1577
G3 X0.9892 Y0.3485 I-0.0011 J0.0028
G1 X1.0228 Y0.3657
G3 X1.023 Y0.3658 I-0.0014 J0.0027
G1 X1.0719 Y0.3945
G3 X1.0734 Y0.3969 I-0.0015 J0.0026
G1 X1.0762 Y0.4875
G1 X1.079 Y0.5763
G1 X1.1297 Y0.6044
G1 X1.1298
G2 X1.1639 Y0.6203 I0.1034 J-0.1774
G1 X1.2004 Y0.6319
G2 X1.2358 Y0.638 I0.255 J-1.3767
G3 X1.271 Y0.6427 I0.0016 J0.1221
G3 X1.2895 Y0.6509 I-0.0059 J0.0383
G3 X1.2899 Y0.6512 I-0.0019 J0.0023
G3 X1.2965 Y0.6659 I-0.0223 J0.0189
G3 X1.2971 Y0.6777 I-0.0372 J0.0077
G3 X1.2953 Y0.6888 I-0.0217 J0.0022
G3 X1.2952 Y0.6889 I-0.0027 J-0.0012
G1 X1.292 Y0.6953
G3 X1.291 Y0.6965 I-0.0027 J-0.0013
G0 Z0.125
G0 X1.2709 Y0.602
G0 Z0.0624
G1 F20.0 Z-0.0026
G3 F40.0 X1.2563 Y0.6045 I-0.0371 J-0.1742
G3 X1.2562 I-0.0004 J-0.003
G3 X1.2069 Y0.6012 I-0.014 J-0.1601
G3 X1.1773 Y0.5886 I0.0031 J-0.0485
G3 X1.1693 Y0.5781 I0.0185 J-0.0224
G1 X1.1555 Y0.5661
G2 X1.1382 Y0.5544 I-0.0528 J0.0595
G3 X1.138 Y0.5543 I0.0013 J-0.0027
G1 X1.1039 Y0.5341
G3 X1.1024 Y0.5315 I0.0015 J-0.0026
G1 Y0.4283
G1 Y0.3251
G3 X1.1033 Y0.3229 I0.003 J0.0
G1 X1.1488 Y0.2802
G3 X1.1823 Y0.2513 I0.1391 J0.1273
G3 X1.1824 Y0.2512 I0.0017 J0.0025
G3 X1.2087 Y0.2399 I0.0551 J0.0919
G3 X1.2089 Y0.2398 I0.0008 J0.0029
G3 X1.2437 Y0.2395 I0.0183 J0.0902
G3 X1.2755 Y0.243 I0.003 J0.1163
G3 X1.2901 Y0.2517 I-0.0078 J0.0297
G3 X1.2906 Y0.2524 I-0.0022 J0.0021
G3 X1.2936 Y0.2706 I-0.0275 J0.014
G3 X1.2901 Y0.2891 I-0.0311 J0.0037
G3 X1.2896 Y0.2898 I-0.0026 J-0.0014
G3 X1.2712 Y0.2989 I-0.0219 J-0.0212
G3 X1.2297 Y0.3036 I-0.0513 J-0.2679
G3 X1.2292 I-0.0001 J-0.003
G2 X1.1681 Y0.3139 I-0.0127 J0.1113
G1 X1.1591 Y0.3385
G1 X1.1562 Y0.5061
G1 X1.2313 Y0.5372
G1 X1.2692 Y0.5422
G3 X1.2892 Y0.5506 I-0.0042 J0.0385
G3 X1.2896 Y0.551 I-0.0019 J0.0023
G3 X1.2965 Y0.5658 I-0.0219 J0.0192
G3 X1.297 Y0.5776 I-0.0385 J0.0077
G3 X1.2953 Y0.5887 I-0.0216 J0.0023
G3 X1.2952 Y0.5888 I-0.0027 J-0.0012
G1 X1.292 Y0.5952
G3 X1.2903 Y0.5967 I-0.0027 J-0.0013
G3 X1.2709 Y0.602 I-0.0566 J-0.1689
G0 Z0.125
G0 X0.9968 Y0.5814
G0 Z0.0624
G1 F20.0 Z-0.0026
G3 F40.0 X0.9949 Y0.5887 I-0.0216 J-0.0016
G3 Y0.5888 I-0.0027 J-0.0012
G1 X0.9917 Y0.5952
G3 X0.9904 Y0.5965 I-0.0027 J-0.0013
G3 X0.9794 Y0.6004 I-0.018 J-0.0336
G3 X0.9793 I-0.0006 J-0.0029
G1 X0.9596 Y0.6029
G3 X0.9336 Y0.6039 I-0.0158 J-0.0737
G1 X0.9047 Y0.6023
G3 X0.8849 Y0.5962 I0.0 J-0.0353
G1 X0.8848 Y0.5961
G3 X0.8742 Y0.5854 I0.0265 J-0.0367
G1 X0.8594 Y0.5711
G1 X0.8289 Y0.5496
G2 X0.7901 Y0.5262 I-0.1529 J0.2099
G1 X0.4891 Y0.485
G2 X0.4468 Y0.4904 I-0.0082 J0.1028
G2 X0.4269 Y0.5028 I0.0188 J0.0526
G3 X0.4148 Y0.5134 I-0.0373 J-0.0303
G1 X0.4041 Y0.5206
G1 X0.404
G3 X0.3949 Y0.5238 I-0.0111 J-0.0169
G3 X0.3944 I-0.0003 J-0.003
G3 X0.371 Y0.5117 I0.0022 J-0.033
G3 X0.3513 Y0.4868 I0.044 J-0.0551
G3 X0.346 Y0.4634 I0.0402 J-0.0213
G3 X0.3461 Y0.4627 I0.003 J0.0001
G2 X0.347 Y0.4539 I-0.0223 J-0.0065
G1 X0.3437 Y0.4426
G2 X0.3372 Y0.4326 I-0.0477 J0.024
G3 X0.337 Y0.4323 I0.0023 J-0.0019
G3 X0.3271 Y0.4108 I0.0648 J-0.0427
G1 Y0.4107
G3 X0.3232 Y0.366 I0.1201 J-0.0331
G1 X0.3237 Y0.2844
G1 X0.3265 Y0.1554
G3 X0.3295 Y0.1524 I0.003 J0.0001
G1 X0.428 Y0.1496
G3 X0.4281 I0.0001 J0.003
G2 X0.4858 Y0.1463 I0.0059 J-0.4107
G3 X0.4859 I0.0004 J0.003
G2 X0.5254 Y0.1404 I-0.0181 J-0.2569
G1 X0.5489 Y0.1316
G3 X0.5898 Y0.1251 I0.0317 J0.0674
G3 X0.5903 I-0.0004 J0.003
G3 X0.6196 Y0.1502 I-0.0123 J0.044
G1 Y0.1503
G3 X0.6178 Y0.1914 I-0.0437 J0.0186
G3 X0.6101 Y0.2021 I-0.0338 J-0.0159
G1 Y0.2022
G1 X0.6008 Y0.2109
G3 X0.6003 Y0.2113 I-0.0021 J-0.0022
G1 X0.5909 Y0.2169
G3 X0.5902 Y0.2172 I-0.0015 J-0.0026
G3 X0.5666 Y0.2173 I-0.0121 J-0.0417
G3 X0.543 Y0.2068 I0.0068 J-0.047
G3 X0.5423 Y0.2059 I0.0019 J-0.0023
G2 X0.5327 Y0.1923 I-0.0501 J0.0252
G2 X0.523 Y0.1882 I-0.0112 J0.0129
G1 X0.386 Y0.2186
G1 X0.3829 Y0.3538
G1 X0.3903 Y0.4204
G3 X0.3946 I0.0022 J0.014
G3 X0.4069 Y0.4243 I-0.0007 J0.0236
G3 X0.4206 Y0.4318 I-0.0135 J0.0409
G2 X0.4459 Y0.4415 I0.0912 J-0.1994
G2 X0.4923 Y0.4464 I0.0397 J-0.1549
G3 X0.4924 I0.0001 J0.003
G1 X0.5745 Y0.4478
G1 X0.702
G1 Y0.4007
G3 Y0.4006 I0.003 J0.0
G2 X0.7007 Y0.3759 I-0.1294 J-0.0056
G3 X0.7006 Y0.3755 I0.003 J-0.0004
G2 X0.6974 Y0.3587 I-0.0481 J0.0005
G2 X0.6936 Y0.3532 I-0.0183 J0.0086
G1 X0.6878 Y0.3507
G3 X0.6874 Y0.3505 I0.0012 J-0.0028
G3 X0.6793 Y0.3427 I0.0132 J-0.0217
G3 X0.6721 Y0.3318 I0.0178 J-0.0196
G3 X0.6702 Y0.2927 I0.0468 J-0.0219
G1 Y0.2926
G3 X0.6967 Y0.2658 I0.0436 J0.0165
G1 X0.6968
G3 X0.7358 Y0.2676 I0.0173 J0.0478
G3 X0.7569 Y0.2866 I-0.017 J0.0403
G3 X0.7628 Y0.3112 I-0.035 J0.0213
G3 Y0.3114 I-0.003 J-0.0002
G3 X0.7529 Y0.3381 I-0.0629 J-0.008
G1 X0.7457 Y0.3553
G1 X0.7679 Y0.445
G1 X0.8046 Y0.4935
G2 X0.8492 Y0.5163 I0.1602 J-0.2579
G2 X0.8891 Y0.5302 I0.1562 J-0.3842
G1 X0.9305 Y0.5372
G3 X0.969 Y0.5423 I-0.0036 J0.1745
G3 X0.9889 Y0.5506 I-0.004 J0.0375
G3 X0.9893 Y0.551 I-0.0019 J0.0023
G3 X0.9962 Y0.5658 I-0.0214 J0.019
G3 X0.9967 Y0.5776 I-0.0394 J0.0078
G3 X0.9968 Y0.5814 I-0.0215 J0.0023
G0 Z0.125
G0 X0.9766 Y0.5005
G0 Z0.0624
G1 F20.0 Z-0.0026
G3 F40.0 X0.956 Y0.5043 I-0.0431 J-0.1725
G3 X0.9559 Y0.5044 I-0.0004 J-0.003
G3 X0.9066 Y0.5011 I-0.014 J-0.1603
G3 X0.877 Y0.4885 I0.0031 J-0.0485
G3 X0.869 Y0.478 I0.0185 J-0.0224
G1 X0.8552 Y0.466
G1 Y0.4659
G2 X0.8379 Y0.4542 I-0.0525 J0.059
G3 X0.8377 Y0.4541 I0.0013 J-0.0027
G1 X0.8035 Y0.434
G3 X0.8021 Y0.4314 I0.0015 J-0.0026
G1 Y0.3167
G1 Y0.2019
G3 X0.8034 Y0.1994 I0.003 J0.0
G1 X0.8496 Y0.1682
G3 X0.8825 Y0.1486 I0.1002 J0.1311
G3 X0.9111 Y0.1399 I0.0379 J0.0733
G1 X0.9112
G3 X0.9439 Y0.1394 I0.0202 J0.243
G3 X0.9754 Y0.143 I0.0072 J0.0778
G3 X0.9898 Y0.1517 I-0.0074 J0.0283
G3 X0.9903 Y0.1525 I-0.0022 J0.002
G3 X0.9933 Y0.1704 I-0.0322 J0.0146
G3 X0.9902 Y0.1888 I-0.0321 J0.004
G3 X0.9896 Y0.1896 I-0.0027 J-0.0013
G3 X0.973 Y0.1975 I-0.02 J-0.0204
G3 X0.9345 Y0.1996 I-0.0242 J-0.0941
G3 X0.9344 Y0.1995 I0.0004 J-0.003
G2 X0.8993 Y0.1973 I-0.0271 J0.1464
G3 X0.899 I-0.0002 J-0.003
G2 X0.8664 Y0.2041 I-0.0022 J0.0712
G1 X0.8559 Y0.237
G1 X0.8605 Y0.4012
G1 X0.8969 Y0.4362
G2 X0.9301 Y0.437 I0.023 J-0.2846
G3 X0.9305 I0.0001 J0.003
G3 X0.9689 Y0.4421 I-0.0939 J0.8459
G3 X0.9889 Y0.4505 I-0.0044 J0.0388
G3 X0.9893 Y0.4509 I-0.0019 J0.0023
G3 X0.9962 Y0.4657 I-0.0219 J0.0192
G3 X0.9967 Y0.4774 I-0.0384 J0.0077
G3 X0.9949 Y0.4886 I-0.0216 J0.0023
G3 Y0.4887 I-0.0027 J-0.0012
G1 X0.9917 Y0.4951
G3 X0.99 Y0.4966 I-0.0027 J-0.0013
G3 X0.9766 Y0.5005 I-0.0565 J-0.1686
G0 Z0.125
G0 X0.745 Y0.6771
G0 Z0.0624
G1 F20.0 Z-0.0026
G3 F40.0 X0.7527 Y0.6973 I-0.0301 J0.0229
G3 X0.756 Y0.7429 I-0.2558 J0.0413
G3 X0.7566 Y0.787 I-0.2355 J0.0253
G3 X0.7513 Y0.8107 I-0.0438 J0.0028
G3 X0.7512 Y0.811 I-0.0026 J-0.0014
G3 X0.7377 Y0.8231 I-0.0302 J-0.0199
G3 X0.7177 Y0.8324 I-0.0289 J-0.0359
G3 X0.7175 I-0.0006 J-0.0029
G3 X0.704 Y0.8309 I-0.0037 J-0.0278
G3 X0.7039 I0.001 J-0.0028
G3 X0.6881 Y0.817 I0.0132 J-0.0309
G3 X0.6742 Y0.7796 I0.0802 J-0.051
G3 Y0.7794 I0.003 J-0.0004
G3 X0.6731 Y0.7272 I0.3818 J-0.0341
G3 X0.6855 Y0.6853 I0.0763 J-0.0002
G3 X0.6858 Y0.6849 I0.0025 J0.0016
G3 X0.6961 Y0.6755 I0.0656 J0.0615
G3 X0.6962 Y0.6754 I0.0018 J0.0024
G3 X0.7104 Y0.67 I0.018 J0.0254
G3 X0.7258 Y0.6696 I0.0087 J0.0392
G3 X0.7441 Y0.6761 I0.0002 J0.0286
G3 X0.7445 Y0.6765 I-0.0019 J0.0023
G3 X0.745 Y0.6771 I-0.0296 J0.0236
G0 Z0.125
G0 X0.6322 Y0.6944
G0 Z0.0624
G1 F20.0 Z-0.0026
G3 F40.0 X0.6325 Y0.6973 I-0.0374 J0.0057
G3 X0.6358 Y0.7429 I-0.2558 J0.0413
G3 X0.6364 Y0.787 I-0.2355 J0.0253
G3 X0.6312 Y0.8107 I-0.0438 J0.0028
G3 X0.6311 Y0.811 I-0.0026 J-0.0014
G3 X0.6176 Y0.8231 I-0.0302 J-0.0199
G3 X0.5975 Y0.8324 I-0.0288 J-0.0359
G3 X0.5974 I-0.0006 J-0.0029
G3 X0.5839 Y0.8309 I-0.0037 J-0.0278
G3 X0.5837 I0.001 J-0.0028
G3 X0.568 Y0.817 I0.0132 J-0.0309
G3 X0.5541 Y0.7796 I0.0802 J-0.051
G3 Y0.7794 I0.003 J-0.0004
G3 X0.553 Y0.7272 I0.3818 J-0.0341
G3 X0.5653 Y0.6853 I0.0763 J-0.0002
G3 X0.5657 Y0.6849 I0.0025 J0.0016
G3 X0.576 Y0.6755 I0.0656 J0.0615
G3 X0.5761 Y0.6754 I0.0018 J0.0024
G3 X0.5903 Y0.67 I0.018 J0.0254
G3 X0.6056 Y0.6696 I0.0087 J0.0392
G3 X0.6239 Y0.6761 I0.0002 J0.0286
G3 X0.6244 Y0.6765 I-0.0019 J0.0023
G3 X0.6322 Y0.6944 I-0.0296 J0.0236
G0 Z0.125
G0 X0.5254 Y0.725
G0 Z0.0624
G1 F20.0 Z-0.0026
G3 F40.0 X0.5255 Y0.7252 I-0.0029 J0.0008
G3 X0.5238 Y0.7429 I-0.0287 J0.0062
G3 X0.5237 Y0.743 I-0.0028 J-0.0012
G3 X0.5068 Y0.7633 I-0.0524 J-0.0265
G3 X0.4952 Y0.7735 I-0.0391 J-0.0326
G3 X0.4835 Y0.7812 I-0.0209 J-0.0191
G1 X0.4757 Y0.784
G3 X0.4743 Y0.7841 I-0.001 J-0.0028
G3 X0.4538 Y0.7731 I0.0043 J-0.0327
G3 X0.4327 Y0.752 I0.2289 J-0.2501
G3 X0.4217 Y0.7314 I0.0192 J-0.0235
G3 X0.4216 Y0.731 I0.003 J-0.0003
G3 X0.425 Y0.7215 I0.0158 J0.0002
G1 X0.4321 Y0.7108
G3 X0.4323 Y0.7105 I0.0025 J0.0017
G1 X0.4424 Y0.6991
G3 X0.4426 Y0.6989 I0.0023 J0.002
G2 X0.4588 Y0.6737 I-0.0441 J-0.0462
G2 X0.4589 Y0.6484 I-0.0382 J-0.0128
G2 X0.4431 Y0.6236 I-0.0562 J0.0183
G2 X0.4232 Y0.6112 I-0.0998 J0.138
G2 X0.3844 Y0.6049 I-0.041 J0.1297
G1 X0.3843
G1 X0.3457 Y0.6031
G3 X0.3455 I0.0001 J-0.003
G2 X0.3075 Y0.6017 I-0.0257 J0.1903
G3 X0.3073 I-0.0002 J-0.003
G1 X0.1893 Y0.5989
G3 X0.1864 Y0.5962 I0.0001 J-0.003
G1 X0.1833 Y0.558
G2 X0.1791 Y0.5365 I-0.1406 J0.0162
G1 X0.179 Y0.5364
G2 X0.1711 Y0.5164 I-0.0776 J0.0192
G2 X0.1609 Y0.5015 I-0.1164 J0.0692
G3 X0.1508 Y0.4885 I0.1967 J-0.1616
G3 X0.1455 Y0.4734 I0.0207 J-0.0158
G3 Y0.4731 I0.003 J-0.0001
G1 X0.1464 Y0.4605
G3 X0.1465 Y0.4599 I0.003 J0.0002
G2 X0.1472 Y0.4483 I-0.026 J-0.0075
G1 X0.1436 Y0.4328
G2 X0.1367 Y0.4185 I-0.072 J0.0263
G3 X0.1277 Y0.4014 I0.0549 J-0.0398
G3 X0.1256 Y0.3861 I0.0261 J-0.0112
G3 X0.1307 Y0.371 I0.0296 J0.0016
G3 X0.1628 Y0.3438 I0.048 J0.0242
G3 X0.163 I0.0009 J0.0029
G3 X0.1996 Y0.3505 I0.0105 J0.0461
G3 X0.1998 Y0.3507 I-0.0017 J0.0025
G3 X0.223 Y0.3875 I-0.0418 J0.0519
G3 X0.2274 Y0.4057 I-0.0442 J0.0203
G1 X0.2327 Y0.4257
G1 X0.2382 Y0.444
G3 X0.2423 Y0.464 I-0.0704 J0.025
G3 X0.2403 Y0.4818 I-0.0387 J0.0047
G3 X0.2402 Y0.4821 I-0.0028 J-0.001
G1 X0.2325 Y0.4977
G1 X0.2356 Y0.5438
G1 X0.4251 Y0.5614
G2 X0.4479 Y0.5525 I-0.0263 J-0.101
G1 X0.448
G3 X0.4917 Y0.5454 I0.033 J0.0651
G3 X0.4923 Y0.5455 I-0.0004 J0.003
G3 X0.52 Y0.5737 I-0.0148 J0.0422
G3 X0.5201 Y0.5742 I-0.0028 J0.0009
G3 X0.5126 Y0.6184 I-0.0676 J0.0114
G2 X0.5002 Y0.6481 I0.1401 J0.0763
G2 Y0.677 I0.0537 J0.0144
G3 X0.5003 Y0.6772 I-0.0029 J0.0008
G2 X0.5124 Y0.7035 I0.0582 J-0.0108
G3 X0.5253 Y0.7247 I-0.0586 J0.0504
G3 X0.5254 Y0.725 I-0.0028 J0.0011
G0 Z0.125
G0 X0.5872 Y0.9023
G0 Z0.0624
G1 F20.0 Z-0.0026
G3 F40.0 X0.5876 Y0.9022 I0.001 J0.0028
G3 X0.6024 Y0.9024 I0.0071 J0.035
G3 X0.6029 Y0.9025 I-0.0007 J0.0029
G3 X0.6213 Y0.9127 I-0.0329 J0.0811
G3 X0.6214 Y0.9128 I-0.0018 J0.0024
G2 X0.6507 Y0.9262 I0.0413 J-0.0517
G3 X0.6509 I-0.0005 J0.003
G2 X0.6755 Y0.9251 I0.0105 J-0.0384
G2 X0.6978 Y0.9092 I-0.0332 J-0.0702
G3 X0.6981 Y0.9089 I0.0021 J0.0021
G1 X0.7144 Y0.8966
G3 X0.7148 Y0.8964 I0.0018 J0.0024
G3 X0.7404 Y0.8899 I0.0257 J0.0481
G3 X0.7804 Y0.8883 I0.0276 J0.1827
G2 X0.8214 Y0.8865 I0.0118 J-0.2052
G3 X0.8215 I0.0004 J0.003
G2 X0.8458 Y0.8795 I-0.0074 J-0.0711
G2 X0.8658 Y0.8635 I-0.1073 J-0.1557
G3 X0.8862 Y0.847 I0.0589 J0.0518
G3 X0.909 Y0.84 I0.0274 J0.0486
G3 X0.9423 Y0.8401 I0.0163 J0.0917
G3 X0.9729 Y0.8437 I-0.0081 J0.2052
G3 X0.9896 Y0.8513 I-0.0062 J0.0355
G3 X0.9901 Y0.8518 I-0.0019 J0.0023
G3 X0.9961 Y0.866 I-0.0266 J0.0197
G3 X0.9967 Y0.878 I-0.0322 J0.0075
G3 X0.9949 Y0.889 I-0.0221 J0.0021
G3 Y0.8891 I-0.0027 J-0.0012
G1 X0.9917 Y0.8955
G3 X0.9903 Y0.8969 I-0.0027 J-0.0013
G3 X0.978 Y0.9007 I-0.0202 J-0.0433
G3 X0.9779 I-0.0005 J-0.003
G1 X0.9546 Y0.9033
G3 X0.9239 Y0.9043 I-0.0191 J-0.1151
G2 X0.8945 Y0.9056 I-0.0047 J0.2178
G3 X0.8943 I-0.0003 J-0.003
G2 X0.8722 Y0.9091 I0.0037 J0.0966
G1 X0.8616 Y0.9139
G3 X0.8495 Y0.9192 I-0.0203 J-0.0298
G3 X0.8251 Y0.9229 I-0.0234 J-0.0721
G3 X0.8091 Y0.9237 I-0.0109 J-0.0572
G3 X0.7936 Y0.9243 I-0.0123 J-0.1281
G1 X0.7556 Y0.9261
G2 X0.7297 Y0.9322 I0.0078 J0.0925
G1 X0.7093 Y0.9438
G3 X0.6939 Y0.9539 I-0.0836 J-0.1107
G3 X0.6772 Y0.9615 I-0.0299 J-0.044
G3 X0.6771 I-0.0007 J-0.0029
G1 X0.6642 Y0.9643
G3 X0.6637 I-0.0006 J-0.0029
G2 X0.6527 Y0.9668 I0.002 J0.0348
G1 X0.6391 Y0.9738
G2 X0.6271 Y0.9834 I0.0805 J0.1133
G3 X0.6152 Y0.9938 I-0.036 J-0.0289
G3 X0.604 Y1.0013 I-0.0273 J-0.0289
G3 X0.5953 Y1.0043 I-0.0123 J-0.0213
G3 X0.5947 Y1.0044 I-0.0004 J-0.003
G3 X0.5853 Y1.0011 I0.0009 J-0.0175
G1 X0.5746 Y0.9939
G3 X0.5743 Y0.9937 I0.0017 J-0.0025
G1 X0.5629 Y0.9837
G2 X0.5462 Y0.972 I-0.1565 J0.205
G2 X0.5234 Y0.9661 I-0.0267 J0.0569
G1 X0.4871 Y0.9643
G1 X0.4314
G1 X0.3922 Y1.0304
G1 X0.3521 Y1.098
G3 X0.3497 Y1.0995 I-0.0026 J-0.0015
G1 X0.2922 Y1.1025
G3 X0.2918 I-0.0002 J-0.003
G2 X0.2781 Y1.1036 I-0.0029 J0.0463
G3 X0.2775 Y1.1037 I-0.0007 J-0.0029
G2 X0.2635 Y1.105 I0.0011 J0.0901
G1 X0.2431 Y1.1087
G2 X0.2372 Y1.1117 I0.0087 J0.0243
G2 X0.2411 Y1.1194 I0.0081 J0.0007
G3 X0.2419 Y1.1201 I-0.0016 J0.0026
G2 X0.2508 Y1.1281 I0.026 J-0.0202
G3 X0.2514 Y1.1286 I-0.0016 J0.0026
G1 X0.286 Y1.165
G1 X0.2861 Y1.1651
G2 X0.3052 Y1.1841 I0.1747 J-0.1562
G1 X0.3258 Y1.2017
G3 X0.3438 Y1.2217 I-0.0305 J0.0456
G3 X0.344 Y1.2223 I-0.0027 J0.0014
G3 X0.3442 Y1.2412 I-0.0322 J0.0098
G3 X0.344 Y1.2417 I-0.0029 J-0.0008
G3 X0.3267 Y1.2637 I-0.0639 J-0.0324
G3 X0.3045 Y1.2812 I-0.0426 J-0.0313
G3 X0.3041 Y1.2813 I-0.0012 J-0.0028
G3 X0.2848 I-0.0096 J-0.0374
G3 X0.2844 Y1.2811 I0.0008 J-0.0029
G3 X0.2619 Y1.2633 I0.0225 J-0.0515
G1 X0.2511 Y1.2493
G3 X0.251 Y1.2491 I0.0024 J-0.0018
G3 X0.2459 Y1.233 I0.0256 J-0.0169
G3 Y1.2327 I0.003 J-0.0001
G1 X0.2473 Y1.2167
G2 X0.242 Y1.183 I-0.0973 J-0.002
G3 Y1.1829 I0.0028 J-0.001
G2 X0.2225 Y1.1493 I-0.0751 J0.0212
G2 X0.2037 Y1.1399 I-0.0236 J0.0235
G3 X0.1858 Y1.1396 I-0.0072 J-0.1148
G3 X0.1854 Y1.1395 I0.0003 J-0.003
G3 X0.1629 Y1.1266 I0.0105 J-0.0444
G3 X0.1478 Y1.1072 I0.0289 J-0.0381
G3 X0.1477 Y1.107 I0.0028 J-0.0012
G3 X0.1471 Y1.083 I0.0365 J-0.013
G3 Y1.0829 I0.0029 J0.0009
G3 X0.1587 Y1.0602 I0.0828 J0.0279
G1 X0.1588
G3 X0.1795 Y1.0446 I0.0357 J0.0258
G3 X0.1802 Y1.0444 I0.001 J0.0028
G1 X0.1918 Y1.0432
G3 X0.1921 I0.0003 J0.003
G3 X0.2077 Y1.0467 I-0.0004 J0.0387
G1 X0.2078
G1 X0.2218 Y1.0535
G3 X0.222 Y1.0536 I-0.0013 J0.0027
G2 X0.239 Y1.061 I0.0445 J-0.0788
G3 X0.2391 Y1.0611 I-0.0009 J0.0029
G2 X0.2621 Y1.0664 I0.0324 J-0.0881
G3 X0.2624 I-0.0003 J0.003
G2 X0.2866 Y1.0684 I0.0214 J-0.1094
G3 X0.287 Y1.0685 I0.0001 J0.003
G2 X0.317 Y1.066 I0.0091 J-0.0712
G2 X0.3376 Y1.0491 I-0.0397 J-0.0697
G2 X0.367 Y1.0024 I-0.3738 J-0.2676
G3 Y1.0023 I0.0026 J0.0014
G1 X0.407 Y0.9348
G3 X0.4095 Y0.9333 I0.0026 J0.0015
G1 X0.4782 Y0.9303
G2 X0.5169 Y0.9268 I-0.0131 J-0.3579
G2 X0.5488 Y0.9203 I-0.0392 J-0.2772
G2 X0.5695 Y0.912 I-0.0275 J-0.0977
G1 X0.5867 Y0.9025
G3 X0.5872 Y0.9023 I0.0014 J0.0026
G0 Z0.125
G0 X0.5959 Y1.0442
G0 Z0.0624
G1 F20.0 Z-0.0026
G3 F40.0 X0.6032 Y1.0441 I0.0043 J0.0695
G3 X0.6037 Y1.0442 I-0.0001 J0.003
G2 X0.6461 Y1.0509 I0.0841 J-0.3931
G2 X0.6887 Y1.0353 I-0.0066 J-0.0841
G2 X0.7345 Y0.9964 I-0.2368 J-0.3254
G1 X0.7778 Y0.9498
G3 X0.78 Y0.9488 I0.0022 J0.002
G1 X0.8851 Y0.9461
G1 X0.9563 Y0.9452
G3 X0.9875 Y0.9504 I0.0089 J0.0427
G3 X0.9882 Y0.951 I-0.0015 J0.0026
G3 X0.9961 Y0.9661 I-0.0255 J0.0229
G3 X0.9967 Y0.978 I-0.038 J0.0078
G3 X0.9949 Y0.9891 I-0.0213 J0.0023
G3 Y0.9892 I-0.0027 J-0.0012
G1 X0.9917 Y0.9956
G3 X0.9901 Y0.9971 I-0.0027 J-0.0013
G3 X0.9578 Y1.0039 I-0.0365 J-0.0934
G3 X0.9086 Y1.0025 I-0.021 J-0.1348
G3 X0.8789 Y0.9941 I0.0119 J-0.0981
G3 X0.8783 Y0.9937 I0.0013 J-0.0027
G2 X0.87 Y0.9891 I-0.018 J0.0228
G2 X0.8529 Y0.9857 I-0.0213 J0.0619
G3 X0.8526 I0.0002 J-0.003
G2 X0.8303 Y0.9843 I-0.0169 J0.0961
G3 X0.8301 I-0.0002 J-0.003
G2 X0.7997 Y0.9869 I-0.004 J0.1363
G2 X0.7786 Y0.9986 I0.0132 J0.0485
G3 X0.7785 Y0.9987 I-0.002 J-0.0022
G2 X0.7523 Y1.0277 I0.1019 J0.1186
G1 X0.7522
G1 X0.7347 Y1.0516
G2 X0.7243 Y1.0704 I0.0757 J0.0542
G1 X0.7226 Y1.081
G1 X0.723 Y1.0992
G3 X0.7229 Y1.0999 I-0.003 J0.0001
G3 X0.7104 Y1.1227 I-0.0445 J-0.0095
G3 X0.6906 Y1.1381 I-0.0369 J-0.0271
G3 X0.69 Y1.1383 I-0.0011 J-0.0028
G1 X0.6794 Y1.14
G1 X0.6793
G3 X0.6655 Y1.1385 I-0.0039 J-0.0286
G1 X0.6542 Y1.1345
G2 X0.6047 Y1.1393 I-0.0177 J0.0747
G3 X0.6045 Y1.1394 I-0.0012 J-0.0027
G2 X0.5564 Y1.1785 I0.0339 J0.0908
G2 X0.5435 Y1.2251 I0.1043 J0.0541
G3 X0.5381 Y1.2478 I-0.0589 J-0.0022
G1 X0.538
G3 X0.5182 Y1.2725 I-0.0677 J-0.0341
G3 X0.4949 Y1.2847 I-0.0255 J-0.0204
G3 X0.4948 I-0.0002 J-0.003
G3 X0.4854 Y1.2816 I-0.0002 J-0.0149
G3 X0.474 Y1.2739 I0.0107 J-0.0281
G1 X0.4627 Y1.2639
G3 X0.4521 Y1.2519 I0.038 J-0.0441
G1 X0.4449 Y1.2411
G3 X0.4446 Y1.2404 I0.0025 J-0.0017
G1 X0.4418 Y1.2326
G3 X0.4417 Y1.2314 I0.0028 J-0.001
G3 X0.4534 Y1.2092 I0.0316 J0.0025
G3 X0.4768 Y1.1885 I0.062 J0.0465
G3 X0.477 Y1.1884 I0.0015 J0.0026
G3 X0.4971 Y1.1815 I0.0393 J0.0814
G2 X0.5187 Y1.1686 I-0.0144 J-0.0487
G3 X0.5188 Y1.1685 I0.0021 J0.0021
G2 X0.5406 Y1.1339 I-0.0526 J-0.0573
G1 X0.5469 Y1.1014
G3 X0.5521 Y1.073 I0.0934 J0.0024
G3 Y1.0728 I0.0028 J0.001
G3 X0.5759 Y1.0484 I0.0438 J0.0189
G3 X0.5761 Y1.0483 I0.0013 J0.0027
G3 X0.5959 Y1.0442 I0.024 J0.0654
G0 Z0.125
G0 X0.7582 Y1.2508
G0 Z0.0624
G1 F20.0 Z-0.0026
G3 F40.0 X0.7599 Y1.2502 I0.0019 J0.0024
G1 X0.8751 Y1.2469
G1 X0.9534 Y1.2457
G3 X0.9872 Y1.2507 I0.0106 J0.0446
G3 X0.9878 Y1.2512 I-0.0015 J0.0026
G3 X0.9961 Y1.2665 I-0.021 J0.0214
G3 X0.9962 Y1.2666 I-0.0029 J0.0006
G3 X0.9967 Y1.2783 I-0.0476 J0.0081
G3 X0.9949 Y1.2895 I-0.0209 J0.0024
G1 Y1.2896
G1 X0.9917 Y1.2959
G3 X0.9901 Y1.2974 I-0.0027 J-0.0013
G3 X0.9578 Y1.3042 I-0.0394 J-0.1078
G3 X0.9086 Y1.3029 I-0.02 J-0.1726
G3 X0.8789 Y1.2944 I0.0136 J-0.1044
G3 X0.8784 Y1.2941 I0.0012 J-0.0027
G2 X0.869 Y1.2895 I-0.019 J0.0268
G1 X0.8689
G2 X0.8488 Y1.2861 I-0.0213 J0.0639
G3 X0.8485 Y1.286 I0.0001 J-0.003
G2 X0.8218 Y1.2847 I-0.022 J0.1702
G3 X0.8214 I-0.0001 J-0.003
G2 X0.7837 Y1.2873 I-0.0113 J0.11
G2 X0.7539 Y1.3039 I0.0392 J0.1055
G2 X0.7298 Y1.3252 I0.7868 J0.9133
G2 X0.7076 Y1.3483 I0.2495 J0.2614
G1 Y1.3484
G1 X0.6751 Y1.3839
G1 X0.6518 Y1.4146
G1 X0.6424 Y1.4342
G1 X0.6336 Y1.4559
G3 X0.6334 Y1.4564 I-0.0028 J-0.0011
G3 X0.6146 Y1.4761 I-0.0579 J-0.0363
G3 X0.5929 Y1.4849 I-0.0217 J-0.0223
G3 X0.5922 Y1.4848 I0.0 J-0.003
G3 X0.5848 Y1.4819 I0.0076 J-0.0297
G3 X0.5739 Y1.4741 I0.011 J-0.027
G1 X0.5628 Y1.4641
G3 X0.5626 Y1.4639 I0.002 J-0.0022
G2 X0.5473 Y1.4531 I-0.0339 J0.0315
G2 X0.5262 Y1.4468 I-0.058 J0.1574
G1 X0.4967 Y1.4449
G3 X0.4966 Y1.4448 I0.0002 J-0.003
G2 X0.4624 Y1.4473 I-0.0105 J0.0921
G2 X0.4382 Y1.4641 I0.0251 J0.062
G3 X0.4381 Y1.4643 I-0.0022 J-0.002
G2 X0.4019 Y1.5109 I0.1469 J0.1513
G3 X0.4017 Y1.5112 I-0.0026 J-0.0015
G1 X0.352 Y1.5788
G3 X0.3497 Y1.58 I-0.0024 J-0.0018
G1 X0.2922 Y1.583
G1 X0.2633 Y1.5858
G3 X0.2631 I-0.0003 J-0.003
G2 X0.2434 Y1.5899 I0.003 J0.0628
G3 X0.243 Y1.5901 I-0.0011 J-0.0028
G2 X0.237 Y1.5938 I0.0028 J0.0113
G1 X0.2344 Y1.5995
G3 X0.2343 Y1.5998 I-0.0027 J-0.0012
G3 X0.2264 Y1.6077 I-0.0206 J-0.0125
G3 X0.2155 Y1.6148 I-0.0197 J-0.0183
G3 X0.1765 Y1.6168 I-0.0219 J-0.0466
G1 X0.1764
G3 X0.1496 Y1.5902 I0.0166 J-0.0437
G1 Y1.5901
G3 X0.1514 Y1.5512 I0.0478 J-0.0173
G3 X0.1704 Y1.53 I0.0401 J0.0168
G3 X0.195 Y1.5242 I0.0214 J0.0357
G3 X0.1951 I-0.0002 J0.003
G3 X0.2222 Y1.5343 I-0.0072 J0.0607
G2 X0.2388 Y1.5415 I0.0254 J-0.0359
G3 X0.239 I-0.0006 J0.0029
G2 X0.263 Y1.5469 I0.0929 J-0.3551
G3 X0.2632 Y1.547 I-0.0006 J0.0029
G2 X0.2877 Y1.549 I0.0183 J-0.0728
G3 X0.2882 I0.0002 J0.003
G2 X0.3197 Y1.5462 I0.0084 J-0.0837
G2 X0.3436 Y1.5285 I-0.0312 J-0.0674
G1 X0.3633 Y1.5051
G2 X0.3806 Y1.4804 I-0.1107 J-0.0961
G3 X0.3808 Y1.4801 I0.0026 J0.0015
G1 X0.4319 Y1.4101
G3 X0.4343 Y1.4088 I0.0024 J0.0018
G1 X0.4898
G1 X0.5222 Y1.4069
G2 X0.549 Y1.4015 I-0.0067 J-0.1036
G3 X0.5492 I0.001 J0.0028
G2 X0.5682 Y1.3934 I-0.0236 J-0.0816
G3 X0.5684 Y1.3933 I0.0015 J0.0026
G1 X0.5821 Y1.3862
G3 X0.5822 I0.0014 J0.0027
G3 X0.5962 Y1.3828 I0.0157 J0.0338
G3 X0.5973 Y1.3829 I0.0001 J0.003
G2 X0.6054 Y1.3842 I0.0076 J-0.0226
G2 X0.6187 Y1.3795 I0.0 J-0.0214
G3 X0.6191 Y1.3793 I0.0019 J0.0023
G2 X0.6475 Y1.3575 I-0.072 J-0.1237
G1 X0.6476 Y1.3574
G1 X0.6864 Y1.3216
G1 X0.7579 Y1.251
G3 X0.7582 Y1.2508 I0.0021 J0.0021
G0 Z0.125
G0 X0.7787 Y1.3272
G0 Z0.0624
G1 F20.0 Z-0.0026
G3 F40.0 X0.7789 Y1.3271 I0.0008 J0.0029
G3 X0.8194 Y1.3315 I0.013 J0.0696
G2 X0.8401 Y1.3376 I0.0451 J-0.114
G3 X0.8404 Y1.3377 I-0.0006 J0.0029
G2 X0.8742 Y1.3421 I0.0314 J-0.1105
G3 X0.8745 I0.0001 J0.003
G2 X0.9152 Y1.3438 I0.0412 J-0.5008
G1 X0.9153
G1 X0.9663 Y1.3449
G3 X0.9894 Y1.3518 I0.0013 J0.0377
G3 X0.9899 Y1.3523 I-0.0017 J0.0025
G3 X0.9966 Y1.3697 I-0.0215 J0.0182
G3 X0.9963 Y1.3846 I-0.0335 J0.007
G3 X0.9896 Y1.3957 I-0.0172 J-0.0029
G3 X0.989 Y1.396 I-0.0018 J-0.0024
G1 X0.9773 Y1.4014
G3 X0.977 Y1.4016 I-0.0013 J-0.0027
G2 X0.9608 Y1.4137 I0.0093 J0.0292
G2 X0.9605 Y1.4298 I0.0181 J0.0084
G2 X0.9764 Y1.442 I0.0304 J-0.0232
G1 X0.9765
G3 X0.9944 Y1.4578 I-0.0156 J0.0359
G3 X0.9973 Y1.4827 I-0.0252 J0.0155
G3 X0.9972 Y1.4829 I-0.0028 J-0.001
G3 X0.9831 Y1.5004 I-0.0353 J-0.0142
G3 X0.9822 Y1.5008 I-0.0017 J-0.0025
G3 X0.9686 Y1.5031 I-0.0185 J-0.0662
G3 X0.9685 I-0.0002 J-0.003
G1 X0.9479 Y1.5039
G3 X0.9235 Y1.503 I-0.0089 J-0.0951
G3 X0.8952 Y1.4993 I0.01 J-0.1867
G3 X0.895 I0.0006 J-0.0029
G3 X0.88 Y1.4909 I0.0103 J-0.0359
G3 X0.8796 Y1.4905 I0.002 J-0.0022
G3 X0.8739 Y1.4739 I0.0238 J-0.0176
G3 X0.8741 Y1.4592 I0.0469 J-0.0068
G1 Y1.4591
G3 X0.8808 Y1.448 I0.0177 J0.0032
G3 X0.8809 I0.0018 J0.0024
G3 X0.8933 Y1.4422 I0.0234 J0.0337
G1 X0.9035 Y1.4371
G2 X0.9096 Y1.43 I-0.008 J-0.0132
G3 X0.9098 Y1.4295 I0.0028 J0.0012
G2 X0.9122 Y1.4215 I-0.0124 J-0.008
G2 X0.8973 Y1.4034 I-0.0246 J0.0052
G3 X0.897 Y1.4033 I0.0012 J-0.0028
G2 X0.8616 Y1.3975 I-0.0258 J0.0474
G3 X0.8614 Y1.3976 I-0.0005 J-0.003
G2 X0.824 Y1.4088 I0.0134 J0.1129
G3 X0.7964 Y1.4194 I-0.0448 J-0.0754
G3 X0.7961 I-0.0006 J-0.0029
G3 X0.771 Y1.4137 I-0.0032 J-0.0438
G3 X0.7516 Y1.3918 I0.0212 J-0.0384
G3 X0.75 Y1.3525 I0.0454 J-0.0216
G3 X0.7501 Y1.3523 I0.0028 J0.0011
G3 X0.7785 Y1.3272 I0.0425 J0.0196
G3 X0.7787 I0.0009 J0.0029
G0 Z0.125
G0 X0.686 Y1.4805
G0 Z0.0624
G1 F20.0 Z-0.0026
G3 F40.0 X0.6903 Y1.4842 I-0.0083 J0.0137
G3 X0.7023 Y1.4959 I-0.0576 J0.0715
G3 X0.7182 Y1.5127 I-0.0495 J0.0625
G2 X0.7414 Y1.5341 I0.0688 J-0.0515
G2 X0.7711 Y1.544 I0.0609 J-0.1325
G2 X0.8278 Y1.549 I0.0573 J-0.3269
G3 X0.828 I0.0 J0.003
G1 X0.9104 Y1.554
G3 X0.9132 Y1.5569 I-0.0002 J0.003
G1 X0.916 Y1.699
G1 X0.9187 Y1.8384
G1 X0.9532 Y1.8412
G3 X0.9535 Y1.8413 I-0.0002 J0.003
G1 X0.9767 Y1.845
G3 X0.977 Y1.8451 I-0.0005 J0.003
G3 X0.9907 Y1.8538 I-0.0078 J0.0275
G3 X0.991 Y1.854 I-0.0023 J0.002
G3 X0.9965 Y1.8695 I-0.0258 J0.0179
G3 X0.9961 Y1.8829 I-0.0346 J0.0058
G3 X0.9917 Y1.8938 I-0.0344 J-0.0076
G3 X0.9915 Y1.8941 I-0.0026 J-0.0016
G3 X0.9835 Y1.9007 I-0.0203 J-0.0164
G3 X0.9829 Y1.9009 I-0.0014 J-0.0026
G3 X0.969 Y1.9034 I-0.0199 J-0.0711
G3 X0.9689 I-0.0002 J-0.003
G1 X0.948 Y1.9043
G3 X0.9237 Y1.9035 I-0.0066 J-0.1661
G1 X0.8802 Y1.9004
G3 X0.8778 Y1.8988 I0.0002 J-0.003
G1 X0.8654 Y1.8766
G3 X0.865 Y1.8753 I0.0026 J-0.0015
G1 X0.8586 Y1.614
G1 X0.8193 Y1.585
G1 X0.7841 Y1.5836
G3 X0.7522 Y1.5796 I-0.0041 J-0.0985
G1 X0.7332 Y1.5743
G1 X0.7166 Y1.5705
G2 X0.6937 Y1.5761 I0.0048 J0.0687
G1 X0.6553 Y1.5936
G3 X0.6225 Y1.6082 I-0.0837 J-0.1442
G1 X0.5956 Y1.6169
G3 X0.5785 Y1.6183 I-0.0113 J-0.0339
G3 X0.5779 Y1.6181 I0.0005 J-0.003
G3 X0.5587 Y1.603 I0.0156 J-0.0395
G3 X0.5475 Y1.5802 I0.0489 J-0.0382
G3 X0.5479 Y1.5572 I0.0459 J-0.0107
G3 X0.5482 Y1.5565 I0.0029 J0.0008
G3 X0.5823 Y1.53 I0.0513 J0.0309
G2 X0.64 Y1.4966 I-0.0934 J-0.2275
G1 Y1.4965
G1 X0.6581 Y1.4832
G3 X0.683 Y1.479 I0.0165 J0.0219
G1 X0.6831 Y1.4791
G3 X0.686 Y1.4805 I-0.0054 J0.0151
G0 Z0.125
G0 X0.661 Y1.6648
G0 Z0.0624
G1 F20.0 Z-0.0026
G3 F40.0 X0.6762 Y1.6694 I-0.0067 J0.0495
G3 X0.6765 Y1.6696 I-0.0013 J0.0027
G1 X0.6866 Y1.6761
G3 X0.6868 Y1.6762 I-0.0016 J0.0025
G3 X0.6944 Y1.6832 I-0.0337 J0.044
G3 X0.6949 Y1.6839 I-0.0022 J0.002
G1 X0.6975 Y1.6891
G2 X0.7156 Y1.7049 I0.0424 J-0.0303
G1 X0.7157
G2 X0.7543 Y1.7204 I0.0759 J-0.1332
G1 X0.7544
G2 X0.7851 Y1.724 I0.0264 J-0.0927
G3 X0.7985 Y1.7234 I0.0078 J0.0258
G3 X0.813 Y1.7289 I-0.0057 J0.0371
G3 X0.8132 Y1.7291 I-0.0016 J0.0025
G1 X0.8264 Y1.7393
G3 X0.8444 Y1.7619 I-0.0384 J0.049
G3 X0.8445 Y1.7621 I-0.0027 J0.0013
G3 X0.8447 Y1.7821 I-0.0273 J0.0102
G3 X0.8445 Y1.7824 I-0.0028 J-0.001
G3 X0.8272 Y1.8044 I-0.0617 J-0.0307
G3 X0.8156 Y1.8147 I-0.0377 J-0.0309
G3 X0.8039 Y1.8224 I-0.0218 J-0.0204
G1 X0.8038
G1 X0.7961 Y1.8251
G3 X0.7945 Y1.8252 I-0.001 J-0.0028
G3 X0.7748 Y1.8147 I0.0064 J-0.0357
G3 X0.7529 Y1.7934 I0.0424 J-0.0656
G3 X0.7423 Y1.7751 I0.0539 J-0.0434
G2 X0.7296 Y1.761 I-0.0421 J0.025
G2 X0.7017 Y1.7524 I-0.033 J0.0574
G1 X0.7016
G2 X0.676 Y1.755 I-0.0064 J0.0644
G3 X0.6758 I-0.0009 J-0.0029
G3 X0.6528 Y1.7606 I-0.1337 J-0.5023
G3 X0.6521 Y1.7607 I-0.0006 J-0.0029
G3 X0.6293 Y1.753 I0.0011 J-0.0409
G3 X0.6119 Y1.733 I0.0221 J-0.0369
G3 X0.6101 Y1.694 I0.0454 J-0.0216
G3 Y1.6939 I0.0028 J0.001
G3 X0.6369 Y1.6674 I0.0459 J0.0197
G3 X0.637 I0.0012 J0.0028
G3 X0.661 Y1.6648 I0.0173 J0.0469
G0 Z0.125
G0 X0.5404 Y1.7024
G0 Z0.0624
G1 F20.0 Z-0.0026
G3 F40.0 X0.5436 Y1.718 I-0.0771 J0.024
G1 X0.5495 Y1.7452
G2 X0.5758 Y1.7795 I0.12 J-0.0647
G3 X0.576 Y1.7797 I-0.0021 J0.0022
G2 X0.6138 Y1.8098 I0.1041 J-0.0918
G1 X0.6356 Y1.8197
G1 X0.6357
G2 X0.66 Y1.8266 I0.0335 J-0.0723
G1 X0.6829 Y1.8293
G3 X0.711 Y1.8335 I-0.0007 J0.102
G3 X0.7112 I-0.0008 J0.0029
G3 X0.7398 Y1.8508 I-0.0305 J0.0828
G3 X0.7799 Y1.8878 I-0.1352 J0.1865
G1 X0.8372 Y1.9444
G1 X0.913
G3 X0.9645 Y1.9456 I0.0188 J0.3063
G3 X0.9885 Y1.9518 I0.0027 J0.0392
G3 X0.989 Y1.9523 I-0.0016 J0.0025
G3 X0.9961 Y1.9673 I-0.0214 J0.0193
G3 X0.9967 Y1.9792 I-0.0296 J0.0074
G3 X0.9949 Y1.9902 I-0.0221 J0.0021
G3 Y1.9903 I-0.0027 J-0.0012
G1 X0.9917 Y1.9967
G3 X0.9896 Y1.9983 I-0.0027 J-0.0013
G1 X0.9581 Y2.0049
G3 X0.9576 Y2.005 I-0.0006 J-0.0029
G3 X0.9089 Y2.0037 I-0.0129 J-0.4299
G3 X0.8787 Y1.9951 I0.0023 J-0.0654
G3 X0.8782 Y1.9948 I0.0015 J-0.0026
G1 X0.8727 Y1.9901
G1 X0.8643 Y1.9869
G3 X0.8527 Y1.9853 I-0.002 J-0.0288
G3 X0.8334 Y1.9769 I0.0315 J-0.0982
G1 X0.8333 Y1.9768
G3 X0.8032 Y1.9549 I0.107 J-0.1793
G1 X0.8031
G1 X0.7688 Y1.9246
G3 X0.7686 Y1.9244 I0.002 J-0.0022
G2 X0.7089 Y1.8766 I-0.1884 J0.1742
G3 X0.7087 Y1.8765 I0.0015 J-0.0026
G2 X0.6642 Y1.8643 I-0.0405 J0.0601
G2 X0.6271 Y1.8844 I0.0111 J0.0649
G3 X0.6052 Y1.9017 I-0.0656 J-0.0605
G3 X0.6044 Y1.902 I-0.0015 J-0.0026
G3 X0.5852 I-0.0095 J-0.0401
G3 X0.5847 Y1.9018 I0.0007 J-0.0029
G3 X0.5623 Y1.884 I0.0218 J-0.0506
G1 X0.5514 Y1.87
G3 X0.5513 Y1.8698 I0.0024 J-0.0018
G3 X0.5462 Y1.8537 I0.0261 J-0.0171
G3 Y1.8533 I0.003 J-0.0001
G1 X0.5476 Y1.8373
G2 X0.5428 Y1.8031 I-0.0749 J-0.0068
G3 X0.5426 Y1.8028 I0.0028 J-0.0011
G2 X0.5225 Y1.7711 I-0.0601 J0.016
G2 X0.4997 Y1.7614 I-0.0331 J0.0461
G3 X0.4782 Y1.7555 I0.009 J-0.0756
G3 X0.4781 I0.0012 J-0.0027
G3 X0.4536 Y1.7352 I0.0284 J-0.0591
G3 X0.4417 Y1.7125 I0.0241 J-0.0272
G3 X0.4418 Y1.7115 I0.003 J-0.0004
G3 X0.4525 Y1.6914 I0.0436 J0.0105
G3 X0.4739 Y1.67 I0.1141 J0.0926
G3 X0.4942 Y1.6591 I0.0262 J0.0247
G3 X0.4952 I0.0005 J0.003
G3 X0.518 Y1.6711 I-0.0059 J0.0389
G3 X0.5381 Y1.6959 I-0.036 J0.0497
G1 Y1.696
G3 X0.5404 Y1.7024 I-0.0748 J0.0304
G0 Z0.125
G0 X0.5849 Y1.9458
G0 Z0.0624
G1 F20.0 Z-0.0026
G3 F40.0 X0.5928 Y1.945 I0.0094 J0.0515
G3 X0.5931 I0.0001 J0.003
G3 X0.6216 Y1.954 I-0.0045 J0.0634
G1 X0.6397 Y1.9618
G1 X0.6649 Y1.9673
G2 X0.6917 Y1.9694 I0.0699 J-0.7185
G3 X0.7255 Y1.972 I0.006 J0.1465
G3 X0.7258 Y1.9721 I-0.0006 J0.0029
G3 X0.7512 Y1.9831 I-0.0431 J0.1335
G3 X0.7514 Y1.9833 I-0.0015 J0.0026
G3 X0.7799 Y2.0079 I-0.1064 J0.152
G1 X0.78 Y2.008
G2 X0.8096 Y2.0338 I0.1244 J-0.113
G2 X0.8411 Y2.0432 I0.0523 J-0.1179
G2 X0.9031 Y2.0445 I0.0377 J-0.3039
G3 X0.9034 I0.0002 J0.003
G1 X0.9325 Y2.045
G3 X0.9327 I0.0 J0.003
G2 X0.9613 Y2.0457 I0.0194 J-0.2111
G3 X0.9881 Y2.0518 I0.0049 J0.0403
G3 X0.9888 Y2.0525 I-0.0016 J0.0025
G3 X0.9961 Y2.0672 I-0.031 J0.0245
G1 Y2.0673
G3 X0.9967 Y2.0793 I-0.0327 J0.0077
G3 X0.9949 Y2.0903 I-0.0217 J0.0022
G3 Y2.0905 I-0.0027 J-0.0012
G1 X0.9917 Y2.0968
G3 X0.9896 Y2.0984 I-0.0027 J-0.0013
G1 X0.9581 Y2.105
G3 X0.9579 Y2.1051 I-0.0006 J-0.0029
G3 X0.9088 Y2.1038 I-0.0199 J-0.1793
G3 X0.8786 Y2.0952 I0.0016 J-0.0625
G3 X0.8781 Y2.0948 I0.0015 J-0.0026
G2 X0.8716 Y2.0902 I-0.0198 J0.0212
G3 X0.8714 Y2.0901 I0.0014 J-0.0027
G2 X0.8602 Y2.0869 I-0.0107 J0.0169
G3 X0.8594 I-0.0001 J-0.003
G2 X0.8445 Y2.0856 I-0.0114 J0.0456
G3 X0.8442 I-0.0002 J-0.003
G3 X0.8218 Y2.0812 I0.0022 J-0.0708
G3 X0.7973 Y2.0678 I0.0339 J-0.0911
G3 X0.7691 Y2.0446 I0.0961 J-0.146
G1 X0.769
G2 X0.7385 Y2.0192 I-0.1161 J0.1088
G3 X0.7384 I0.0016 J-0.0025
G2 X0.7135 Y2.0081 I-0.0412 J0.059
G2 X0.6813 Y2.0055 I-0.0319 J0.1936
G3 X0.681 I0.0 J-0.003
G2 X0.6586 Y2.0067 I-0.0073 J0.0689
G3 X0.6582 Y2.0068 I-0.0007 J-0.0029
G2 X0.6425 Y2.01 I0.0093 J0.085
G2 X0.6373 Y2.0141 I0.0326 J0.0482
G3 X0.6269 Y2.0285 I-0.068 J-0.0375
G3 X0.6266 Y2.0288 I-0.0022 J-0.002
G3 X0.6029 Y2.0394 I-0.0304 J-0.0365
G3 X0.5797 Y2.0393 I-0.0112 J-0.0683
G3 X0.5793 Y2.0391 I0.0005 J-0.003
G3 X0.559 Y2.0237 I0.0135 J-0.0386
G3 X0.5475 Y2.0007 I0.0428 J-0.0357
G3 X0.5481 Y1.977 I0.0424 J-0.0107
G3 X0.5663 Y1.9531 I0.0438 J0.0145
G1 X0.5664
G3 X0.5849 Y1.9458 I0.028 J0.0443
G0 Z0.125
G0 Y2.0696
G0 Z0.0624
G1 F20.0 Z-0.0026
G1 F40.0 X0.7415
G3 X0.7437 Y2.0705 I0.0 J0.003
G1 X0.7679 Y2.0965
G1 X0.7831 Y2.1108
G3 X0.7833 Y2.1109 I-0.0021 J0.0022
G2 X0.7993 Y2.1228 I0.0432 J-0.0415
G1 X0.8138 Y2.1307
G3 X0.8292 Y2.1406 I-0.0154 J0.041
G3 X0.8296 Y2.141 I-0.0021 J0.0021
G3 X0.8366 Y2.1609 I-0.0312 J0.0222
G1 X0.8381 Y2.197
G3 Y2.1971 I-0.003 J0.0001
G3 X0.8365 Y2.232 I-0.4454 J-0.0027
G3 X0.8303 Y2.253 I-0.049 J-0.0031
G3 X0.8297 Y2.2538 I-0.0026 J-0.0015
G1 X0.8178 Y2.2646
G3 X0.817 Y2.2651 I-0.002 J-0.0022
G3 X0.7786 Y2.2684 I-0.0241 J-0.055
G3 X0.7777 Y2.268 I0.0007 J-0.0029
G3 X0.756 Y2.2349 I0.0269 J-0.0414
G3 X0.7566 Y2.1759 I0.125 J-0.0281
G2 X0.759 Y2.1536 I-0.0772 J-0.0193
G2 X0.7558 Y2.1372 I-0.0536 J0.0017
G2 X0.7471 Y2.1238 I-0.0299 J0.0101
G2 X0.7246 Y2.1117 I-0.0374 J0.0426
G2 X0.6582 Y2.1066 I-0.0473 J0.1787
G3 X0.6579 I-0.0003 J-0.003
G1 X0.5042 Y2.1056
G1 X0.2766
G3 X0.2743 Y2.1046 I0.0 J-0.003
G1 X0.2437 Y2.0698
G1 X0.2258 Y2.0521
G3 X0.2256 Y2.0519 I0.0021 J-0.0021
G2 X0.2113 Y2.0427 I-0.0226 J0.0193
G2 X0.2007 Y2.0414 I-0.0091 J0.0315
G3 X0.2001 I-0.0001 J-0.003
G3 X0.1784 Y2.0359 I0.0248 J-0.1445
G3 X0.1777 Y2.0356 I0.001 J-0.0028
G3 X0.1536 Y2.0159 I0.0679 J-0.1079
G3 X0.1413 Y1.9927 I0.0206 J-0.0257
G3 Y1.9925 I0.003 J-0.0002
G3 X0.1444 Y1.9832 I0.0151 J-0.0001
G3 X0.1521 Y1.9719 I0.0271 J0.0099
G3 X0.1622 Y1.9604 I0.0917 J0.0706
G2 X0.1772 Y1.9342 I-0.0637 J-0.0539
G3 X0.1774 Y1.9338 I0.0028 J0.001
G2 X0.1814 Y1.9067 I-0.0368 J-0.0194
G2 X0.1731 Y1.8949 I-0.0223 J0.0069
G3 X0.1583 Y1.8844 I0.0403 J-0.0726
G3 X0.1581 Y1.8842 I0.002 J-0.0022
G3 X0.1475 Y1.8604 I0.0337 J-0.0292
G3 X0.1476 Y1.837 I0.0483 J-0.0114
G3 X0.1478 Y1.8366 I0.0029 J0.0007
G3 X0.1643 Y1.815 I0.0496 J0.0207
G3 X0.189 Y1.8047 I0.0288 J0.0343
G3 X0.2145 Y1.8089 I0.0058 J0.0437
G3 X0.2361 Y1.8281 I-0.0188 J0.0431
G3 X0.2422 Y1.8528 I-0.0357 J0.0219
G3 Y1.853 I-0.003 J-0.0002
G3 X0.2322 Y1.88 I-0.0661 J-0.0091
G1 X0.2321 Y1.8801
G2 X0.2197 Y1.9084 I0.0683 J0.0469
G2 Y1.9364 I0.0787 J0.0139
G2 X0.2324 Y1.9652 I0.1589 J-0.053
G1 X0.2397 Y1.9782
G3 X0.2447 Y1.9916 I-0.0215 J0.0156
G1 X0.2453 Y1.9999
G3 Y2.0001 I-0.003 J0.0002
G2 X0.2468 Y2.0082 I0.0244 J-0.0001
G1 X0.2539 Y2.0229
G2 X0.2645 Y2.0394 I0.0659 J-0.0311
G3 X0.2647 Y2.0396 I-0.0023 J0.002
G1 X0.2866 Y2.0696
G1 X0.5133
G1 X0.5849
G0 Z0.125
G0 X0.5955 Y2.1414
G0 Z0.0624
G1 F20.0 Z-0.0026
G3 F40.0 X0.5971 Y2.1412 I0.0117 J0.08
G3 X0.5974 I0.0004 J0.003
G1 X0.6383 Y2.1396
G3 X0.6724 Y2.1413 I0.01 J0.1485
G1 X0.6989 Y2.1456
G3 X0.6995 Y2.1457 I-0.0005 J0.003
G3 X0.7142 Y2.1519 I-0.0732 J0.1937
G3 X0.7151 Y2.1525 I-0.0013 J0.0027
G3 X0.7259 Y2.1749 I-0.0257 J0.0263
G3 X0.7269 Y2.2012 I-0.0577 J0.0153
G3 X0.7266 Y2.202 I-0.0029 J-0.0005
G1 X0.7182 Y2.2186
G2 X0.7164 Y2.2251 I0.0436 J0.016
G2 X0.72 Y2.2382 I0.0599 J-0.0094
G1 X0.7292 Y2.2567
G2 X0.7448 Y2.279 I0.0824 J-0.0411
G2 X0.7624 Y2.288 I0.0376 J-0.052
G2 X0.7945 Y2.2898 I0.0235 J-0.13
G3 X0.7949 I0.0002 J0.003
G2 X0.8253 Y2.2878 I0.0085 J-0.0991
G3 X0.8257 Y2.2877 I0.0007 J0.0029
G2 X0.8468 Y2.2803 I-0.0054 J-0.0493
G3 X0.8469 Y2.2802 I0.0016 J0.0025
G2 X0.8658 Y2.2652 I-0.0366 J-0.0652
G3 X0.8862 Y2.2486 I0.0675 J0.0622
G3 X0.909 Y2.2416 I0.0272 J0.0482
G3 X0.9423 Y2.2417 I0.0163 J0.0916
G3 X0.9729 Y2.2452 I-0.0082 J0.2062
G3 X0.9896 Y2.2529 I-0.0062 J0.0355
G3 X0.9901 Y2.2534 I-0.0019 J0.0023
G3 X0.9961 Y2.2676 I-0.0266 J0.0197
G3 X0.9967 Y2.2795 I-0.0322 J0.0075
G3 X0.9949 Y2.2906 I-0.0221 J0.0021
G3 Y2.2907 I-0.0027 J-0.0012
G1 X0.9917 Y2.2971
G3 X0.9903 Y2.2984 I-0.0027 J-0.0013
G3 X0.9782 Y2.3023 I-0.02 J-0.0421
G3 X0.9781 I-0.0005 J-0.003
G1 X0.9553 Y2.3048
G3 X0.9255 Y2.3058 I-0.0189 J-0.1183
G1 X0.896 Y2.3073
G1 X0.8724 Y2.311
G1 X0.8599 Y2.3161
G3 X0.8459 Y2.3212 I-0.0227 J-0.0403
G3 X0.8202 Y2.324 I-0.0196 J-0.0609
G3 X0.789 Y2.3239 I-0.0151 J-0.1659
G3 X0.7471 Y2.3199 I-0.0061 J-0.1577
G1 X0.747
G3 X0.7233 Y2.3084 I0.0159 J-0.0626
G3 X0.7232 Y2.3082 I0.0018 J-0.0024
G3 X0.7031 Y2.2816 I0.0527 J-0.0606
G2 X0.685 Y2.2573 I-0.0832 J0.0432
G2 X0.6662 Y2.2476 I-0.0365 J0.0477
G2 X0.6336 Y2.2457 I-0.021 J0.08
G3 X0.6332 I-0.0004 J-0.003
G3 X0.6028 Y2.2438 I0.0042 J-0.2978
G3 X0.6027 Y2.2437 I0.0003 J-0.003
G3 X0.58 Y2.2371 I0.0139 J-0.0895
G3 X0.5628 Y2.225 I0.0187 J-0.0449
G3 X0.5458 Y2.2046 I0.0292 J-0.0417
G3 X0.5457 Y2.2044 I0.0027 J-0.0013
G3 X0.5443 Y2.1867 I0.0307 J-0.0113
G3 X0.5444 Y2.1862 I0.0029 J0.0006
G3 X0.5579 Y2.1631 I0.0722 J0.0267
G3 X0.5731 Y2.1481 I0.0393 J0.0247
G3 X0.5734 Y2.148 I0.0016 J0.0026
G3 X0.5955 Y2.1414 I0.0338 J0.0735
G0 Z0.125
G0 X0.595 Y2.3461
G0 Z0.0624
G1 F20.0 Z-0.0026
G1 F40.0 X0.9106 Y2.3468
G3 X0.9461 Y2.3431 I0.0335 J0.1479
G3 X0.9819 Y2.3516 I0.0015 J0.0735
G3 X0.996 Y2.3672 I-0.0141 J0.0269
G3 X0.9962 Y2.3681 I-0.0028 J0.0011
G3 X0.9967 Y2.3795 I-0.1723 J0.0134
G3 Y2.38 I-0.003 J0.0
G1 X0.9952 Y2.3899
G3 X0.9949 Y2.3908 I-0.003 J-0.0004
G1 X0.9917 Y2.3972
G3 X0.9896 Y2.3988 I-0.0027 J-0.0013
G1 X0.9581 Y2.4054
G3 X0.9578 I-0.0006 J-0.0029
G3 X0.9088 Y2.4041 I-0.0197 J-0.1853
G1 X0.4743 Y2.3926
G1 X0.4656 Y2.4068
G3 X0.4505 Y2.4299 I-0.0635 J-0.025
G3 X0.4501 Y2.4303 I-0.0021 J-0.0021
G3 X0.4235 Y2.4343 I-0.0172 J-0.0236
G3 X0.4232 Y2.4342 I0.001 J-0.0028
G3 X0.4049 Y2.4149 I0.0135 J-0.0311
G2 X0.3999 Y2.4048 I-0.1098 J0.0484
G2 X0.3926 Y2.3984 I-0.0159 J0.0109
G3 X0.3923 Y2.3982 I0.0013 J-0.0027
G2 X0.3841 Y2.3959 I-0.0078 J0.0119
G2 X0.3699 Y2.4053 I0.0027 J0.0196
G1 X0.3698
G2 X0.3605 Y2.4422 I0.0533 J0.0332
G3 Y2.4424 I-0.003 J0.0002
G3 X0.355 Y2.5183 I-0.6178 J-0.006
G1 X0.3526 Y2.5782
G3 X0.3496 Y2.5811 I-0.003 J-0.0001
G1 X0.252 Y2.584
G3 X0.2519 I-0.0001 J-0.003
G2 X0.2032 Y2.5867 I-0.0085 J0.2877
G3 X0.2027 I-0.0004 J-0.003
G2 X0.1685 Y2.591 I-0.0025 J0.1196
G3 X0.1682 I-0.0008 J-0.0029
G2 X0.1562 Y2.5955 I0.0052 J0.0321
G2 X0.1468 Y2.6086 I0.0312 J0.0322
G3 X0.1461 Y2.6096 I-0.0027 J-0.0013
G3 X0.1222 Y2.62 I-0.0286 J-0.0329
G3 X0.0992 Y2.6199 I-0.0112 J-0.0612
G3 X0.0987 Y2.6198 I0.0006 J-0.0029
G3 X0.0785 Y2.6043 I0.0144 J-0.0398
G3 X0.067 Y2.5813 I0.0416 J-0.0352
G3 X0.0676 Y2.5577 I0.0425 J-0.0107
G1 Y2.5576
G3 X0.0858 Y2.5338 I0.0439 J0.0146
G3 X0.1123 Y2.5256 I0.0277 J0.0432
G3 X0.1126 Y2.5257 I0.0001 J0.003
G3 X0.1411 Y2.5347 I-0.0063 J0.0688
G2 X0.1626 Y2.5435 I0.0766 J-0.1575
G2 X0.1957 Y2.5485 I0.0308 J-0.0922
G3 X0.196 I0.0001 J0.003
G2 X0.32 Y2.4641 I0.0087 J-0.1206
G1 X0.3164 Y2.4405
G1 X0.3112 Y2.4277
G3 X0.3061 Y2.415 I0.0324 J-0.0205
G3 X0.3033 Y2.3928 I0.0625 J-0.0191
G1 X0.3034 Y2.3669
G3 X0.307 Y2.3343 I0.0929 J-0.0062
G3 X0.3155 Y2.3178 I0.0287 J0.0042
G3 X0.3159 Y2.3174 I0.0021 J0.0021
G3 X0.3324 Y2.3116 I0.0193 J0.028
G3 X0.3473 Y2.3117 I0.0069 J0.0436
G3 X0.3584 Y2.3186 I-0.0028 J0.0171
G3 X0.3587 Y2.3191 I-0.0024 J0.0018
G1 X0.3642 Y2.3308
G3 X0.3643 Y2.3312 I-0.0027 J0.0013
G2 X0.3764 Y2.3473 I0.0287 J-0.0089
G2 X0.3927 Y2.3476 I0.0085 J-0.0188
G2 X0.4047 Y2.3319 I-0.0168 J-0.0253
G3 Y2.3317 I0.0028 J0.001
G3 X0.4217 Y2.3121 I0.0377 J0.0155
G3 X0.4219 Y2.312 I0.0015 J0.0026
G3 X0.4478 Y2.3126 I0.0124 J0.0251
G3 X0.448 Y2.3127 I-0.0014 J0.0026
G3 X0.4647 Y2.3325 I-0.0288 J0.0412
G2 X0.4772 Y2.3458 I0.0555 J-0.0397
G1 X0.595 Y2.3461
G0 Z0.125
G0 X0.6286 Y2.4395
G0 Z0.0624
G1 F20.0 Z-0.0026
G3 F40.0 X0.7494 Y2.4426 I0.0564 J0.1566
G2 X0.768 Y2.4348 I-0.0398 J-0.1201
G3 X0.7857 Y2.4253 I0.0298 J0.0347
G3 X0.8012 Y2.4245 I0.009 J0.0254
G3 X0.8014 Y2.4246 I-0.0007 J0.0029
G3 X0.8183 Y2.4321 I-0.0256 J0.0809
G2 X0.8391 Y2.4386 I0.0347 J-0.0738
G1 X0.8735 Y2.4433
G1 X0.9152 Y2.445
G3 X0.9664 Y2.4461 I0.0148 J0.4855
G3 X0.9894 Y2.453 I0.0012 J0.0378
G3 X0.9899 Y2.4535 I-0.0017 J0.0025
G3 X0.9966 Y2.4708 I-0.0218 J0.0183
G3 X0.9963 Y2.4859 I-0.0305 J0.0071
G3 X0.9897 Y2.4968 I-0.0187 J-0.004
G3 X0.9894 Y2.497 I-0.0019 J-0.0023
G3 X0.9771 Y2.5027 I-0.0249 J-0.037
G2 X0.9614 Y2.5146 I0.0247 J0.0492
G2 X0.9598 Y2.5358 I0.0301 J0.0129
G2 X0.973 Y2.5654 I0.1078 J-0.0302
G3 X0.9731 Y2.5656 I-0.0025 J0.0016
G3 X0.9802 Y2.6076 I-0.0562 J0.0311
G3 Y2.6078 I-0.003 J-0.0005
G3 X0.9558 Y2.6379 I-0.044 J-0.0108
G3 X0.9556 I-0.0013 J-0.0027
G3 X0.915 Y2.6365 I-0.0187 J-0.0445
G3 X0.8935 Y2.6175 I0.0221 J-0.0467
G3 X0.8934 Y2.6173 I0.0025 J-0.0016
G3 X0.8874 Y2.5928 I0.0409 J-0.0231
G3 Y2.5925 I0.003 J0.0001
G3 X0.8975 Y2.5654 I0.0599 J0.0068
G3 X0.8976 Y2.5652 I0.0025 J0.0017
G2 X0.9106 Y2.536 I-0.0541 J-0.0417
G2 X0.9071 Y2.5144 I-0.0383 J-0.0049
G2 X0.8868 Y2.4982 I-0.0448 J0.0356
G3 X0.8867 I0.0013 J-0.0027
G2 X0.8606 Y2.4879 I-0.0565 J0.1049
G2 X0.8454 Y2.4896 I-0.0043 J0.0289
G2 X0.8273 Y2.5051 I0.052 J0.0793
G1 X0.8272
G3 X0.8156 Y2.5154 I-0.0729 J-0.0709
G3 X0.8042 Y2.523 I-0.029 J-0.0311
G3 X0.7955 Y2.526 I-0.0123 J-0.0213
G3 X0.7949 Y2.5261 I-0.0004 J-0.003
G3 X0.7856 Y2.5228 I0.0008 J-0.0174
G1 X0.7748 Y2.5156
G3 X0.7745 Y2.5154 I0.0017 J-0.0025
G1 X0.7631 Y2.5054
G2 X0.7464 Y2.4936 I-0.1892 J0.2517
G2 X0.7235 Y2.4878 I-0.0262 J0.0548
G3 X0.7231 Y2.4877 I0.0002 J-0.003
G2 X0.6871 Y2.486 I-0.0255 J0.155
G3 X0.6866 I-0.0002 J-0.003
G2 X0.6469 Y2.4879 I-0.0137 J0.1288
G3 X0.6467 I-0.0006 J-0.0029
G2 X0.6224 Y2.4972 I0.0085 J0.0591
G2 X0.5972 Y2.5199 I0.0764 J0.11
G3 X0.5971 Y2.52 I-0.0023 J-0.002
G2 X0.5801 Y2.5403 I0.1471 J0.1409
G3 X0.5798 Y2.5406 I-0.0024 J-0.0018
G2 X0.5678 Y2.5598 I0.0392 J0.0379
G1 X0.5624 Y2.5753
G3 X0.5533 Y2.5977 I-0.0712 J-0.0159
G3 X0.5532 Y2.5978 I-0.0026 J-0.0016
G3 X0.5345 Y2.6174 I-0.0648 J-0.0432
G3 X0.5129 Y2.6262 I-0.022 J-0.0231
G3 X0.5123 Y2.6261 I0.0 J-0.003
G3 X0.493 Y2.6149 I0.0062 J-0.0328
G1 X0.4725 Y2.5935
G3 X0.4617 Y2.5737 I0.0272 J-0.0276
G3 Y2.5728 I0.0029 J-0.0006
G3 X0.4738 Y2.5494 I0.0367 J0.0042
G3 X0.4989 Y2.5299 I0.0613 J0.0531
G3 X0.5231 Y2.5246 I0.023 J0.0465
G1 X0.5353 Y2.5234
G3 X0.6286 Y2.4395 I0.1497 J0.0727
G0 Z0.125
G0 X0.659 Y2.5272
G0 Z0.0624
G1 F20.0 Z-0.0026
G3 F40.0 X0.6752 Y2.5252 I0.0129 J0.0374
G3 X0.6754 I-0.0002 J0.003
G3 X0.7015 Y2.5346 I-0.0078 J0.0628
G1 X0.7197 Y2.5422
G1 X0.7468 Y2.5485
G2 X0.7764 Y2.552 I0.0345 J-0.1658
G1 X0.7765
G1 X0.8303 Y2.5551
G3 X0.8331 Y2.558 I-0.0002 J0.003
G1 X0.836 Y2.6245
G3 Y2.6252 I-0.003 J0.0001
G2 X0.8411 Y2.6747 I0.0857 J0.0163
G2 X0.864 Y2.6943 I0.0408 J-0.0246
G2 X0.8958 Y2.7012 I0.0411 J-0.1121
G3 X0.9298 Y2.704 I0.0067 J0.1277
G3 X0.9467 Y2.7083 I-0.0127 J0.0855
G3 X0.9628 Y2.7165 I-0.0153 J0.0499
G3 X0.963 Y2.7167 I-0.0018 J0.0024
G1 X0.9738 Y2.7265
G1 X0.9739
G3 X0.9844 Y2.7428 I-0.0301 J0.0312
G3 X0.9865 Y2.7559 I-0.0199 J0.0099
G3 X0.9812 Y2.7724 I-0.0434 J-0.0049
G3 X0.9809 Y2.7729 I-0.0026 J-0.0015
G1 X0.9666 Y2.7896
G3 X0.966 Y2.7901 I-0.0023 J-0.002
G3 X0.9428 Y2.8005 I-0.037 J-0.0509
G3 X0.9196 Y2.8 I-0.0107 J-0.0378
G1 X0.9195 Y2.7999
G3 X0.9083 Y2.7923 I0.0094 J-0.0257
G3 X0.8967 Y2.779 I0.025 J-0.0338
G1 X0.887 Y2.7637
G3 X0.8869 Y2.7635 I0.0025 J-0.0016
G1 X0.8728 Y2.7363
G1 X0.7194
G1 X0.6229 Y2.7376
G3 X0.6227 I0.0 J-0.003
G2 X0.5688 Y2.7422 I-0.0106 J0.1936
G3 X0.5686 I-0.0007 J-0.0029
G2 X0.5422 Y2.7512 I0.0146 J0.086
G3 X0.5158 Y2.761 I-0.0523 J-0.1003
G3 X0.5153 Y2.7611 I-0.0007 J-0.0029
G3 X0.4907 Y2.7553 I-0.0027 J-0.0437
G3 X0.4717 Y2.7341 I0.0214 J-0.0383
G3 X0.4698 Y2.6931 I0.0447 J-0.0226
G3 X0.4699 Y2.6929 I0.0028 J0.0011
G3 X0.4994 Y2.668 I0.0418 J0.0196
G3 X0.4998 Y2.6679 I0.0008 J0.0029
G3 X0.5413 Y2.6748 I0.0105 J0.066
G1 X0.5659 Y2.6841
G2 X0.6101 Y2.6889 I0.0643 J-0.3862
G1 X0.6474 Y2.6896
G3 X0.6477 Y2.6897 I-0.0001 J0.003
G2 X0.6843 Y2.6903 I0.0214 J-0.191
G2 X0.7578 Y2.5863 I-0.007 J-0.0829
G1 X0.7375 Y2.5874
G2 X0.7222 Y2.5907 I0.0038 J0.0549
G2 X0.7176 Y2.5943 I0.0037 J0.0095
G1 X0.715 Y2.6003
G3 X0.7148 Y2.6007 I-0.0028 J-0.0012
G3 X0.707 Y2.6087 I-0.0226 J-0.0141
G3 X0.6961 Y2.6159 I-0.0196 J-0.0178
G3 X0.657 Y2.6179 I-0.0219 J-0.0467
G3 X0.6301 Y2.5913 I0.0167 J-0.0437
G3 X0.6319 Y2.5523 I0.0471 J-0.0173
G3 X0.6507 Y2.5313 I0.0415 J0.0182
G3 X0.659 Y2.5272 I0.0213 J0.0333
G0 Z0.125
G0 X1.1127 Y2.5186
G0 Z0.0624
G1 F20.0 Z-0.0026
G1 F40.0 X1.1106 Y2.4047
G1 X1.1089 Y2.2028
G1 Y2.2027
G1 X1.1074 Y1.8173
G3 X1.109 Y1.8147 I0.003 J0.0
G1 X1.1465 Y1.7946
G3 X1.147 Y1.7944 I0.0014 J0.0026
G2 X1.1719 Y1.7788 I-0.0204 J-0.0603
G2 X1.181 Y1.7591 I-0.031 J-0.0262
G3 Y1.7589 I0.003 J0.0005
G2 X1.1825 Y1.7163 I-0.1236 J-0.0256
G3 Y1.7157 I0.003 J-0.0004
G2 X1.1774 Y1.663 I-0.1535 J-0.0118
G2 X1.1615 Y1.6396 I-0.0421 J0.0115
G2 X1.1315 Y1.639 I-0.016 J0.0498
G1 X1.1314
G3 X1.1141 Y1.6407 I-0.0141 J-0.0567
G3 X1.1137 Y1.6406 I0.0002 J-0.003
G3 X1.0985 Y1.6359 I0.0129 J-0.069
G3 X1.0982 Y1.6358 I0.0012 J-0.0027
G3 X1.0835 Y1.6244 I0.0321 J-0.0567
G3 X1.066 Y1.6022 I0.0379 J-0.048
G3 X1.0658 Y1.6019 I0.0027 J-0.0013
G3 Y1.5823 I0.0313 J-0.0099
G3 X1.066 Y1.5818 I0.0029 J0.0009
G3 X1.0833 Y1.5599 I0.0607 J0.03
G2 X1.096 Y1.5376 I-0.0554 J-0.0465
G2 X1.1014 Y1.4809 I-0.1557 J-0.0434
G3 X1.1013 Y1.4806 I0.003 J-0.0002
G1 X1.1024 Y1.3514
G1 X1.1035 Y1.234
G3 X1.1077 Y1.1739 I0.2115 J-0.0153
G3 X1.1169 Y1.1537 I0.0385 J0.0053
G3 X1.1178 Y1.153 I0.0023 J0.002
G3 X1.137 Y1.1497 I0.0149 J0.0295
G1 X1.1698 Y1.1471
G3 X1.2117 Y1.1454 I0.0283 J0.1786
G3 X1.2669 Y1.1451 I0.0292 J0.2546
G3 X1.2892 Y1.1517 I0.0017 J0.0351
G3 X1.2902 Y1.153 I-0.0018 J0.0024
G3 X1.2936 Y1.1714 I-0.0384 J0.0166
G3 X1.2905 Y1.1898 I-0.0276 J0.0048
G3 X1.29 Y1.1905 I-0.0026 J-0.0015
G3 X1.2749 Y1.1991 I-0.0224 J-0.0215
G3 X1.2416 Y1.2027 I-0.029 J-0.1131
G1 X1.2156 Y1.2028
G3 X1.1935 Y1.2 I-0.0008 J-0.0833
G3 X1.1804 Y1.1947 I0.0069 J-0.0355
G3 X1.1799 Y1.1943 I0.0017 J-0.0025
G2 X1.1731 Y1.1896 I-0.015 J0.0146
G3 X1.1728 Y1.1895 I0.0012 J-0.0028
G2 X1.1634 Y1.186 I-0.0165 J0.0301
G3 X1.1632 Y1.1859 I0.0006 J-0.0029
G2 X1.1539 Y1.1846 I-0.0101 J0.0372
G2 X1.144 Y1.1926 I0.0056 J0.017
G2 X1.1393 Y1.2402 I0.0606 J0.03
G3 X1.1394 Y1.2407 I-0.0029 J0.0008
G3 X1.1411 Y1.3016 I-0.4478 J0.0434
G3 X1.1384 Y1.3624 I-0.6837 J-0.0001
G2 X1.1374 Y1.432 I0.4479 J0.0414
G3 Y1.4321 I-0.003 J0.0002
G2 X1.1408 Y1.5018 I1.4754 J-0.0377
G3 Y1.5019 I-0.003 J0.0002
G2 X1.1557 Y1.5697 I0.1927 J-0.0068
G2 X1.1949 Y1.6209 I0.1799 J-0.0969
G3 X1.1952 Y1.6214 I-0.0021 J0.0022
G1 X1.2106 Y1.643
G3 X1.211 Y1.6439 I-0.0024 J0.0017
G3 X1.217 Y1.6726 I-0.2089 J0.0582
G3 Y1.6727 I-0.003 J0.0004
G3 X1.2165 Y1.7234 I-0.2321 J0.0231
G1 X1.2135 Y1.7974
G3 X1.2119 Y1.7999 I-0.003 J-0.0001
G1 X1.1751 Y1.8196
G1 X1.1581 Y1.8461
G1 X1.1603 Y2.123
G1 X1.2135 Y2.1464
G3 X1.2672 Y2.1462 I0.0278 J0.2278
G3 X1.2893 Y2.1529 I0.0018 J0.0338
G3 X1.2903 Y2.1541 I-0.0018 J0.0024
G3 X1.2936 Y2.1725 I-0.0389 J0.0166
G3 X1.2905 Y2.191 I-0.0275 J0.0048
G3 X1.29 Y2.1916 I-0.0026 J-0.0015
G3 X1.2749 Y2.2002 I-0.0224 J-0.0216
G3 X1.2416 Y2.2038 I-0.0289 J-0.1123
G1 X1.2156 Y2.2039
G3 X1.1935 Y2.2011 I-0.001 J-0.0816
G3 X1.1804 Y2.1958 I0.0072 J-0.0361
G3 X1.1799 Y2.1954 I0.0016 J-0.0025
G2 X1.1731 Y2.1907 I-0.015 J0.0146
G3 X1.1728 Y2.1906 I0.0012 J-0.0028
G2 X1.1632 Y2.1871 I-0.0163 J0.0296
G3 X1.1631 I0.0006 J-0.0029
G2 X1.156 Y2.1859 I-0.0117 J0.0481
G1 X1.149 Y2.5703
G2 X1.1523 Y2.6242 I0.3175 J0.0078
G3 Y2.6246 I-0.003 J0.0004
G2 X1.1592 Y2.678 I0.2218 J-0.0014
G3 Y2.6781 I-0.0029 J0.0007
G2 X1.175 Y2.7284 I0.2794 J-0.0604
G1 X1.1817 Y2.741
G3 X1.1818 Y2.7411 I-0.0026 J0.0014
G3 X1.1854 Y2.7534 I-0.0349 J0.017
G3 Y2.7541 I-0.003 J0.0004
G1 X1.1846 Y2.7617
G3 X1.1845 Y2.7622 I-0.003 J-0.0003
G2 X1.1848 Y2.7678 I0.0087 J0.0024
G3 Y2.768 I-0.0028 J0.0011
G2 X1.1904 Y2.7778 I0.0263 J-0.0084
G3 X1.1906 Y2.7781 I-0.0023 J0.002
G2 X1.2008 Y2.7896 I0.0571 J-0.0406
G1 X1.2009
G2 X1.2257 Y2.8035 I0.0398 J-0.0419
G2 X1.2933 Y2.8088 I0.0482 J-0.1835
G3 X1.2936 I0.0003 J0.003
G1 X1.4563 Y2.8087
G1 X1.5981 Y2.8066
G2 X1.6774 Y2.802 I-0.0039 J-0.7462
G3 X1.6776 I0.0003 J0.003
G2 X1.7094 Y2.7941 I-0.0056 J-0.0913
G1 X1.7202 Y2.7875
G3 X1.7205 Y2.7873 I0.0016 J0.0026
G1 X1.7304 Y2.7825
G3 X1.7309 Y2.7823 I0.0013 J0.0027
G1 X1.7375 Y2.7805
G3 X1.7387 Y2.7804 I0.0008 J0.0029
G3 X1.758 Y2.7917 I-0.0031 J0.0274
G3 X1.7784 Y2.8131 I-0.1119 J0.1273
G3 X1.7891 Y2.8331 I-0.0188 J0.023
G3 X1.7892 Y2.8335 I-0.003 J0.0003
G3 X1.7859 Y2.8429 I-0.0161 J-0.0003
G1 X1.7787 Y2.8536
G3 X1.7785 Y2.854 I-0.0025 J-0.0017
G1 X1.7685 Y2.8653
G3 X1.7565 Y2.8759 I-0.0328 J-0.0249
G3 X1.7452 Y2.8834 I-0.0274 J-0.0291
G3 X1.7365 Y2.8864 I-0.0124 J-0.0216
G3 X1.736 Y2.8865 I-0.0004 J-0.003
G3 X1.7266 Y2.8832 I0.0008 J-0.0173
G1 X1.7159 Y2.876
G3 X1.7155 Y2.8758 I0.0017 J-0.0025
G1 X1.7041 Y2.8657
G3 X1.7038 Y2.8654 I0.002 J-0.0023
G2 X1.676 Y2.8472 I-0.0468 J0.041
G2 X1.6569 Y2.8496 I-0.007 J0.022
G2 X1.649 Y2.8719 I0.0347 J0.0248
G3 Y2.8721 I-0.003 J-0.0002
G3 X1.6278 Y2.92 I-0.0948 J-0.0133
G3 X1.5814 Y2.9457 I-0.0566 J-0.0475
G3 X1.536 Y2.9339 I-0.0093 J-0.0572
G3 X1.5356 Y2.9334 I0.0019 J-0.0024
G2 X1.5285 Y2.9281 I-0.0144 J0.0118
G2 X1.5234 Y2.928 I-0.0026 J0.0082
G2 X1.5159 Y2.9337 I0.0203 J0.0346
G3 X1.5157 Y2.9338 I-0.0021 J-0.0022
G3 X1.4701 Y2.9457 I-0.0359 J-0.0443
G3 X1.4238 Y2.9195 I0.0105 J-0.0725
G3 X1.4237 Y2.9193 I0.0023 J-0.0019
G3 X1.4028 Y2.871 I0.1177 J-0.0795
G3 X1.4027 Y2.8703 I0.0029 J-0.0007
G1 Y2.8464
G1 X1.3115
G3 X1.2468 Y2.845 I-0.0214 J-0.4983
G3 X1.2114 Y2.8378 I0.0067 J-0.1242
G3 X1.2112 Y2.8377 I0.001 J-0.0028
G3 X1.1854 Y2.8207 I0.0407 J-0.0895
G1 X1.1684 Y2.8089
G2 X1.1531 Y2.8024 I-0.04 J0.0726
G2 X1.1428 Y2.802 I-0.0058 J0.0208
G3 X1.1421 Y2.8021 I-0.0006 J-0.0029
G3 X1.1193 Y2.7967 I0.0013 J-0.0564
G3 X1.1192 Y2.7966 I0.0013 J-0.0027
G3 X1.0946 Y2.7768 I0.0419 J-0.0774
G3 X1.0824 Y2.7535 I0.0208 J-0.0257
G3 Y2.7533 I0.003 J-0.0002
G3 X1.0857 Y2.7437 I0.0155 J0.0001
G3 X1.0934 Y2.7324 I0.0645 J0.0355
G3 X1.0935 Y2.7323 I0.0023 J0.0019
G1 X1.104 Y2.7205
G1 X1.1163 Y2.7042
G1 X1.1136 Y2.5635
G1 X1.1127 Y2.5186
G0 Z0.125
G0 X1.18 Y2.4899
G0 Z0.0624
G1 F20.0 Z-0.0026
G3 F40.0 X1.1775 Y2.4728 I0.0311 J-0.0133
G1 Y2.448
G3 X1.1806 Y2.445 I0.003 J0.0
G1 X1.3157 Y2.4486
G1 X1.3158
G1 X1.3855 Y2.4518
G3 X1.3856 I-0.0001 J0.003
G1 X1.4119 Y2.454
G3 X1.4387 Y2.4566 I0.003 J0.1091
G3 X1.4639 Y2.4622 I-0.0092 J0.1014
G3 X1.4643 Y2.4623 I-0.001 J0.0028
G1 X1.4718 Y2.4663
G2 X1.478 Y2.4671 I0.0044 J-0.0091
G1 X1.4849 Y2.4652
G3 X1.4949 Y2.4638 I0.0079 J0.021
G3 X1.4954 Y2.4639 I-0.0003 J0.003
G1 X1.508 Y2.4672
G3 X1.5083 Y2.4673 I-0.0008 J0.0029
G3 X1.5225 Y2.4746 I-0.0216 J0.0595
G2 X1.5413 Y2.4826 I0.0621 J-0.1192
G2 X1.5678 Y2.488 I0.0605 J-0.2278
G2 X1.5985 Y2.49 I0.0341 J-0.2891
G1 X1.65
G1 X1.6863 Y2.4269
G1 X1.7231 Y2.363
G1 Y2.2232
G1 Y2.0856
G1 X1.5129
G1 X1.5128
G2 X1.3956 Y2.0868 I-0.036 J2.1441
G1 X1.3576 Y2.088
G1 X1.3198 Y2.0904
G3 X1.3196 I-0.0002 J-0.003
G2 X1.3049 Y2.0921 I-0.0002 J0.0621
G3 X1.3045 Y2.0922 I-0.0007 J-0.0029
G2 X1.2903 Y2.0959 I0.0053 J0.0492
G3 X1.2778 Y2.101 I-0.0265 J-0.0472
G3 X1.2555 Y2.1038 I-0.0198 J-0.0675
G1 X1.2295 Y2.1037
G3 X1.1962 Y2.1002 I-0.0024 J-0.135
G3 X1.181 Y2.0914 I0.0056 J-0.0273
G3 X1.1806 Y2.0908 I0.0022 J-0.002
G3 X1.1775 Y2.0723 I0.0273 J-0.014
G1 Y2.0475
G3 X1.1805 Y2.0445 I0.003 J0.0
G1 X1.5133 Y2.0481
G1 X1.8186 Y2.033
G1 Y1.3189
G1 X1.5727 Y1.2847
G1 X1.4213 Y1.2859
G1 X1.326 Y1.2895
G3 X1.3259 I-0.0001 J-0.003
G2 X1.2902 Y1.2951 I0.0002 J0.1175
G3 X1.2778 Y1.3001 I-0.0282 J-0.0516
G3 X1.2555 Y1.3029 I-0.0197 J-0.0664
G1 X1.2295 Y1.3028
G3 X1.1962 Y1.2993 I-0.0024 J-0.1348
G3 X1.181 Y1.2905 I0.0056 J-0.0274
G3 X1.1806 Y1.2899 I0.0022 J-0.002
G3 X1.1775 Y1.2715 I0.0273 J-0.014
G1 Y1.2466
G3 X1.1805 Y1.2436 I0.003 J0.0
G1 X1.5208 Y1.2471
G3 X1.5425 Y1.2469 I0.0127 J0.2296
G3 X1.6935 Y1.2498 I0.0425 J1.7247
G3 X1.6937 I-0.0002 J0.003
G2 X1.8182 Y1.2536 I0.0812 J-0.6199
G1 X1.8437 Y1.2519
G3 X1.8704 Y1.2581 I0.0036 J0.0446
G3 X1.8712 Y1.2589 I-0.0015 J0.0026
G3 X1.8787 Y1.2903 I-0.0314 J0.024
G3 X1.8753 Y1.3202 I-0.1918 J-0.0063
G2 X1.8771 Y1.4674 I0.7222 J0.0648
G3 X1.8784 Y1.4936 I-0.0947 J0.0178
G3 X1.8769 Y1.6728 I-4.1195 J0.0544
G1 X1.8742 Y2.0776
G3 X1.8714 Y2.0806 I-0.003 J0.0
G1 X1.8138 Y2.0836
G1 X1.7591 Y2.0864
G1 Y2.2182
G1 Y2.3499
G1 X1.8036 Y2.3496
G2 X1.8299 Y2.3474 I-0.0035 J-0.2048
G2 X1.8535 Y2.3421 I-0.02 J-0.1444
G2 X1.869 Y2.335 I-0.0159 J-0.0554
G3 X1.8693 Y2.3349 I0.0016 J0.0025
G2 X1.8796 Y2.3279 I-0.0238 J-0.0461
G3 X1.8801 Y2.3275 I0.002 J0.0023
G1 X1.89 Y2.3222
G3 X1.8906 Y2.322 I0.0014 J0.0026
G1 X1.8973 Y2.32
G3 X1.8985 Y2.3199 I0.0009 J0.0029
G3 X1.918 Y2.3311 I-0.0032 J0.028
G3 X1.9386 Y2.3525 I-0.0936 J0.1106
G3 X1.9493 Y2.3726 I-0.019 J0.0231
G3 Y2.3729 I-0.003 J0.0003
G3 X1.946 Y2.3824 I-0.0161 J-0.0003
G1 X1.9389 Y2.3931
G3 X1.9386 Y2.3935 I-0.0025 J-0.0017
G1 X1.9286 Y2.4048
G3 X1.9167 Y2.4154 I-0.0328 J-0.025
G3 X1.9054 Y2.4229 I-0.0275 J-0.0293
G3 X1.8967 Y2.4259 I-0.0123 J-0.0213
G3 X1.8961 I-0.0004 J-0.003
G3 X1.8868 Y2.4227 I0.0009 J-0.0175
G1 X1.876 Y2.4155
G3 X1.8757 Y2.4153 I0.0017 J-0.0025
G1 X1.8643 Y2.4052
G3 X1.864 Y2.4049 I0.002 J-0.0023
G2 X1.8489 Y2.3942 I-0.0312 J0.0278
G1 X1.8275 Y2.3878
G2 X1.7988 Y2.3859 I-0.0228 J0.1256
G3 X1.7987 I-0.0001 J-0.003
G1 X1.7528
G1 X1.7137 Y2.452
G1 X1.6736 Y2.5196
G3 X1.6712 Y2.5211 I-0.0026 J-0.0015
G1 X1.6082 Y2.524
G1 X1.5697 Y2.5276
G1 X1.5441 Y2.5346
G1 X1.5274 Y2.5458
G3 X1.5161 Y2.5559 I-0.0427 J-0.0365
G1 X1.5062 Y2.5629
G3 X1.506 Y2.563 I-0.0017 J-0.0024
G3 X1.4984 Y2.566 I-0.0134 J-0.0227
G3 X1.4978 Y2.5661 I-0.0007 J-0.0029
G3 X1.4755 Y2.5569 I-0.0009 J-0.0297
G3 X1.4573 Y2.5371 I0.1885 J-0.1911
G3 X1.457 Y2.5367 I0.0023 J-0.0019
G3 X1.448 Y2.5125 I0.0589 J-0.0359
G3 X1.4479 Y2.5123 I0.003 J-0.0005
G2 X1.4439 Y2.4975 I-0.0391 J0.0029
G2 X1.4269 Y2.4913 I-0.0174 J0.021
G3 X1.4267 I0.0001 J-0.003
G1 X1.38 Y2.488
G2 X1.3428 I-0.0185 J0.3118
G3 X1.3423 I-0.0002 J-0.003
G2 X1.3111 Y2.4909 I-0.0076 J0.0897
G1 X1.311
G1 X1.2913 Y2.496
G3 X1.2742 Y2.5013 I-0.0303 J-0.0672
G3 X1.274 Y2.5014 I-0.0005 J-0.003
G1 X1.2506 Y2.5042
G3 X1.2248 I-0.0128 J-0.09
G3 X1.1949 Y2.5005 I-0.0038 J-0.0916
G3 X1.1808 Y2.4916 I0.0065 J-0.0257
G3 X1.1804 Y2.4909 I0.0023 J-0.0019
G3 X1.18 Y2.4899 I0.0306 J-0.0143
G0 Z0.125
G0 X1.199 Y2.4011
G0 Z0.0624
G1 F20.0 Z-0.0026
G3 F40.0 X1.1962 Y2.4005 I0.0277 J-0.1292
G3 X1.181 Y2.3917 I0.0056 J-0.0274
G3 X1.1806 Y2.3911 I0.0022 J-0.002
G3 X1.1775 Y2.3727 I0.0273 J-0.014
G1 Y2.3479
G3 X1.1806 Y2.3449 I0.003 J0.0
G1 X1.3092 Y2.3485
G1 X1.3093 Y2.3486
G2 X1.4202 Y2.3476 I0.0484 J-0.8697
G3 X1.4207 I0.0002 J0.003
G2 X1.4708 Y2.3335 I0.0054 J-0.0766
G2 X1.4828 Y2.3013 I-0.0356 J-0.0317
G1 X1.4815 Y2.2871
G3 Y2.287 I0.003 J-0.0003
G2 X1.4788 Y2.2787 I-0.0161 J0.0007
G1 X1.4749 Y2.2756
G3 X1.4681 Y2.2725 I0.003 J-0.0156
G3 X1.4602 Y2.2648 I0.0167 J-0.0249
G3 X1.453 Y2.2539 I0.0183 J-0.02
G3 X1.4511 Y2.2148 I0.046 J-0.0219
G3 X1.4776 Y2.1879 I0.0438 J0.0168
G1 X1.4777
G3 X1.5166 Y2.1897 I0.0173 J0.048
G3 X1.5378 Y2.2087 I-0.0164 J0.0396
G3 X1.5436 Y2.2333 I-0.0373 J0.0218
G3 Y2.2335 I-0.003 J-0.0002
G3 X1.5336 Y2.2604 I-0.065 J-0.0088
G2 X1.5213 Y2.2897 I0.079 J0.0504
G2 X1.5214 Y2.319 I0.0854 J0.0146
G2 X1.5335 Y2.3454 I0.0624 J-0.0128
G3 X1.5464 Y2.3666 I-0.0561 J0.0488
G3 X1.5466 Y2.367 I-0.0028 J0.0011
G3 X1.5449 Y2.3847 I-0.0288 J0.0061
G3 X1.5448 Y2.3849 I-0.0028 J-0.0012
G3 X1.528 Y2.4051 I-0.0524 J-0.0265
G3 X1.5162 Y2.4154 I-0.0325 J-0.0251
G3 X1.505 Y2.4229 I-0.0275 J-0.0293
G3 X1.4963 Y2.4259 I-0.0123 J-0.0213
G3 X1.4957 I-0.0004 J-0.003
G3 X1.4863 Y2.4227 I0.0009 J-0.0175
G1 X1.4756 Y2.4155
G3 X1.4753 Y2.4153 I0.0017 J-0.0025
G1 X1.4638 Y2.4052
G2 X1.4465 Y2.3932 I-0.0587 J0.0666
G2 X1.4195 Y2.3874 I-0.0374 J0.1086
G1 X1.4194
G2 X1.3728 Y2.3859 I-0.033 J0.2927
G1 X1.3345 Y2.3874
G3 X1.3342 I-0.0001 J-0.003
G2 X1.3053 Y2.391 I-0.0048 J0.078
G1 X1.2903 Y2.3962
G3 X1.2777 Y2.4014 I-0.021 J-0.0336
G3 X1.2555 Y2.4041 I-0.0195 J-0.0655
G1 X1.2295 Y2.404
G3 X1.199 Y2.4011 I-0.0027 J-0.1321
G0 Z0.125
G0 X1.2097 Y2.3011
G0 Z0.0624
G1 F20.0 Z-0.0026
G3 F40.0 X1.2005 Y2.2999 I0.0206 J-0.1926
G3 X1.1816 Y2.2924 I0.0033 J-0.0359
G3 X1.1808 Y2.2913 I0.0019 J-0.0024
G3 X1.1775 Y2.2728 I0.0309 J-0.015
G3 X1.1806 Y2.2544 I0.0354 J-0.0033
G3 X1.1815 Y2.2533 I0.0027 J0.0013
G3 X1.1992 Y2.2456 I0.0227 J0.028
G3 X1.1995 I0.0004 J0.003
G1 X1.2404 Y2.2436
G3 X1.2407 I0.0001 J0.003
G2 X1.2726 Y2.2422 I0.0089 J-0.1497
G3 X1.2732 Y2.2421 I0.0005 J0.003
G2 X1.2998 Y2.2393 I0.004 J-0.0886
G3 X1.2999 I0.0008 J0.0029
G1 X1.3163 Y2.2356
G3 X1.3303 Y2.2324 I0.0228 J0.0673
G3 X1.3305 I0.0004 J0.003
G1 X1.3502 Y2.231
G3 X1.3505 Y2.2309 I0.0002 J0.003
G1 X1.3722 Y2.2316
G3 X1.3982 Y2.2356 I0.0008 J0.0822
G3 X1.4118 Y2.2455 I-0.008 J0.0251
G3 X1.4119 Y2.2457 I-0.0025 J0.0017
G3 X1.4169 Y2.265 I-0.0299 J0.0181
G3 X1.4166 Y2.2833 I-0.0504 J0.0082
G3 X1.4165 Y2.2835 I-0.0029 J-0.0006
G3 X1.4091 Y2.2968 I-0.031 J-0.0087
G3 X1.3932 Y2.3068 I-0.0263 J-0.0241
G3 X1.3759 Y2.312 I-0.0288 J-0.0647
G3 X1.3568 Y2.3132 I-0.0145 J-0.0778
G3 X1.3565 I0.0002 J-0.003
G1 X1.3384 Y2.3103
G3 X1.3381 Y2.3102 I0.0005 J-0.003
G2 X1.3155 Y2.3062 I-0.0322 J0.115
G1 X1.282 Y2.3031
G1 X1.2456 Y2.3016
G3 X1.2097 Y2.3011 I-0.0153 J-0.1931
G0 Z0.125
