( Made using CamBam - http://www.cambam.co.uk )
( multinoisemodule_pcb 12/6/2014 11:22:53 AM )
( T1 : 0.04 )
( T2 : 0.031 )
( T3 : 0.0039 )
G20 G90 G64 G40
G0 Z0.125
( T1 : 0.04 )
T1 M6
( Drill1 .04 )
G17
M3 S1000
G0 X0.1751 Y0.3902
G98
G81 X0.1751 Y0.3902 Z-0.075 R0.125 F20.0
G81 X0.1743 Y0.2503 Z-0.075
G81 X0.4557 Y0.3114 Z-0.075
G81 X0.1944 Y0.851 Z-0.075
G81 X0.6549 Y1.7123 Z-0.075
G81 X0.0545 Y1.9927 Z-0.075
G81 X1.596 Y1.9723 Z-0.075
G81 X1.7559 Y1.9722 Z-0.075
G81 X1.576 Y2.874 Z-0.075
G81 X1.4749 Z-0.075
G81 X1.7559 Y0.7517 Z-0.075
G81 X1.5553 Y0.6922 Z-0.075
G81 X1.4143 Z-0.075
G81 X1.5553 Y0.0701 Z-0.075
G81 X1.6572 Z-0.075
G81 X1.7559 Z-0.075
G80
( Drill2 .031 )
G0 Z0.125
( T2 : 0.031 )
T2 M6
M3 S1000
G0 X1.4963 Y2.6532
G98
G81 X1.4963 Y2.6532 Z-0.075 R0.125 F20.0
G81 X1.3752 Y2.5934 Z-0.075
G81 X1.2954 Z-0.075
G81 X1.2356 Y2.4738 Z-0.075
G81 Y2.3726 Z-0.075
G81 Y2.2729 Z-0.075
G81 Y2.1732 Z-0.075
G81 Y2.0735 Z-0.075
G81 Y1.9738 Z-0.075
G81 Y1.8726 Z-0.075
G81 X1.1159 Y1.733 Z-0.075
G81 X1.1145 Y1.5934 Z-0.075
G81 X1.2356 Y1.4723 Z-0.075
G81 Y1.3726 Z-0.075
G81 Y1.2715 Z-0.075
G81 X1.2372 Y1.1701 Z-0.075
G81 X1.2341 Y1.0714 Z-0.075
G81 X1.2372 Y0.9727 Z-0.075
G81 Y0.8708 Z-0.075
G81 X1.3563 Y0.8504 Z-0.075
G81 X1.5162 Y0.9711 Z-0.075
G81 Y1.073 Z-0.075
G81 X1.6556 Z-0.075
G81 X1.7559 Y0.8504 Z-0.075
G81 X1.9157 Y0.9711 Z-0.075
G81 X1.5558 Y0.57 Z-0.075
G81 X1.5569 Y0.371 Z-0.075
G81 X1.3767 Y0.4712 Z-0.075
G81 X1.2357 Z-0.075
G81 Y0.5715 Z-0.075
G81 Y0.6718 Z-0.075
G81 X1.2341 Y0.371 Z-0.075
G81 X1.2357 Y0.2707 Z-0.075
G81 X1.2372 Y0.1704 Z-0.075
G81 X1.2357 Y0.0701 Z-0.075
G81 X1.3767 Y0.0717 Z-0.075
G81 X0.9348 Y0.0701 Z-0.075
G81 X0.9364 Y0.172 Z-0.075
G81 X0.9348 Y0.2722 Z-0.075
G81 Y0.3694 Z-0.075
G81 X0.9364 Y0.4697 Z-0.075
G81 Y0.5715 Z-0.075
G81 X0.9348 Y0.6703 Z-0.075
G81 X0.8157 Y0.7909 Z-0.075
G81 X0.7139 Z-0.075
G81 Y0.711 Z-0.075
G81 X0.5956 Y0.7118 Z-0.075
G81 Y0.7914 Z-0.075
G81 X0.4758 Y0.7311 Z-0.075
G81 X0.4742 Y0.5912 Z-0.075
G81 X0.3946 Y0.4706 Z-0.075
G81 X0.1952 Z-0.075
G81 X0.0746 Y0.5912 Z-0.075
G81 Y0.7303 Z-0.075
G81 X0.1952 Y0.9515 Z-0.075
G81 Y1.0914 Z-0.075
G81 X0.2948 Y1.2309 Z-0.075
G81 X0.4942 Y1.2314 Z-0.075
G81 X0.5948 Y1.0922 Z-0.075
G81 X0.6752 Z-0.075
G81 X0.5948 Y0.9523 Z-0.075
G81 X0.9348 Y0.9727 Z-0.075
G81 Y1.0714 Z-0.075
G81 Y1.1732 Z-0.075
G81 X0.935 Y1.2729 Z-0.075
G81 Y1.3712 Z-0.075
G81 X0.9365 Y1.4723 Z-0.075
G81 X0.7951 Y1.372 Z-0.075
G81 X0.6753 Y1.5314 Z-0.075
G81 X0.595 Y1.5721 Z-0.075
G81 Y1.4308 Z-0.075
G81 X0.4955 Y1.7123 Z-0.075
G81 X0.5939 Y1.8525 Z-0.075
G81 X0.595 Y1.9916 Z-0.075
G81 Y2.1928 Z-0.075
G81 X0.6753 Z-0.075
G81 X0.7951 Y2.2335 Z-0.075
G81 X0.935 Y2.2743 Z-0.075
G81 Y2.3726 Z-0.075
G81 Y2.4738 Z-0.075
G81 Y2.592 Z-0.075
G81 Y2.753 Z-0.075
G81 X1.1359 Z-0.075
G81 X1.3752 Y2.733 Z-0.075
G81 X1.4948 Y2.5136 Z-0.075
G81 Y2.374 Z-0.075
G81 Z-0.075
G81 X1.4963 Y2.233 Z-0.075
G81 X1.3752 Y2.2729 Z-0.075
G81 X0.9365 Y2.1718 Z-0.075
G81 X0.935 Y2.0721 Z-0.075
G81 Y1.9723 Z-0.075
G81 X0.9365 Y1.8726 Z-0.075
G81 X0.7951 Y1.7722 Z-0.075
G81 X0.2943 Y1.7134 Z-0.075
G81 X0.1947 Y1.8525 Z-0.075
G81 Y1.9927 Z-0.075
G81 Y2.1928 Z-0.075
G81 X0.2354 Y2.3726 Z-0.075
G81 X0.3349 Z-0.075
G81 X0.4345 Z-0.075
G81 X0.5147 Y2.5739 Z-0.075
G81 Y2.713 Z-0.075
G81 X0.6753 Y2.5728 Z-0.075
G81 X0.7951 Y2.4733 Z-0.075
G81 X0.1134 Y2.5739 Z-0.075
G81 X0.1145 Y2.7141 Z-0.075
G81 X0.1947 Y1.5721 Z-0.075
G81 Y1.4319 Z-0.075
G81 X0.9348 Y0.8724 Z-0.075
G81 X1.3751 Y1.0714 Z-0.075
G81 X1.3752 Y1.4709 Z-0.075
G81 X1.5162 Z-0.075
G81 Y1.592 Z-0.075
G81 X1.596 Z-0.075
G81 X1.6558 Y1.4709 Z-0.075
G81 X1.5946 Y1.733 Z-0.075
G81 X1.5148 Y1.7316 Z-0.075
G81 X1.9564 Z-0.075
G81 Y1.592 Z-0.075
G81 X1.8966 Y2.233 Z-0.075
G81 Y2.3726 Z-0.075
G81 Y2.5122 Z-0.075
G81 Y2.6532 Z-0.075
G81 X1.8766 Y2.8327 Z-0.075
G81 X1.737 Y2.8342 Z-0.075
G81 X0.7155 Y0.3114 Z-0.075
G81 X0.5956 Z-0.075
G81 X0.5747 Y0.1699 Z-0.075
G81 X0.1952 Z-0.075
G80
( Engrave1 )
G0 Z0.125
( T3 : 0.0039 )
T3 M6
M3 S1000
G0 X1.7862 Y0.1784
G0 Z0.0624
G1 F20.0 Z-0.0026
G2 F40.0 X1.7572 Y0.1801 I-0.012 J0.0442
G2 X1.757 Y0.1802 I0.0007 J0.0019
G2 X1.7458 Y0.1914 I0.0131 J0.0243
G2 X1.7457 Y0.1918 I0.0018 J0.0009
G2 X1.7441 Y0.2206 I0.0636 J0.0179
G2 X1.7456 Y0.2491 I0.0945 J0.0092
G2 X1.7458 Y0.2496 I0.002 J-0.0004
G2 X1.7571 Y0.2609 I0.0228 J-0.0115
G2 X1.7575 Y0.261 I0.0009 J-0.0018
G2 X1.7861 Y0.2626 I0.0181 J-0.0682
G2 X1.8149 Y0.261 I0.0108 J-0.0658
G2 X1.8152 Y0.2609 I-0.0005 J-0.0019
G2 X1.8265 Y0.2496 I-0.0114 J-0.0226
G2 X1.8266 Y0.2493 I-0.0018 J-0.0009
G2 X1.8282 Y0.2204 I-0.0542 J-0.0175
G2 X1.8267 Y0.1918 I-0.0709 J-0.0104
G2 X1.8265 Y0.1914 I-0.0019 J0.0005
G2 X1.8152 Y0.1802 I-0.0227 J0.0115
G2 X1.815 Y0.1801 I-0.0009 J0.0018
G2 X1.7862 Y0.1784 I-0.0173 J0.0501
G0 Z0.125
G0 X1.7855 Y0.1613
G0 Z0.0624
G1 F20.0 Z-0.0026
G1 F40.0 X1.8047 Y0.1605
G1 X1.8467 Y0.1572
G2 X1.8761 Y0.1513 I-0.0165 J-0.1603
G3 X1.8762 I0.0006 J0.0019
G2 X1.8919 Y0.1434 I-0.0082 J-0.0356
G3 X1.892 Y0.1433 I0.0013 J0.0015
G2 X1.9002 Y0.1362 I-0.0393 J-0.054
G3 X1.9006 Y0.1359 I0.0014 J0.0014
G1 X1.9089 Y0.1307
G3 X1.9094 Y0.1305 I0.0011 J0.0017
G1 X1.9157 Y0.1285
G3 X1.9166 Y0.1284 I0.0006 J0.0019
G3 X1.9331 Y0.1369 I-0.0037 J0.0273
G3 X1.9498 Y0.1537 I-0.4781 J0.4949
G3 X1.9583 Y0.1703 I-0.015 J0.0182
G1 Y0.1704
G3 X1.956 Y0.1779 I-0.0118 J0.0004
G3 X1.95 Y0.1871 I-0.021 J-0.0072
G1 X1.9421 Y0.1961
G3 X1.9245 Y0.2097 I-0.0404 J-0.0339
G3 X1.9243 Y0.2098 I-0.0009 J-0.0018
G3 X1.9083 I-0.008 J-0.0219
G3 X1.9081 Y0.2097 I0.0007 J-0.0019
G3 X1.8905 Y0.1961 I0.0227 J-0.0476
G1 X1.8814 Y0.1889
G1 X1.8722 Y0.1846
G3 X1.872 Y0.1845 I0.0008 J-0.0018
G2 X1.8673 Y0.1838 I-0.0031 J0.0052
G2 X1.8682 Y0.1878 I0.0063 J0.0006
G3 X1.8683 Y0.188 I-0.0017 J0.001
G2 X1.8801 Y0.2006 I0.0249 J-0.0114
G3 X1.8804 Y0.2008 I-0.001 J0.0018
G3 X1.9019 Y0.2185 I-0.455 J0.5758
G3 X1.9325 Y0.2439 I-0.11 J0.164
G3 X1.9327 Y0.244 I-0.0014 J0.0014
G3 X1.9457 Y0.266 I-0.0681 J0.055
G3 Y0.2663 I-0.0019 J0.0008
G3 X1.9483 Y0.2975 I-0.0967 J0.0238
G1 Y0.3406
G3 X1.9464 Y0.3426 I-0.002 J0.0
G1 X1.8638 Y0.3437
G1 X1.7994 Y0.3446
G1 X1.8608 Y0.3574
G3 X1.9015 Y0.3673 I-0.0203 J0.1727
G1 X1.9311 Y0.377
G3 X1.9449 Y0.3854 I-0.0032 J0.0207
G3 Y0.3877 I-0.0016 J0.0012
G3 X1.9359 Y0.3957 I-0.0234 J-0.0175
G3 X1.9357 Y0.3958 I-0.001 J-0.0017
G3 X1.9091 Y0.4048 I-0.0767 J-0.1817
G3 X1.9089 Y0.4049 I-0.0005 J-0.0019
G2 X1.8696 Y0.4138 I0.0325 J0.2351
G3 X1.8694 I-0.0006 J-0.0019
G1 X1.8017 Y0.4266
G1 X1.8658 Y0.4393
G3 X1.9039 Y0.4482 I-0.1606 J0.7699
G3 X1.904 I-0.0005 J0.0019
G1 X1.9318 Y0.4574
G3 X1.945 Y0.4657 I-0.004 J0.0208
G3 X1.9452 Y0.4676 I-0.0016 J0.0012
G3 X1.9368 Y0.4761 I-0.0142 J-0.0057
G3 X1.9113 Y0.4845 I-0.0303 J-0.0485
G1 X1.8722 Y0.4927
G1 X1.8274 Y0.5019
G3 X1.8273 I-0.0004 J-0.002
G2 X1.8026 Y0.5112 I0.009 J0.0613
G2 X1.7927 Y0.5223 I0.0379 J0.0437
G3 X1.7724 Y0.5453 I-0.0559 J-0.029
G3 X1.7721 Y0.5454 I-0.0011 J-0.0017
G3 X1.7424 Y0.5471 I-0.0168 J-0.0355
G3 X1.7203 Y0.5258 I0.0134 J-0.0359
G3 X1.7212 Y0.4942 I0.0364 J-0.0148
G3 X1.7433 Y0.4749 I0.0328 J0.0152
G3 X1.7435 Y0.4748 I0.0006 J0.0019
G3 X1.775 Y0.4774 I0.0109 J0.059
G2 X1.7897 Y0.4802 I0.0193 J-0.0627
G3 X1.7899 I-0.0001 J0.002
G2 X1.8128 Y0.4792 I0.0087 J-0.0648
G3 X1.8132 Y0.4791 I0.0004 J0.002
G2 X1.8406 Y0.4745 I-0.0026 J-0.099
G3 X1.8408 Y0.4744 I0.0006 J0.0019
G1 X1.8811 Y0.4653
G1 X1.813 Y0.4534
G3 X1.8128 Y0.4533 I0.0003 J-0.002
G2 X1.7724 Y0.4448 I-0.0813 J0.286
G3 X1.746 Y0.4361 I0.0074 J-0.0669
G3 X1.7373 Y0.4277 I0.0077 J-0.0167
G3 X1.7375 Y0.4256 I0.0018 J-0.0009
G3 X1.7504 Y0.4174 I0.0172 J0.0128
G3 X1.7787 Y0.4082 I0.0425 J0.0823
G3 X1.8166 Y0.3994 I0.1354 J0.4956
G1 X1.8809 Y0.3868
G1 X1.8109 Y0.3729
G3 X1.7877 Y0.3676 I0.0056 J-0.0775
G3 X1.7647 Y0.3623 I0.0103 J-0.0969
G3 X1.7383 Y0.3522 I0.0164 J-0.0825
G3 X1.7292 Y0.3409 I0.0093 J-0.0168
G3 Y0.3397 I0.0019 J-0.0006
G3 X1.7382 Y0.3293 I0.0174 J0.0059
G3 X1.7689 Y0.3237 I0.026 J0.0564
G2 X1.8284 Y0.3208 I0.0141 J-0.318
G3 X1.8286 I0.0003 J0.002
G1 X1.9243 Y0.3179
G1 Y0.2928
G2 X1.9208 Y0.275 I-0.0846 J0.0073
G2 X1.91 Y0.2579 I-0.0441 J0.0159
G2 X1.8906 Y0.2396 I-0.1114 J0.0988
G1 X1.8725 Y0.2258
G3 X1.8581 Y0.2159 I0.1148 J-0.1823
G3 X1.8577 Y0.2155 I0.0012 J-0.0016
G2 X1.8524 Y0.2125 I-0.0062 J0.0049
G2 X1.851 Y0.2155 I0.003 J0.0032
G3 X1.8509 Y0.2159 I-0.002 J-0.0001
G2 X1.849 Y0.2283 I0.0656 J0.0166
G2 X1.8482 Y0.246 I0.1691 J0.016
G1 Y0.2816
G3 X1.8461 Y0.2836 I-0.002 J0.0
G1 X1.7886 Y0.2806
G1 X1.731 Y0.2776
G3 X1.7291 Y0.2756 I0.0001 J-0.002
G1 Y0.2205
G1 Y0.1654
G3 X1.731 Y0.1634 I0.002 J0.0
G1 X1.7855 Y0.1613
G0 Z0.125
G0 X1.776 Y0.1376
G0 Z0.0624
G1 F20.0 Z-0.0026
G3 F40.0 X1.744 Y0.1419 I-0.0245 J-0.061
G3 X1.7168 Y0.1299 I0.0077 J-0.0544
G3 X1.7165 Y0.1297 I0.0013 J-0.0015
G2 X1.7091 Y0.124 I-0.0154 J0.0126
G2 X1.7032 I-0.003 J0.0089
G2 X1.6955 Y0.1298 I0.0154 J0.0284
G3 X1.6952 Y0.13 I-0.0014 J-0.0014
G3 X1.6714 Y0.1406 I-0.0363 J-0.0495
G3 X1.6409 Y0.1408 I-0.0156 J-0.0631
G3 X1.6173 Y0.1305 I0.0168 J-0.0706
G1 X1.6092 Y0.1249
G2 X1.6025 Y0.1253 I-0.0029 J0.0081
G3 X1.6021 Y0.1254 I-0.0009 J-0.0018
G2 X1.5929 Y0.1313 I0.0036 J0.0157
G3 Y0.1314 I-0.0016 J-0.0012
G2 X1.5809 Y0.1572 I0.0403 J0.0345
G2 X1.5787 Y0.1865 I0.1555 J0.0262
G2 X1.5788 Y0.2785 I1.7065 J0.0437
G2 X1.5934 Y0.3443 I0.1693 J-0.003
G3 X1.6019 Y0.3606 I-0.0546 J0.0387
G3 X1.6037 Y0.3752 I-0.0263 J0.0106
G3 X1.5987 Y0.3899 I-0.0272 J-0.0011
G3 X1.5721 Y0.4155 I-0.0465 J-0.0216
G3 X1.54 Y0.4158 I-0.0164 J-0.0405
G3 X1.5134 Y0.3903 I0.0159 J-0.0433
G3 X1.5133 Y0.3901 I0.0018 J-0.0008
G3 X1.5099 Y0.3653 I0.0843 J-0.0243
G3 X1.5189 Y0.3401 I0.0379 J-0.0007
G3 X1.5195 Y0.3396 I0.0015 J0.0013
G2 X1.5348 Y0.3292 I-0.0286 J-0.0585
G2 X1.5392 Y0.3185 I-0.0144 J-0.0122
G3 X1.5393 Y0.3181 I0.002 J0.0001
G2 X1.5426 Y0.2867 I-0.09 J-0.0255
G3 Y0.2865 I0.002 J-0.0001
G1 X1.5439 Y0.2403
G2 X1.5426 Y0.1764 I-0.5573 J-0.0207
G2 X1.5343 Y0.1458 I-0.1046 J0.0119
G2 X1.5122 Y0.1222 I-0.0726 J0.0459
G3 X1.512 Y0.122 I0.0012 J-0.0016
G2 X1.4752 Y0.0984 I-0.0772 J0.08
G2 X1.4382 Y0.0939 I-0.0284 J0.0778
G2 X1.4015 Y0.1081 I0.0091 J0.0776
G1 Y0.1082
G3 X1.3832 Y0.1183 I-0.0569 J-0.0813
G3 X1.3829 Y0.1184 I-0.0008 J-0.0018
G3 X1.3679 Y0.1181 I-0.0069 J-0.0314
G3 X1.3676 Y0.118 I0.0005 J-0.0019
G3 X1.3485 Y0.1073 I0.0474 J-0.1067
G2 X1.3098 Y0.0952 I-0.0435 J0.0711
G3 X1.3096 Y0.0951 I0.0001 J-0.002
G2 X1.2732 Y0.1009 I-0.0089 J0.0625
G1 X1.2731
G2 X1.2576 Y0.1206 I0.0122 J0.0256
G2 X1.2636 Y0.1339 I0.0203 J-0.0012
G2 X1.289 Y0.1429 I0.0248 J-0.0295
G3 X1.2893 Y0.143 I0.0 J0.002
G1 X1.3177 Y0.1466
G1 X1.3459 Y0.1507
G3 X1.3644 Y0.1571 I-0.0029 J0.0389
G3 X1.3649 Y0.1576 I-0.0011 J0.0017
G3 X1.3718 Y0.1882 I-0.033 J0.0235
G1 X1.3727 Y0.2655
G1 Y0.2656
G1 Y0.3757
G3 X1.3709 Y0.3777 I-0.002 J0.0
G1 X1.3409 Y0.3805
G1 X1.323 Y0.3834
G2 X1.3052 Y0.388 I0.0127 J0.0854
G1 X1.2907 Y0.3936
G3 X1.2739 Y0.3984 I-0.0357 J-0.092
G3 X1.2738 Y0.3985 I-0.0004 J-0.002
G1 X1.2504 Y0.401
G3 X1.2248 Y0.4009 I-0.0121 J-0.1003
G3 X1.1951 Y0.3972 I-0.0036 J-0.0929
G3 X1.195 I0.0006 J-0.0019
G3 X1.1817 Y0.3887 I0.0114 J-0.0327
G3 X1.1813 Y0.3882 I0.0014 J-0.0014
G3 X1.1785 Y0.3707 I0.0301 J-0.0139
G3 X1.1819 Y0.3523 I0.03 J-0.0039
G3 X1.1826 Y0.3516 I0.0018 J0.001
G3 X1.2052 Y0.3453 I0.0209 J0.0312
G1 X1.2342 Y0.345
G1 X1.2343
G1 X1.2631 Y0.3459
G1 X1.3437 Y0.348
G1 Y0.2653
G1 X1.3426 Y0.207
G3 Y0.2067 I0.002 J0.0
G2 X1.3371 Y0.1858 I-0.0307 J-0.0031
G2 X1.3228 Y0.1825 I-0.0124 J0.0212
G1 X1.3098 Y0.1839
G2 X1.2985 Y0.1875 I0.0037 J0.0314
G1 X1.2901 Y0.1928
G3 X1.2899 I-0.0011 J-0.0017
G3 X1.2775 Y0.1979 I-0.0305 J-0.0569
G3 X1.2772 Y0.198 I-0.0006 J-0.0019
G1 X1.2558 Y0.2007
G3 X1.2293 Y0.2006 I-0.013 J-0.0787
G3 X1.1964 Y0.1971 I-0.0042 J-0.1159
G3 X1.1818 Y0.1886 I0.0062 J-0.0278
G3 X1.1814 Y0.1881 I0.0015 J-0.0014
G3 X1.1785 Y0.1705 I0.0291 J-0.014
G3 X1.1808 Y0.1548 I0.0299 J-0.0036
G3 X1.1888 Y0.1448 I0.0186 J0.0068
G3 X1.2026 Y0.1403 I0.0179 J0.0314
G1 X1.2141 Y0.1365
G2 X1.2211 Y0.1298 I-0.0244 J-0.0328
G2 X1.2235 Y0.1211 I-0.0164 J-0.0092
G2 X1.2127 Y0.1057 I-0.0216 J0.0036
G3 X1.2126 Y0.1056 I0.001 J-0.0017
G2 X1.1783 Y0.0958 I-0.0331 J0.0505
G3 X1.1781 I0.0 J-0.002
G1 X1.1191 Y0.0924
G1 X1.0774
G1 Y0.1605
G3 X1.076 Y0.2103 I-0.3802 J0.0143
G1 Y0.2104
G3 X1.0671 Y0.2348 I-0.0604 J-0.0081
G3 X1.0669 Y0.235 I-0.0017 J-0.0011
G3 X1.0438 Y0.2518 I-0.0464 J-0.0399
G1 X1.0253 Y0.2635
G1 X1.0078 Y0.2762
G1 X0.9952 Y0.2869
G3 X0.9802 Y0.2964 I-0.0279 J-0.0273
G3 X0.9585 Y0.3008 I-0.0222 J-0.0536
G1 X0.9288 Y0.3007
G3 X0.896 Y0.2972 I-0.0031 J-0.1253
G3 X0.8814 Y0.2887 I0.0055 J-0.0264
G3 X0.8811 Y0.2883 I0.0015 J-0.0013
G3 X0.8781 Y0.2706 I0.0279 J-0.0138
G3 X0.8817 Y0.2523 I0.0296 J-0.0037
G3 X0.8821 Y0.2518 I0.0017 J0.001
G3 X0.9008 Y0.243 I0.0238 J0.026
G3 X0.9451 Y0.2378 I0.0653 J0.3684
G3 X0.9453 I0.0001 J0.002
G2 X1.0137 Y0.2286 I0.0104 J-0.182
G2 X1.0392 Y0.2074 I-0.0251 J-0.056
G2 X1.0434 Y0.1565 I-0.0875 J-0.0327
G3 X1.0433 Y0.1561 I0.002 J-0.0004
G1 Y0.0958
G1 X0.5598 Y0.0934
G1 X0.0763 Y0.091
G1 Y0.3113
G1 Y0.5327
G1 X0.1005 Y0.5552
G3 X0.122 Y0.5801 I-0.0322 J0.0495
G3 Y0.5802 I-0.0018 J0.0008
G3 Y0.6016 I-0.0293 J0.0107
G3 X0.1219 Y0.6018 I-0.0019 J-0.0007
G3 X0.1005 Y0.6267 I-0.0611 J-0.031
G2 X0.0883 Y0.6397 I0.0408 J0.0505
G3 X0.0881 Y0.6399 I-0.0016 J-0.0012
G2 X0.0795 Y0.6523 I0.0336 J0.0326
G3 X0.0794 Y0.6524 I-0.0018 J-0.0009
G2 X0.0763 Y0.6611 I0.0202 J0.0122
G2 X0.0793 Y0.6694 I0.0154 J-0.0009
G1 X0.0882 Y0.6822
G1 X0.1007 Y0.6955
G1 X0.1133 Y0.7087
G1 X0.1134 Y0.7088
G3 X0.1225 Y0.7212 I-0.0726 J0.0628
G3 X0.1263 Y0.731 I-0.013 J0.0107
G3 Y0.7314 I-0.002 J0.0001
G3 X0.1226 Y0.7408 I-0.0255 J-0.0046
G3 X0.1135 Y0.7533 I-0.0944 J-0.0596
G3 X0.1006 Y0.7667 I-0.0582 J-0.0428
G1 X0.0763 Y0.7893
G1 Y1.0501
G1 Y1.3097
G1 X0.3273
G1 X0.5795
G1 X0.6484 Y1.2403
G3 X0.6948 Y1.196 I0.3009 J0.2688
G3 X0.7255 Y1.175 I0.0993 J0.1121
G3 X0.726 Y1.1748 I0.0009 J0.0018
G1 X0.7518 Y1.1696
G3 X0.7522 I0.0004 J0.002
G1 X0.783
G1 Y1.1162
G3 X0.7845 Y1.0856 I0.3164 J-0.0001
G3 X0.789 Y1.0644 I0.0478 J-0.001
G1 Y1.0643
G3 X0.7962 Y1.0547 I0.0318 J0.0163
G3 X0.7967 Y1.0543 I0.0014 J0.0014
G3 X0.8163 Y1.0515 I0.0148 J0.0327
G2 X0.8528 Y1.0489 I-0.0024 J-0.2943
G1 X0.8529
G3 X0.9002 Y1.047 I0.0377 J0.3436
G1 X0.9902 Y1.0444
G3 X0.9923 Y1.0464 I0.0001 J0.002
G1 Y1.0713
G3 X0.9893 Y1.0891 I-0.0336 J0.0036
G3 X0.989 Y1.0896 I-0.0018 J-0.0008
G3 X0.9743 Y1.0981 I-0.0205 J-0.0187
G3 X0.9413 Y1.1016 I-0.0293 J-0.1183
G3 X0.9152 Y1.1017 I-0.0147 J-0.3806
G3 X0.8932 Y1.0989 I-0.0037 J-0.0593
G3 X0.8808 Y1.0938 I0.0157 J-0.0562
G3 X0.8805 Y1.0937 I0.001 J-0.0018
G2 X0.8719 Y1.0886 I-0.0239 J0.0307
G2 X0.8586 Y1.0849 I-0.023 J0.0572
G1 X0.8585
G2 X0.8436 Y1.0835 I-0.0147 J0.0755
G3 X0.8432 Y1.0834 I0.0 J-0.002
G2 X0.8257 Y1.0857 I-0.0055 J0.0256
G2 X0.8184 Y1.0998 I0.016 J0.0173
G3 X0.8183 Y1.0999 I-0.002 J-0.0003
G2 X0.8151 Y1.1389 I0.1534 J0.0325
G3 Y1.1391 I-0.002 J0.0001
G1 X0.8121 Y1.1967
G3 X0.8102 Y1.1986 I-0.002 J-0.0001
G1 X0.7702 Y1.2018
G2 X0.7403 Y1.2086 I0.01 J0.1131
G2 X0.7081 Y1.2296 I0.0815 J0.1603
G2 X0.6599 Y1.2738 I0.2258 J0.2943
G3 Y1.2739 I-0.0015 J-0.0013
G1 X0.5883 Y1.3432
G3 X0.587 Y1.3437 I-0.0014 J-0.0014
G1 X0.3306
G1 X0.0763
G1 Y1.3768
G3 X0.0762 Y1.3773 I-0.002 J0.0
G2 X0.0777 Y1.3999 I0.035 J0.009
G2 X0.0863 Y1.4083 I0.0188 J-0.0104
G2 X0.1093 Y1.4099 I0.0144 J-0.0422
G3 X0.1097 Y1.4098 I0.0004 J0.002
G2 X0.1302 Y1.4078 I0.0011 J-0.0936
G1 X0.1303
G2 X0.151 Y1.4024 I-0.0371 J-0.1856
G1 X0.1674 Y1.3948
G3 X0.1937 Y1.3851 I0.0382 J0.0626
G3 X0.1939 Y1.385 I0.0003 J0.002
G3 X0.2179 Y1.3907 I0.003 J0.0411
G1 X0.218 Y1.3908
G3 X0.2365 Y1.4114 I-0.0289 J0.0444
G3 X0.2383 Y1.4497 I-0.0447 J0.0213
G3 X0.212 Y1.4757 I-0.0434 J-0.0176
G3 X0.1734 Y1.4737 I-0.0171 J-0.0432
G3 X0.1733 Y1.4736 I0.0009 J-0.0018
G1 X0.1632 Y1.4668
G3 X0.1554 Y1.4589 I0.0139 J-0.0215
G3 X0.1552 Y1.4585 I0.0017 J-0.0011
G2 X0.1527 Y1.4528 I-0.0451 J0.0159
G1 X0.1478 Y1.4484
G2 X0.1341 Y1.4452 I-0.0301 J0.0955
G3 X0.134 Y1.4451 I0.0003 J-0.002
G2 X0.1145 Y1.4438 I-0.0133 J0.0538
G3 X0.1143 Y1.4439 I-0.0002 J-0.002
G1 X0.0763
G1 Y1.567
G1 Y1.6901
G1 X0.1597
G1 X0.1852 Y1.6896
G1 X0.2107 Y1.6886
G1 X0.2108
G2 X0.2457 Y1.6837 I-0.0008 J-0.1329
G1 X0.2458 Y1.6836
G2 X0.2674 Y1.6751 I-0.0211 J-0.0857
G1 X0.2675
G3 X0.2937 Y1.6654 I0.0499 J0.0942
G3 X0.294 I0.0004 J0.0019
G3 X0.318 Y1.671 I0.0024 J0.0435
G1 X0.3181 Y1.6711
G3 X0.3366 Y1.6917 I-0.0277 J0.0434
G3 X0.3384 Y1.73 I-0.0448 J0.0213
G3 X0.3121 Y1.756 I-0.0435 J-0.0178
G3 X0.2735 Y1.754 I-0.0171 J-0.0429
G3 X0.2734 Y1.7539 I0.0009 J-0.0018
G1 X0.2633 Y1.7471
G3 X0.2632 I0.0011 J-0.0017
G3 X0.2556 Y1.7393 I0.0229 J-0.0301
G3 X0.2554 Y1.739 I0.0016 J-0.0012
G1 X0.2528 Y1.7331
G2 X0.2423 Y1.7289 I-0.0121 J0.0151
G3 X0.242 Y1.7288 I0.0002 J-0.002
G2 X0.2106 Y1.7255 I-0.0265 J0.0992
G3 X0.2104 I-0.0001 J-0.002
G1 X0.1643 Y1.7242
G1 X0.0763
G1 Y1.8326
G1 X0.0777 Y1.9011
G1 Y1.9012
G2 X0.0826 Y1.9427 I0.142 J0.004
G2 X0.0921 Y1.9667 I0.1032 J-0.0268
G3 X0.1022 Y1.985 I-0.0449 J0.0368
G3 X0.1023 Y1.9851 I-0.0019 J0.0006
G3 Y1.9998 I-0.0273 J0.0074
G3 X0.1022 Y2.0001 I-0.0019 J-0.0005
G3 X0.0921 Y2.0182 I-0.13 J-0.0604
G2 X0.0834 Y2.0386 I0.0537 J0.0349
G2 X0.0781 Y2.0685 I0.2937 J0.0681
G2 X0.0763 Y2.1072 I0.3747 J0.0368
G1 Y2.1707
G1 X0.1095
G1 X0.1305 Y2.1686
G2 X0.1509 Y2.1633 I-0.0066 J-0.0673
G1 X0.1674 Y2.1557
G3 X0.1937 Y2.1459 I0.0382 J0.0628
G3 X0.1938 I0.0003 J0.002
G3 X0.2179 Y2.1516 I0.0034 J0.0394
G3 X0.2365 Y2.1723 I-0.0221 J0.0385
G3 X0.2383 Y2.2126 I-0.0428 J0.0222
G3 Y2.2127 I-0.0019 J-0.0008
G3 X0.2094 Y2.237 I-0.0409 J-0.0193
G3 X0.2092 I-0.0005 J-0.0019
G3 X0.1681 Y2.2302 I-0.0108 J-0.0626
G1 X0.1514 Y2.2224
G1 X0.1303 Y2.2168
G2 X0.1096 Y2.2147 I-0.0217 J0.1109
G1 X0.0763
G1 Y2.2828
G1 Y2.3509
G1 X0.1382
G2 X0.1799 Y2.3496 I0.0089 J-0.3786
G3 X0.18 I0.0002 J0.002
G2 X0.1986 Y2.344 I-0.0014 J-0.0388
G2 X0.2055 Y2.3316 I-0.0255 J-0.0224
G3 X0.2115 Y2.319 I0.0232 J0.0032
G3 X0.2117 Y2.3188 I0.0015 J0.0014
G3 X0.2215 Y2.3128 I0.0225 J0.0258
G3 X0.2218 Y2.3127 I0.0007 J0.0019
G3 X0.2364 Y2.3125 I0.0078 J0.0425
G3 X0.2528 Y2.3183 I-0.001 J0.0292
G3 X0.2532 Y2.3186 I-0.0012 J0.0016
G3 X0.2601 Y2.3361 I-0.0229 J0.0193
G3 X0.2615 Y2.3728 I-0.5429 J0.0382
G3 X0.2601 Y2.4098 I-0.1755 J0.0121
G3 X0.2532 Y2.4272 I-0.0299 J-0.0019
G3 X0.2527 Y2.4276 I-0.0015 J-0.0013
G3 X0.2365 Y2.4332 I-0.0189 J-0.0279
G3 X0.2218 Y2.433 I-0.007 J-0.0313
G3 X0.2114 Y2.4267 I0.0032 J-0.0168
G3 X0.2112 Y2.4263 I0.0016 J-0.0012
G1 X0.2057 Y2.4146
G3 X0.2056 Y2.4142 I0.0018 J-0.0008
G2 X0.1986 Y2.4018 I-0.0258 J0.0062
G2 X0.1798 Y2.3962 I-0.0205 J0.0349
G1 X0.1797
G2 X0.1377 Y2.3949 I-0.0353 J0.4581
G3 X0.1001 Y2.3975 I-0.0309 J-0.1766
G3 X0.0624 Y2.3891 I-0.0043 J-0.0698
G3 X0.062 Y2.3888 I0.001 J-0.0018
G3 X0.0353 Y2.3408 I0.0583 J-0.0638
G3 X0.0322 Y2.2068 I0.4206 J-0.0768
G2 X0.031 Y2.1023 I-0.7475 J-0.0433
G3 Y2.1021 I0.002 J-0.0002
G2 X0.0262 Y2.0457 I-0.2127 J-0.0103
G3 X0.0261 Y2.0456 I0.002 J-0.0004
G2 X0.0164 Y2.0183 I-0.0778 J0.0123
G3 X0.0062 Y2.0 I0.0477 J-0.0384
G3 Y1.9998 I0.0019 J-0.0007
G3 Y1.9851 I0.0278 J-0.0073
G3 Y1.985 I0.0019 J0.0005
G3 X0.0163 Y1.9667 I0.06 J0.0213
G2 X0.0267 Y1.8973 I-0.12 J-0.0535
G3 Y1.8971 I0.002 J-0.0002
G3 X0.0312 Y1.629 I3.3623 J-0.0783
G2 X0.0319 Y1.0134 I-9.1636 J-0.3184
G1 X0.0255 Y0.7781
G1 X0.0252 Y0.7192
G1 X0.027 Y0.6309
G1 Y0.6308
G1 X0.0326 Y0.5427
G3 Y0.5426 I0.002 J0.0001
G2 X0.0487 Y0.3728 I-2.2887 J-0.3019
G2 X0.0348 Y0.2033 I-0.6603 J-0.0314
G3 X0.0205 Y0.1349 I0.3873 J-0.1169
G3 X0.0197 Y0.098 I0.0889 J-0.0203
G3 X0.0388 Y0.0654 I0.0479 J0.0061
G3 X0.0389 Y0.0653 I0.0012 J0.0016
G3 X0.0679 Y0.0539 I0.0509 J0.0868
G3 X0.1881 Y0.0488 I0.0754 J0.3606
G2 X0.3281 Y0.0503 I0.0836 J-1.2945
G1 X0.4682 Y0.047
G1 X0.7698 Y0.0437
G1 X1.0713 Y0.0445
G1 X1.187 Y0.0441
G1 X1.2449 Y0.0427
G3 X1.245 I0.0 J0.002
G2 X1.3025 Y0.0401 I0.0117 J-0.3703
G3 X1.3029 I0.0002 J0.002
G2 X1.3529 Y0.0303 I0.0035 J-0.1155
G3 X1.3697 Y0.0229 I0.0394 J0.0663
G3 X1.37 Y0.0228 I0.0006 J0.0019
G3 X1.3846 Y0.0236 I0.0053 J0.0379
G3 X1.3848 I-0.0005 J0.0019
G3 X1.4022 Y0.033 I-0.0203 J0.0588
G2 X1.437 Y0.0467 I0.0482 J-0.0711
G2 X1.4723 Y0.0434 I0.0103 J-0.0805
G2 X1.5073 Y0.023 I-0.0365 J-0.1029
G3 X1.5282 Y0.0081 I0.077 J0.0858
G3 X1.5469 Y0.0017 I0.0205 J0.0294
G3 X1.5657 Y0.0032 I0.0057 J0.0475
G3 X1.5658 I-0.0005 J0.0019
G2 X1.5807 Y0.0062 I0.0183 J-0.0519
G3 X1.5808 I-0.0001 J0.002
G1 X1.5963 Y0.0082
G2 X1.6084 Y0.0086 I0.0088 J-0.0864
G1 X1.6213 Y0.0081
G3 X1.6384 Y0.0078 I0.0296 J1.0372
G3 X1.656 Y0.0076 I0.0128 J0.5373
G1 X1.6735 Y0.0078
G3 X1.6907 Y0.0081 I-0.0009 J0.4654
G1 X1.6908
G2 X1.7035 Y0.0086 I0.0125 J-0.1622
G1 X1.7159 Y0.0082
G2 X1.731 Y0.0063 I-0.0026 J-0.0806
G1 X1.7311
G1 X1.7465 Y0.0031
G3 X1.765 Y0.0016 I0.0181 J0.112
G3 X1.7652 Y0.0017 I0.0 J0.002
G3 X1.7839 Y0.0081 I-0.0038 J0.0416
G1 X1.8045 Y0.0228
G3 X1.8047 Y0.0229 I-0.0012 J0.0016
G2 X1.8297 Y0.0398 I0.0841 J-0.0978
G2 X1.863 Y0.0469 I0.0481 J-0.1452
G1 X1.8631
G2 X1.9251 Y0.0483 I0.0387 J-0.3304
G3 X1.9253 I0.0001 J0.002
G1 X2.0164
G3 X2.0184 Y0.0503 I0.0 J0.002
G1 Y1.4458
G1 X2.0134 Y1.9076
G1 X2.0137 Y2.1384
G2 X2.0175 Y2.3693 I5.1717 J0.0314
G3 X2.0201 Y2.4676 I-6.8645 J0.2285
G3 X2.013 Y2.7624 I-2.738 J0.0824
G1 Y2.7625
G1 X2.0026 Y2.8476
G3 X2.0012 Y2.8492 I-0.002 J-0.0002
G3 X1.9889 Y2.8524 I-0.0281 J-0.0845
G3 X1.9725 Y2.8546 I-0.0559 J-0.3555
G1 X1.9724
G3 X1.9553 Y2.8554 I-0.0171 J-0.1732
G1 X1.9373 Y2.8575
G2 X1.919 Y2.8628 I0.0049 J0.0514
G3 X1.9188 Y2.8629 I-0.0009 J-0.0018
G2 X1.9034 Y2.8704 I0.0245 J0.0699
G3 X1.9033 I-0.0011 J-0.0017
G3 X1.862 Y2.8774 I-0.0306 J-0.0554
G3 X1.8619 I0.0003 J-0.002
G3 X1.8324 Y2.8535 I0.0106 J-0.0432
G3 Y2.8534 I0.0018 J-0.0009
G3 X1.8338 Y2.8137 I0.0476 J-0.0182
G3 X1.8525 Y2.7925 I0.0468 J0.0225
G3 X1.8766 Y2.7866 I0.0222 J0.0384
G3 X1.877 I-0.0001 J0.002
G3 X1.9033 Y2.7964 I-0.0261 J0.1106
G3 X1.9035 Y2.7965 I-0.0009 J0.0018
G2 X1.9181 Y2.8039 I0.0286 J-0.0386
G3 X1.9185 Y2.8041 I-0.0006 J0.0019
G2 X1.9352 Y2.8093 I0.0216 J-0.0396
G1 X1.9353
G1 X1.9512 Y2.8114
G2 X1.9674 Y2.8087 I0.0028 J-0.0328
G2 X1.9733 Y2.7906 I-0.0228 J-0.0175
G1 Y2.7905
G1 X1.9744 Y2.7383
G1 X1.9732 Y2.6885
G3 Y2.6882 I0.002 J0.0
G2 X1.9682 Y2.6689 I-0.0279 J-0.003
G2 X1.9565 Y2.6652 I-0.0111 J0.0148
G1 X1.9466 Y2.6665
G2 X1.9404 Y2.6695 I0.0037 J0.0157
G2 X1.9383 Y2.6733 I0.0051 J0.0053
G3 X1.9381 Y2.6737 I-0.002 J-0.0004
G3 X1.9275 Y2.6887 I-0.044 J-0.0198
G3 X1.9273 Y2.6889 I-0.0014 J-0.0014
G3 X1.9043 Y2.6991 I-0.0382 J-0.0552
G3 X1.8813 Y2.699 I-0.0113 J-0.0535
G3 X1.8809 Y2.6989 I0.0004 J-0.002
G3 X1.8613 Y2.6839 I0.0212 J-0.048
G3 X1.8499 Y2.6612 I0.0432 J-0.0359
G3 X1.8505 Y2.6381 I0.0426 J-0.0105
G1 Y2.638
G3 X1.8683 Y2.6147 I0.041 J0.0128
G3 X1.8943 Y2.6067 I0.0269 J0.0415
G1 X1.8944
G3 X1.9227 Y2.6158 I-0.0015 J0.0536
G3 X1.9229 Y2.6159 I-0.0011 J0.0017
G2 X1.9592 Y2.6317 I0.0468 J-0.058
G2 X1.9695 Y2.6116 I-0.017 J-0.0214
G3 Y2.6114 I0.002 J0.0001
G1 X1.9722 Y2.5865
G2 X1.9744 Y2.4381 I-1.2017 J-0.092
G3 X1.9735 Y2.3034 I0.7394 J-0.0723
G3 X1.9736 Y2.303 I0.002 J0.0002
G2 X1.9684 Y2.2525 I-0.0635 J-0.019
G2 X1.9561 Y2.2447 I-0.015 J0.0101
G1 X1.956
G2 X1.9471 Y2.2459 I-0.0026 J0.0143
G3 X1.9467 Y2.246 I-0.0009 J-0.0018
G2 X1.9404 Y2.2491 I0.0028 J0.0139
G2 X1.9383 Y2.2526 I0.0039 J0.0046
G3 X1.9352 Y2.26 I-0.0123 J-0.001
G3 X1.9277 Y2.2676 I-0.0219 J-0.014
G3 X1.9171 Y2.2746 I-0.0203 J-0.0191
G3 X1.8787 Y2.2766 I-0.0215 J-0.0442
G3 X1.8524 Y2.2506 I0.0165 J-0.043
G1 Y2.2505
G3 X1.8542 Y2.2124 I0.0478 J-0.0169
G3 X1.8727 Y2.1916 I0.0379 J0.0153
G3 X1.8968 Y2.1859 I0.0204 J0.0325
G3 X1.9235 Y2.1958 I-0.0041 J0.0519
G2 X1.9411 Y2.2059 I0.0837 J-0.1256
G3 X1.9413 Y2.206 I-0.0009 J0.0018
G2 X1.9596 Y2.2111 I0.0177 J-0.0283
G2 X1.9705 Y2.1879 I-0.0157 J-0.0216
G3 Y2.1877 I0.002 J-0.0001
G1 X1.9723 Y2.1597
G1 X1.9747 Y2.0762
G2 X1.9744 Y1.9929 I-0.9461 J-0.0376
G3 X1.972 Y1.9232 I0.6865 J-0.0587
G3 X1.9734 Y1.8533 I0.6446 J-0.022
G3 Y1.8531 I0.002 J0.0001
G2 X1.9693 Y1.7912 I-0.1322 J-0.0224
G2 X1.961 Y1.78 I-0.0298 J0.0133
G2 X1.941 Y1.7748 I-0.0225 J0.0455
G3 X1.9404 Y1.7747 I0.0001 J-0.002
G3 X1.9159 Y1.7546 I0.0202 J-0.0494
G3 X1.9043 Y1.7325 I0.029 J-0.0294
G3 Y1.7318 I0.002 J-0.0004
G3 X1.916 Y1.7097 I0.0397 J0.0069
G3 X1.94 Y1.6899 I0.0719 J0.0625
G3 X1.9624 Y1.6841 I0.0186 J0.0255
G3 X1.9629 Y1.6842 I-0.0002 J0.002
G2 X1.9694 Y1.6845 I0.0038 J-0.0092
G2 X1.973 Y1.6783 I-0.0069 J-0.0081
G3 X1.9731 Y1.6781 I0.002 J0.0003
G2 X1.9744 Y1.6624 I-0.0344 J-0.0108
G3 Y1.6623 I0.002 J-0.0003
G1 X1.973 Y1.6458
G2 X1.9698 Y1.6399 I-0.0091 J0.0012
G1 X1.9622 Y1.6402
G3 X1.9401 Y1.6344 I-0.0006 J-0.0425
G3 X1.9161 Y1.6145 I0.0482 J-0.0829
G3 X1.9043 Y1.5923 I0.0242 J-0.027
G3 Y1.5917 I0.002 J-0.0003
G3 X1.9159 Y1.5696 I0.0403 J0.0072
G3 X1.9404 Y1.5495 I0.0449 J0.0297
G3 X1.941 Y1.5494 I0.0008 J0.0018
G2 X1.9609 Y1.5442 I-0.0046 J-0.0591
G2 X1.9693 Y1.5292 I-0.0281 J-0.0254
G2 X1.9734 Y1.4496 I-0.2521 J-0.053
G3 Y1.4494 I0.002 J-0.0002
G3 X1.9744 Y1.2713 I1.6889 J-0.0796
G1 X1.9763 Y1.2008
G1 Y1.2007
G2 X1.9737 Y1.1306 I-0.3225 J-0.0228
G3 X1.9717 Y1.0295 I0.318 J-0.0567
G1 Y1.0294
G1 X1.9748 Y1.0099
G3 X1.9749 Y1.0097 I0.002 J0.0003
G2 X1.9755 Y1.0 I-0.0226 J-0.0062
G3 Y0.9992 I0.002 J-0.0003
G2 X1.9711 Y0.9934 I-0.0043 J-0.0013
G2 X1.9663 Y0.9951 I0.0008 J0.0098
G3 X1.9657 Y0.9954 I-0.0011 J-0.0016
G2 X1.9562 Y1.0004 I0.0075 J0.0256
G3 X1.9432 Y1.0084 I-0.0241 J-0.0245
G3 X1.902 Y1.0153 I-0.03 J-0.0524
G3 X1.9019 I0.0004 J-0.002
G3 X1.8725 Y0.9915 I0.0106 J-0.0431
G3 X1.8724 Y0.9913 I0.0018 J-0.0009
G3 X1.8738 Y0.9516 I0.0448 J-0.0183
G3 X1.8925 Y0.9305 I0.0448 J0.0207
G3 X1.8926 Y0.9304 I0.0011 J0.0017
G3 X1.9166 Y0.9245 I0.0236 J0.0444
G3 X1.9169 I0.0 J0.002
G3 X1.9434 Y0.9344 I-0.0124 J0.074
G1 X1.9559 Y0.942
G3 X1.956 Y0.9421 I-0.001 J0.0017
G2 X1.9658 Y0.9473 I0.0238 J-0.0329
G3 X1.9663 Y0.9476 I-0.0007 J0.0019
G2 X1.9711 Y0.9493 I0.0056 J-0.0081
G2 X1.979 Y0.939 I0.0005 J-0.0078
G3 Y0.9387 I0.0019 J-0.0006
G1 X1.9717 Y0.8926
G3 X1.9649 Y0.8149 I0.5131 J-0.0845
G3 Y0.8148 I0.002 J0.0
G3 X1.9736 Y0.7374 I0.6072 J0.0297
G2 X1.9744 Y0.521 I-1.3986 J-0.1129
G3 Y0.5208 I0.002 J-0.0001
G1 Y0.0924
G1 X1.903
G3 X1.9029 I0.0 J-0.002
G2 X1.8538 Y0.0939 I-0.017 J0.2433
G3 X1.8537 I-0.0003 J-0.002
G2 X1.827 Y0.1008 I0.0062 J0.0792
G2 X1.8077 Y0.1167 I0.0314 J0.0577
G3 X1.8074 Y0.1169 I-0.0015 J-0.0013
G3 X1.7776 Y0.1369 I-0.1224 J-0.1509
G3 X1.7774 Y0.137 I-0.001 J-0.0018
G3 X1.776 Y0.1376 I-0.026 J-0.0604
G0 Z0.125
G0 X1.9053 Y0.1681
G0 Z0.0624
G1 F20.0 Z-0.0026
G2 F40.0 X1.905 Y0.171 I0.0103 J0.0024
G2 X1.9066 Y0.1769 I0.0127 J-0.0003
G1 X1.9067 Y0.177
G2 X1.911 Y0.1813 I0.0104 J-0.006
G2 X1.917 Y0.1829 I0.0061 J-0.0103
G2 X1.9231 Y0.1813 I-0.0001 J-0.0121
G2 X1.9274 Y0.177 I-0.0062 J-0.0105
G2 X1.929 Y0.1709 I-0.0099 J-0.006
G2 Y0.1708 I-0.002 J0.0
G2 X1.9275 Y0.165 I-0.0152 J0.001
G2 X1.9228 Y0.1604 I-0.0081 J0.0035
G2 X1.9226 Y0.1603 I-0.0008 J0.0018
G1 X1.9175 Y0.159
G2 X1.9172 Y0.1589 I-0.0005 J0.0019
G2 X1.9108 Y0.1606 I-0.0009 J0.0093
G2 X1.9106 Y0.1609 I0.0012 J0.0016
G1 X1.907 Y0.1644
G2 X1.9067 Y0.1648 I0.0014 J0.0014
G2 X1.9053 Y0.1681 I0.0088 J0.0057
G0 Z0.125
G0 X1.7599 Y0.5009
G0 Z0.0624
G1 F20.0 Z-0.0026
G1 F40.0 X1.7598
G2 X1.7595 Y0.5008 I-0.0008 J0.0018
G1 X1.7545 Y0.4994
G2 X1.7542 I-0.0005 J0.0019
G2 X1.7477 Y0.5011 I-0.0009 J0.0093
G2 X1.7475 Y0.5013 I0.0012 J0.0016
G1 X1.7439 Y0.5049
G2 X1.7436 Y0.5052 I0.0014 J0.0014
G2 X1.742 Y0.5114 I0.0088 J0.0057
G2 X1.7436 Y0.5174 I0.0127 J-0.0003
G2 X1.7479 Y0.5217 I0.0104 J-0.006
G2 X1.754 Y0.5234 I0.0061 J-0.0103
G2 X1.76 Y0.5217 I-0.0001 J-0.0121
G2 X1.7643 Y0.5174 I-0.0062 J-0.0105
G2 X1.766 Y0.5113 I-0.0099 J-0.006
G2 Y0.5112 I-0.002 J0.0
G2 X1.7644 Y0.5055 I-0.0152 J0.001
G2 X1.7599 Y0.5009 I-0.0081 J0.0035
G0 Z0.125
G0 X1.6875 Y0.5361
G0 Z0.0624
G1 F20.0 Z-0.0026
G3 F40.0 X1.6925 Y0.5471 I-0.2192 J0.1065
G1 X1.7296 Y0.6082
G1 X1.8099 Y0.6111
G1 X1.8913 Y0.6139
G3 X1.8933 Y0.6159 I-0.0001 J0.002
G1 X1.8961 Y0.7429
G1 X1.8989 Y0.8698
G3 X1.8984 Y0.8712 I-0.002 J0.0
G1 X1.8686 Y0.9051
G2 X1.8493 Y0.9314 I0.1827 J0.1545
G2 X1.8401 Y0.9603 I0.0629 J0.0359
G3 Y0.9605 I-0.002 J-0.0002
G2 X1.8362 Y1.0071 I0.1952 J0.0396
G3 Y1.0072 I-0.002 J0.0001
G1 X1.8332 Y1.0765
G3 X1.8313 Y1.0785 I-0.002 J-0.0001
G1 X1.7638 Y1.0814
G1 X1.7298 Y1.0842
G3 X1.7296 I-0.0002 J-0.002
G2 X1.706 Y1.0884 I0.0022 J0.0802
G3 X1.7057 Y1.0885 I-0.0006 J-0.0019
G2 X1.6977 Y1.0927 I0.003 J0.0153
G1 X1.6951 Y1.0985
G3 X1.695 Y1.0987 I-0.0018 J-0.0008
G3 X1.6874 Y1.1064 I-0.0188 J-0.011
G3 X1.6768 Y1.1133 I-0.0193 J-0.0178
G3 X1.6385 Y1.1153 I-0.0215 J-0.0456
G1 X1.6384
G3 X1.6121 Y1.0893 I0.0162 J-0.0427
G1 Y1.0892
G3 X1.6139 Y1.0511 I0.0469 J-0.017
G3 X1.6325 Y1.0303 I0.0394 J0.0166
G3 X1.6566 Y1.0246 I0.0208 J0.0341
G1 X1.6567 Y1.0247
G3 X1.683 Y1.0344 I-0.008 J0.0622
G1 X1.7013 Y1.042
G1 X1.7274 Y1.0474
G2 X1.7557 Y1.0494 I0.0258 J-0.1617
G1 X1.7558
G1 X1.8042
G1 Y0.9883
G3 X1.8041 Y0.9664 I0.2688 J-0.0123
G3 Y0.9663 I0.002 J0.0001
G1 X1.8059 Y0.9446
G1 Y0.9445
G3 X1.8146 Y0.918 I0.076 J0.0102
G3 X1.835 Y0.8947 I0.0649 J0.0362
G2 X1.8555 Y0.8709 I-0.0509 J-0.0645
G2 X1.8631 Y0.8348 I-0.0835 J-0.0364
G3 Y0.8346 I0.002 J0.0
G2 X1.8642 Y0.7543 I-0.5296 J-0.0476
G3 Y0.7542 I0.002 J-0.0001
G1 Y0.643
G1 X1.7928
G3 X1.7318 Y0.6396 I-0.0218 J-0.1596
G3 X1.7315 Y0.6395 I0.0005 J-0.0019
G3 X1.6945 Y0.614 I0.0374 J-0.0939
G3 X1.6493 Y0.5443 I0.1899 J-0.1726
G1 X1.612 Y0.4828
G1 X1.5194
G1 X1.4887 Y0.4831
G1 X1.4734 Y0.4835
G1 X1.4582 Y0.4842
G1 X1.4581
G2 X1.4257 Y0.4899 I0.0004 J0.0971
G2 X1.4072 Y0.5021 I0.0265 J0.0599
G3 X1.3955 Y0.5125 I-0.0295 J-0.0216
G3 X1.3844 Y0.5199 I-0.0284 J-0.0308
G3 X1.376 Y0.5228 I-0.0118 J-0.0202
G3 X1.3756 I-0.0003 J-0.002
G3 X1.3668 Y0.5197 I0.0008 J-0.0164
G1 X1.356 Y0.5126
G3 X1.3558 Y0.5124 I0.0011 J-0.0017
G1 X1.3443 Y0.5023
G3 X1.3442 Y0.5022 I0.0013 J-0.0015
G2 X1.3237 Y0.4867 I-0.0602 J0.0583
G1 X1.3236
G2 X1.3063 Y0.4837 I-0.0126 J0.022
G2 X1.2903 Y0.4929 I0.0176 J0.0494
G3 X1.2902 Y0.493 I-0.0013 J-0.0015
G3 X1.2773 Y0.4983 I-0.0176 J-0.0247
G1 X1.2772
G1 X1.2558 Y0.501
G3 X1.2555 I-0.0003 J-0.002
G1 X1.2294 Y0.5009
G3 X1.1965 Y0.4974 I-0.0027 J-0.1311
G3 X1.1817 Y0.4889 I0.0048 J-0.0253
G3 X1.1814 Y0.4884 I0.0015 J-0.0013
G3 X1.1785 Y0.4708 I0.0371 J-0.0152
G3 X1.1818 Y0.4525 I0.0333 J-0.0033
G3 X1.1824 Y0.4519 I0.0018 J0.0009
G3 X1.2034 Y0.4448 I0.0198 J0.0241
G3 X1.2556 Y0.4438 I0.0309 J0.2394
G1 X1.2974 Y0.442
G1 X1.2975
G2 X1.3315 Y0.4375 I0.0007 J-0.1234
G3 X1.3317 Y0.4374 I0.0005 J0.0019
G2 X1.3529 Y0.4307 I-0.0235 J-0.1118
G3 X1.3697 Y0.4233 I0.0392 J0.0661
G3 X1.37 I0.0006 J0.0019
G3 X1.3846 Y0.424 I0.0055 J0.0356
G3 X1.3851 Y0.4242 I-0.0005 J0.0019
G1 X1.402 Y0.4333
G1 X1.4021
G2 X1.4249 Y0.4423 I0.0402 J-0.0685
G1 X1.4638 Y0.4473
G2 X1.5238 Y0.4488 I0.0462 J-0.6491
G3 X1.6037 Y0.4515 I0.031 J0.2624
G3 X1.6039 Y0.4516 I-0.0004 J0.002
G3 X1.6465 Y0.4763 I-0.0303 J0.1008
G3 Y0.4764 I-0.0014 J0.0014
G3 X1.6875 Y0.5361 I-0.1783 J0.1662
G0 Z0.125
G0 X1.604 Y0.5538
G0 Z0.0624
G1 F20.0 Z-0.0026
G3 F40.0 X1.608 Y0.5973 I-0.1796 J0.0381
G1 X1.6093 Y0.6245
G2 X1.6128 Y0.6449 I0.0773 J-0.0026
G1 X1.6178 Y0.6551
G1 X1.6278 Y0.6769
G3 X1.628 Y0.6774 I-0.0018 J0.0008
G3 X1.6227 Y0.7113 I-0.0541 J0.0088
G3 X1.6226 Y0.7114 I-0.0018 J-0.0009
G3 X1.6045 Y0.7404 I-0.5301 J-0.3101
G3 X1.604 Y0.7409 I-0.0017 J-0.0011
G3 X1.5741 Y0.7581 I-0.0885 J-0.1193
G3 X1.5413 Y0.7628 I-0.0246 J-0.055
G3 X1.5412 I0.0003 J-0.002
G3 X1.5196 Y0.7527 I0.0102 J-0.0497
G3 X1.5193 Y0.7524 I0.0013 J-0.0016
G2 X1.5131 Y0.7479 I-0.0111 J0.009
G3 X1.5128 Y0.7478 I0.0007 J-0.0019
G2 X1.5011 Y0.7445 I-0.0124 J0.0212
G3 X1.501 Y0.7444 I0.0001 J-0.002
G1 X1.4857 Y0.7431
G2 X1.4709 Y0.7444 I-0.0021 J0.0605
G1 X1.4587 Y0.7479
G1 X1.452 Y0.7527
G3 X1.4318 Y0.7619 I-0.0316 J-0.0429
G3 X1.4011 Y0.7613 I-0.0142 J-0.0679
G1 X1.401
G3 X1.3775 Y0.7516 I0.027 J-0.0987
G2 X1.3686 Y0.7473 I-0.0374 J0.0651
G2 X1.357 Y0.7502 I0.0005 J0.0266
G1 X1.3385 Y0.7616
G3 X1.3113 Y0.7756 I-0.0757 J-0.1133
G1 X1.3112
G3 X1.2689 Y0.7818 I-0.0376 J-0.1091
G1 X1.1915 Y0.7831
G1 X1.0774
G1 Y1.1452
G1 X1.075 Y1.2705
G1 Y1.3332
G2 X1.0764 Y1.3957 I2.6242 J-0.0281
G3 X1.071 Y1.5008 I-0.398 J0.0322
G3 Y1.5009 I-0.002 J-0.0004
G3 X1.0571 Y1.5356 I-0.1558 J-0.0422
G3 X1.0569 Y1.5359 I-0.0018 J-0.001
G2 X1.0465 Y1.5539 I0.0582 J0.0458
G1 X1.0397 Y1.5763
G2 X1.0373 Y1.6009 I0.2947 J0.0407
G3 Y1.601 I-0.002 J-0.0001
G2 X1.0395 Y1.6274 I0.0666 J0.0077
G3 Y1.6275 I-0.0019 J0.0006
G2 X1.0481 Y1.6455 I0.0445 J-0.0102
G3 X1.0482 Y1.6456 I-0.0016 J0.0012
G2 X1.0663 Y1.6619 I0.0433 J-0.0297
G3 X1.0665 Y1.6621 I-0.001 J0.0018
G2 X1.0843 Y1.6733 I0.071 J-0.093
G3 X1.0845 Y1.6734 I-0.0009 J0.0018
G2 X1.1024 Y1.6816 I0.0318 J-0.0454
G1 X1.1174 Y1.6855
G3 X1.1394 Y1.6944 I-0.0299 J0.1052
G1 Y1.6945
G3 X1.159 Y1.7132 I-0.0265 J0.0472
G3 X1.1675 Y1.7339 I-0.0304 J0.0245
G3 X1.1674 Y1.7345 I-0.002 J0.0002
G3 X1.1555 Y1.7552 I-0.0361 J-0.0069
G3 X1.1315 Y1.7746 I-0.0711 J-0.0636
G3 X1.1104 Y1.7806 I-0.0228 J-0.0401
G3 X1.1098 Y1.7805 I-0.0001 J-0.002
G2 X1.1023 Y1.7797 I-0.0056 J0.0176
G3 X1.1021 I-0.0002 J-0.002
G2 X1.0947 Y1.782 I0.0001 J0.0135
G1 X1.0878 Y1.7875
G2 X1.0801 Y1.8118 I0.0275 J0.022
G3 Y1.8121 I-0.002 J0.0001
G2 X1.082 Y1.8384 I0.0889 J0.0068
G3 X1.0821 Y1.8387 I-0.002 J0.0004
G3 X1.0769 Y1.9769 I-0.7315 J0.0419
G2 X1.0731 Y2.1934 I2.9953 J0.1607
G1 Y2.1935
G1 X1.0696 Y2.4108
G1 X1.0676 Y2.506
G1 X1.0651 Y2.6011
G3 X1.0604 Y2.7234 I-1.6796 J-0.0033
G1 X1.0523 Y2.8586
G3 X1.0503 Y2.8604 I-0.002 J-0.0001
G1 X0.72
G1 X0.3897
G3 X0.3881 Y2.8596 I0.0 J-0.002
G1 X0.3383 Y2.792
G1 X0.2891 Y2.7253
G1 X0.2223
G1 X0.1882 Y2.7266
G2 X0.1642 Y2.73 I0.023 J0.2478
G2 X0.1558 Y2.7344 I0.0121 J0.0335
G1 X0.1458 Y2.7485
G3 X0.1455 Y2.7489 I-0.0016 J-0.0012
G3 X0.1222 Y2.7592 I-0.0294 J-0.0349
G3 X0.0993 Y2.7591 I-0.0111 J-0.0595
G3 X0.0991 Y2.759 I0.0004 J-0.002
G3 X0.0793 Y2.7439 I0.0137 J-0.0384
G3 X0.068 Y2.7212 I0.0413 J-0.0348
G3 X0.0686 Y2.6981 I0.0415 J-0.0105
G3 X0.0863 Y2.6748 I0.0429 J0.0143
G1 X0.0864 Y2.6747
G3 X0.1123 Y2.6668 I0.0273 J0.0428
G3 X0.1125 I0.0001 J0.002
G3 X0.1406 Y2.6757 I-0.0056 J0.066
G2 X0.1615 Y2.6844 I0.1445 J-0.3194
G2 X0.1922 Y2.6895 I0.029 J-0.0793
G3 X0.1926 I0.0 J0.002
G2 X0.2132 Y2.6907 I0.0149 J-0.0829
G3 X0.2135 I0.0001 J0.002
G2 X0.2342 Y2.6913 I0.0148 J-0.1602
G1 Y2.6912
G1 X0.3048
G3 X0.3064 Y2.6921 I0.0 J0.002
G1 X0.3576 Y2.7621
G1 X0.4081 Y2.8314
G1 X0.7156
G1 X1.0223
G1 X1.028 Y2.7057
G1 X1.0316 Y2.6143
G2 X1.0356 Y2.4974 I-25.8865 J-0.9325
G2 X1.039 Y2.3803 I-25.5002 J-0.8001
G1 X1.0441 Y2.1847
G1 X1.0228
G1 X1.0097 Y2.1861
G3 X1.0096 I-0.0002 J-0.002
G2 X0.9983 Y2.1897 I0.0014 J0.0244
G1 X0.9897 Y2.195
G3 X0.9896 Y2.1951 I-0.0011 J-0.0017
G3 X0.9772 Y2.2001 I-0.029 J-0.0533
G3 X0.9769 Y2.2002 I-0.0005 J-0.0019
G1 X0.9555 Y2.2029
G3 X0.9289 Y2.2028 I-0.013 J-0.0772
G3 X0.8961 Y2.1993 I-0.0031 J-0.1259
G3 X0.8814 Y2.1908 I0.0048 J-0.0254
G3 X0.881 Y2.1902 I0.0015 J-0.0013
G3 X0.8781 Y2.1728 I0.0402 J-0.0156
G3 X0.8816 Y2.1542 I0.0284 J-0.0043
G3 X0.8822 Y2.1536 I0.0017 J0.001
G3 X0.9049 Y2.1473 I0.0209 J0.0313
G1 X0.9338 Y2.1469
G1 X0.9339
G1 X0.9628 Y2.1479
G1 X1.0433 Y2.15
G1 Y1.9692
G1 Y1.9691
G1 X1.044 Y1.9152
G1 X1.0446 Y1.8614
G3 X1.0486 Y1.7986 I0.4621 J-0.0019
G3 Y1.7984 I0.002 J0.0003
G3 X1.056 Y1.7731 I0.2137 J0.0481
G3 X1.0562 Y1.7726 I0.0019 J0.0007
G2 X1.0691 Y1.7451 I-0.0723 J-0.0507
G2 X1.0624 Y1.7129 I-0.0571 J-0.0049
G2 X1.0369 Y1.6805 I-0.1539 J0.0946
G3 X1.0152 Y1.6581 I0.2451 J-0.2607
G3 X1.015 Y1.658 I0.0015 J-0.0013
G3 X1.0053 Y1.634 I0.0427 J-0.0313
G3 X1.0033 Y1.5975 I0.1673 J-0.0277
G3 X1.0051 Y1.5644 I0.1694 J-0.0072
G3 X1.0116 Y1.5415 I0.0518 J0.0024
G3 X1.0118 Y1.5413 I0.0017 J0.001
G1 X1.0237 Y1.5257
G3 X1.0239 Y1.5256 I0.0016 J0.0012
G2 X1.0368 Y1.5052 I-0.0477 J-0.0448
G2 X1.0423 Y1.4559 I-0.1086 J-0.0369
G3 X1.0422 Y1.4557 I0.002 J-0.0002
G1 Y1.4004
G1 X1.0433 Y1.3452
G1 Y1.1836
G1 X1.0224
G1 X1.0095 Y1.185
G1 X1.0094
G2 X0.9982 Y1.1885 I0.0015 J0.0243
G1 X0.9897 Y1.1939
G3 X0.9896 I-0.0011 J-0.0017
G3 X0.9772 Y1.199 I-0.0296 J-0.0547
G3 X0.9769 Y1.1991 I-0.0006 J-0.0019
G1 X0.9555 Y1.2018
G3 X0.929 Y1.2017 I-0.013 J-0.0775
G3 X0.8961 Y1.1982 I-0.0031 J-0.1257
G3 X0.8814 Y1.1897 I0.0048 J-0.0254
G3 X0.881 Y1.1891 I0.0015 J-0.0013
G3 X0.8781 Y1.1717 I0.0402 J-0.0156
G3 X0.8816 Y1.1531 I0.0284 J-0.0043
G3 X0.8822 Y1.1524 I0.0017 J0.001
G3 X0.9049 Y1.1462 I0.0209 J0.0313
G1 X0.9338 Y1.1458
G1 X0.9339
G1 X0.9628 Y1.1467
G1 X1.0433 Y1.1489
G1 Y0.9412
G1 Y0.7326
G1 X1.0182 Y0.7162
G1 Y0.7161
G2 X0.9986 Y0.7071 I-0.0347 J0.0494
G1 X0.9727 Y0.7023
G2 X0.9405 Y0.7019 I-0.0178 J0.1311
G3 X0.9403 I-0.0002 J-0.002
G1 X0.9125 Y0.7017
G1 X0.9124
G3 X0.8907 Y0.6987 I0.0056 J-0.1208
G3 X0.8902 Y0.6986 I0.0005 J-0.0019
G1 X0.8797 Y0.6935
G3 X0.8795 Y0.6934 I0.0009 J-0.0018
G1 X0.8636 Y0.6838
G2 X0.8456 Y0.6853 I-0.007 J0.0245
G2 X0.8371 Y0.6959 I0.0077 J0.015
G2 X0.8382 Y0.7026 I0.0104 J0.0017
G3 X0.8384 Y0.703 I-0.0018 J0.001
G2 X0.8416 Y0.7097 I0.0204 J-0.0057
G1 X0.8465 Y0.7146
G3 X0.8469 Y0.7151 I-0.0014 J0.0014
G1 X0.8519 Y0.7243
G3 X0.852 Y0.7246 I-0.0018 J0.001
G3 X0.8557 Y0.743 I-0.0692 J0.0234
G3 X0.8571 Y0.7663 I-0.0977 J0.0175
G3 X0.8553 Y0.7939 I-0.0938 J0.0077
G3 X0.849 Y0.8117 I-0.0409 J-0.0045
G3 X0.8488 Y0.8119 I-0.0017 J-0.0011
G3 X0.8369 Y0.8225 I-0.0439 J-0.0376
G3 X0.8175 Y0.8315 I-0.0304 J-0.0401
G3 X0.8043 Y0.8299 I-0.004 J-0.0219
G3 X0.8041 Y0.8298 I0.0008 J-0.0018
G3 X0.7892 Y0.8167 I0.028 J-0.0468
G3 X0.7756 Y0.7927 I0.0533 J-0.046
G3 Y0.7925 I0.0019 J-0.0006
G3 X0.7753 Y0.762 I0.0813 J-0.0159
G3 X0.7883 Y0.7265 I0.1055 J0.0185
G1 X0.7958 Y0.7097
G3 X0.7959 Y0.7095 I0.0018 J0.0008
G2 X0.801 Y0.6934 I-0.0357 J-0.0202
G3 X0.8011 Y0.693 I0.002 J0.0002
G2 X0.8031 Y0.6804 I-0.0463 J-0.0137
G3 X0.808 Y0.661 I0.0517 J0.0028
G3 X0.8084 Y0.6604 I0.0018 J0.0009
G3 X0.835 Y0.6503 I0.0262 J0.0287
G1 X0.8976 Y0.6432
G1 X0.9741 Y0.6363
G3 X0.9756 Y0.6368 I0.0002 J0.002
G1 X1.0261 Y0.6791
G1 X1.0262
G1 X1.0516 Y0.7023
G3 X1.0701 Y0.7231 I-0.048 J0.0616
G3 X1.0702 Y0.7232 I-0.0017 J0.001
G1 X1.0771 Y0.7361
G2 X1.0852 Y0.7438 I0.0163 J-0.0089
G2 X1.1177 Y0.748 I0.0244 J-0.0623
G3 X1.1179 Y0.7479 I0.0002 J0.002
G3 X1.1859 Y0.7491 I0.024 J0.5917
G1 X1.2348 Y0.7486
G2 X1.2833 Y0.7441 I0.0005 J-0.2587
G3 X1.2837 I0.0004 J0.002
G2 X1.3309 Y0.7263 I-0.0012 J-0.0748
G2 X1.3437 Y0.6904 I-0.0698 J-0.045
G1 Y0.6903
G3 X1.3568 Y0.6541 I0.0977 J0.0149
G3 X1.3569 Y0.654 I0.0017 J0.001
G3 X1.3883 Y0.6285 I0.0616 J0.0438
G3 X1.4259 Y0.6239 I0.0267 J0.0619
G3 X1.4545 Y0.6315 I-0.0249 J0.151
G1 X1.4683 Y0.6352
G1 X1.4828 Y0.6368
G2 X1.5015 Y0.6319 I0.003 J-0.0272
G2 X1.5039 Y0.6048 I-0.0376 J-0.0169
G3 X1.5038 Y0.6044 I0.0019 J-0.0005
G3 X1.5111 Y0.5609 I0.0944 J-0.0066
G3 X1.5306 Y0.5306 I0.0854 J0.0335
G3 X1.5308 Y0.5304 I0.0014 J0.0014
G3 X1.5593 Y0.5188 I0.0336 J0.0419
G3 X1.5881 Y0.5264 I0.0049 J0.0404
G3 X1.5883 Y0.5265 I-0.0012 J0.0016
G3 X1.6035 Y0.5516 I-0.0347 J0.0383
G1 X1.6036 Y0.5517
G3 X1.604 Y0.5538 I-0.1791 J0.0403
G0 Z0.125
G0 X1.7151 Y0.6969
G0 Z0.0624
G1 F20.0 Z-0.0026
G3 F40.0 X1.7272 Y0.6895 I0.039 J0.0502
G1 X1.7429 Y0.6821
G3 X1.7433 Y0.6819 I0.0009 J0.0018
G1 X1.7557 Y0.6791
G3 X1.756 Y0.679 I0.0004 J0.0019
G3 X1.7692 Y0.682 I0.0011 J0.0257
G3 X1.7853 Y0.6897 I-0.0116 J0.045
G1 X1.8009 Y0.7001
G3 X1.8011 Y0.7003 I-0.0011 J0.0017
G3 X1.8239 Y0.7308 I-0.0577 J0.0667
G1 Y0.7309
G3 X1.8264 Y0.7661 I-0.0533 J0.0215
G3 Y0.7663 I-0.0019 J-0.0005
G3 X1.808 Y0.7972 I-0.0801 J-0.0267
G3 X1.8077 Y0.7974 I-0.0015 J-0.0014
G2 X1.7974 Y0.8091 I0.0277 J0.0349
G2 X1.7946 Y0.8191 I0.0203 J0.0112
G1 X1.7983 Y0.831
G3 X1.8037 Y0.8542 I-0.0502 J0.0239
G3 Y0.8544 I-0.002 J0.0
G3 X1.7961 Y0.8763 I-0.0493 J-0.0049
G3 X1.7765 Y0.8933 I-0.0375 J-0.0233
G3 X1.7387 Y0.895 I-0.0211 J-0.0479
G3 X1.7386 I0.0006 J-0.0019
G3 X1.7123 Y0.8692 I0.0185 J-0.0451
G3 X1.7122 Y0.8691 I0.0018 J-0.0008
G3 X1.7136 Y0.8316 I0.0471 J-0.0171
G3 X1.7137 Y0.8313 I0.0018 J0.0008
G2 X1.7177 Y0.8195 I-0.0205 J-0.0135
G1 Y0.8194
G2 X1.7151 Y0.8095 I-0.0157 J-0.0013
G1 X1.7043 Y0.7972
G3 X1.6859 Y0.7662 I0.0576 J-0.0552
G3 X1.6858 Y0.7661 I0.0019 J-0.0006
G3 X1.6883 Y0.7309 I0.0588 J-0.0135
G3 X1.7111 Y0.7002 I0.0686 J0.0272
G3 X1.7151 Y0.6969 I0.0429 J0.0469
G0 Z0.125
G0 X1.5445 Y0.9339
G0 Z0.0624
G1 F20.0 Z-0.0026
G3 F40.0 X1.557 Y0.9479 I-0.0255 J0.0355
G3 X1.5626 Y0.9721 I-0.0358 J0.0209
G3 Y0.9722 I-0.002 J-0.0002
G3 X1.5524 Y0.9991 I-0.0665 J-0.0098
G2 X1.5432 Y1.0158 I0.123 J0.0789
G2 Y1.0274 I0.0231 J0.0059
G2 X1.5519 Y1.0425 I0.0395 J-0.0128
G3 X1.5654 Y1.0656 I-0.0338 J0.0352
G1 Y1.0657
G3 X1.5641 Y1.0829 I-0.0295 J0.0063
G3 X1.564 Y1.083 I-0.0019 J-0.0007
G3 X1.5473 Y1.1029 I-0.0456 J-0.0213
G3 X1.5356 Y1.1132 I-0.0318 J-0.0245
G3 X1.5246 Y1.1205 I-0.0269 J-0.0285
G3 X1.5161 Y1.1235 I-0.0119 J-0.0205
G3 X1.5158 I-0.0003 J-0.002
G3 X1.5069 Y1.1204 I0.0008 J-0.0164
G1 X1.4962 Y1.1132
G3 X1.496 Y1.1131 I0.0011 J-0.0017
G1 X1.4845 Y1.103
G3 X1.4843 Y1.1028 I0.0013 J-0.0015
G2 X1.4721 Y1.0932 I-0.0351 J0.032
G1 X1.4578 Y1.086
G2 X1.4458 Y1.0835 I-0.0131 J0.032
G2 X1.4337 Y1.0861 I0.0015 J0.0364
G3 X1.4334 I-0.0007 J-0.0019
G2 X1.4198 Y1.093 I0.009 J0.0351
G1 X1.4072 Y1.1029
G3 X1.3955 Y1.1132 I-0.0329 J-0.0257
G3 X1.3844 Y1.1205 I-0.027 J-0.0286
G3 X1.376 Y1.1235 I-0.0119 J-0.0206
G3 X1.3756 I-0.0003 J-0.002
G3 X1.3668 Y1.1204 I0.0008 J-0.0163
G1 X1.356 Y1.1132
G3 X1.3558 Y1.1131 I0.0011 J-0.0017
G1 X1.3443 Y1.103
G3 X1.3442 Y1.1029 I0.0013 J-0.0015
G2 X1.3237 Y1.0874 I-0.0602 J0.0584
G1 X1.3236 Y1.0873
G2 X1.3063 Y1.0844 I-0.0126 J0.022
G2 X1.2903 Y1.0936 I0.0176 J0.0495
G3 X1.2902 Y1.0937 I-0.0013 J-0.0015
G3 X1.2773 Y1.099 I-0.0176 J-0.0247
G1 X1.2772
G1 X1.2558 Y1.1017
G3 X1.2555 I-0.0003 J-0.002
G1 X1.2294 Y1.1016
G3 X1.1965 Y1.0981 I-0.0027 J-0.1312
G3 X1.1817 Y1.0896 I0.0048 J-0.0253
G3 X1.1814 Y1.089 I0.0015 J-0.0013
G3 X1.1785 Y1.0715 I0.0371 J-0.0152
G3 X1.1818 Y1.0532 I0.0333 J-0.0033
G3 X1.1824 Y1.0525 I0.0018 J0.0009
G3 X1.2034 Y1.0455 I0.0198 J0.0241
G3 X1.2556 Y1.0444 I0.0309 J0.2392
G1 X1.2974 Y1.0427
G1 X1.2975
G2 X1.3315 Y1.0381 I0.0008 J-0.1224
G3 X1.3317 I0.0005 J0.0019
G2 X1.3529 Y1.0314 I-0.0256 J-0.1184
G3 X1.3697 Y1.024 I0.0357 J0.058
G3 X1.37 Y1.0239 I0.0006 J0.0019
G3 X1.3846 Y1.0247 I0.0052 J0.0396
G3 X1.3847 I-0.0005 J0.0019
G3 X1.4022 Y1.0341 I-0.0162 J0.0513
G2 X1.4331 Y1.047 I0.0479 J-0.0712
G3 X1.4332 I-0.0004 J0.002
G2 X1.4627 Y1.0475 I0.0157 J-0.0604
G2 X1.4838 Y1.0358 I-0.0073 J-0.0377
G2 X1.4892 Y1.0257 I-0.0227 J-0.0187
G2 X1.488 Y1.0151 I-0.0151 J-0.0037
G1 X1.479 Y0.9987
G3 X1.4716 Y0.9567 I0.0514 J-0.0308
G3 Y0.9566 I0.002 J0.0004
G3 X1.4956 Y0.9273 I0.0433 J0.011
G1 X1.4957
G3 X1.5363 Y0.9292 I0.0182 J0.0434
G3 X1.5445 Y0.9339 I-0.0173 J0.0401
G0 Z0.125
G0 X1.401 Y0.8695
G0 Z0.0624
G1 F20.0 Z-0.0026
G3 F40.0 X1.4009 Y0.8697 I-0.059 J-0.0265
G3 X1.3846 Y0.889 I-0.0481 J-0.0242
G3 X1.3596 Y0.8976 I-0.0255 J-0.0335
G3 X1.3595 I0.0 J-0.002
G3 X1.3345 Y0.8929 I0.0036 J-0.087
G3 X1.3343 Y0.8928 I0.0007 J-0.0019
G2 X1.3199 Y0.8877 I-0.0276 J0.0551
G2 X1.305 Y0.8883 I-0.0059 J0.037
G1 X1.2858 Y0.895
G1 X1.2857
G2 X1.2626 Y0.9124 I0.0149 J0.0438
G2 X1.2595 Y0.9301 I0.0206 J0.0128
G2 X1.2769 Y0.9425 I0.0256 J-0.0178
G3 X1.2893 Y0.9482 I-0.0096 J0.0367
G3 X1.2897 Y0.9487 I-0.0012 J0.0016
G3 X1.2955 Y0.9583 I-0.0405 J0.0313
G3 X1.2957 Y0.9587 I-0.0018 J0.0008
G3 X1.2959 Y0.9733 I-0.0402 J0.0078
G3 X1.2902 Y0.9897 I-0.0293 J-0.0011
G3 X1.2898 Y0.9901 I-0.0016 J-0.0012
G3 X1.2724 Y0.997 I-0.0193 J-0.023
G3 X1.2356 Y0.9984 I-0.0374 J-0.5216
G3 X1.1987 Y0.997 I-0.0122 J-0.1743
G3 X1.1813 Y0.9901 I0.0019 J-0.03
G3 X1.1809 Y0.9896 I0.0013 J-0.0015
G3 X1.1752 Y0.9734 I0.0277 J-0.0188
G3 X1.1754 Y0.9587 I0.0315 J-0.0069
G3 X1.1818 Y0.9483 I0.0171 J0.0034
G3 X1.1942 Y0.9425 I0.0216 J0.0302
G3 X1.1944 Y0.9424 I0.0005 J0.0019
G2 X1.2038 Y0.9378 I-0.003 J-0.0179
G1 X1.2111 Y0.9297
G2 X1.2135 Y0.9216 I-0.0094 J-0.0072
G1 X1.2108 Y0.9123
G2 X1.2042 Y0.9051 I-0.0151 J0.0071
G1 X1.194 Y0.9
G3 X1.1818 Y0.8943 I0.0099 J-0.037
G3 X1.1815 Y0.894 I0.0012 J-0.0016
G3 X1.1755 Y0.8842 I0.0244 J-0.0216
G3 X1.1754 Y0.8839 I0.0019 J-0.0007
G3 X1.1752 Y0.8692 I0.0329 J-0.0078
G3 X1.1813 Y0.8527 I0.0274 J0.0008
G3 X1.1815 Y0.8525 I0.0016 J0.0013
G3 X1.2002 Y0.8446 I0.0202 J0.0216
G3 X1.2396 Y0.8411 I0.0309 J0.1276
G1 X1.2752 Y0.8373
G1 X1.2753
G2 X1.3024 Y0.8301 I-0.0065 J-0.0785
G1 X1.3224 Y0.819
G3 X1.3471 Y0.8026 I0.0587 J0.0616
G3 X1.3474 Y0.8025 I0.0008 J0.0018
G3 X1.366 Y0.8027 I0.009 J0.0317
G3 X1.3663 Y0.8028 I-0.0006 J0.0019
G3 X1.3871 Y0.8197 I-0.0264 J0.0536
G3 X1.402 Y0.8368 I-0.0348 J0.0453
G3 X1.4061 Y0.8515 I-0.0194 J0.0133
G3 X1.406 Y0.8517 I-0.002 J-0.0001
G3 X1.401 Y0.8695 I-0.0641 J-0.0086
G0 Z0.125
G0 X1.2904 Y0.6956
G0 Z0.0624
G1 F20.0 Z-0.0026
G3 F40.0 X1.2903 Y0.6957 I-0.0011 J-0.0017
G3 X1.2801 Y0.6995 I-0.0171 J-0.0304
G3 X1.28 I-0.0004 J-0.002
G1 X1.2615 Y0.702
G3 X1.2378 Y0.703 I-0.0164 J-0.1078
G3 X1.2082 Y0.7007 I-0.0033 J-0.1478
G3 X1.1855 Y0.692 I0.0074 J-0.0533
G3 X1.1646 Y0.6748 I0.0328 J-0.0611
G2 X1.1449 Y0.6576 I-0.082 J0.0742
G1 X1.1448 Y0.6575
G1 X1.1182 Y0.6379
G2 X1.0911 Y0.6206 I-0.254 J0.3674
G1 X1.0443 Y0.5934
G3 X1.0433 Y0.5917 I0.001 J-0.0017
G1 Y0.5019
G3 X1.0434 Y0.5014 I0.002 J0.0
G2 X1.0396 Y0.4295 I-0.1188 J-0.0297
G2 X1.0133 Y0.4031 I-0.0572 J0.0307
G2 X0.9406 Y0.3984 I-0.0449 J0.1303
G3 X0.9404 I-0.0004 J-0.002
G3 X0.899 Y0.3967 I-0.0136 J-0.1742
G3 X0.8817 Y0.3893 I0.0029 J-0.0305
G3 X0.8813 Y0.3888 I0.0013 J-0.0015
G3 X0.8781 Y0.3706 I0.0245 J-0.0136
G3 X0.881 Y0.3531 I0.031 J-0.0039
G3 X0.8813 Y0.3527 I0.0018 J0.0009
G3 X0.8954 Y0.3441 I0.0195 J0.0162
G3 X0.8955 I0.0004 J0.002
G3 X0.9262 Y0.3407 I0.0714 J0.4971
G3 X0.9263 Y0.3406 I0.0002 J0.002
G3 X0.9587 Y0.3413 I0.0064 J0.5217
G3 X0.959 I-0.0001 J0.002
G3 X0.9885 Y0.3493 I-0.0265 J0.1567
G3 X0.9887 Y0.3494 I-0.0007 J0.0019
G1 X1.0224 Y0.3666
G3 X1.0225 I-0.0009 J0.0018
G1 X1.0714 Y0.3953
G3 X1.0724 Y0.397 I-0.001 J0.0017
G1 X1.0752 Y0.4875
G1 X1.078 Y0.5769
G1 X1.1293 Y0.6053
G2 X1.1636 Y0.6213 I0.1039 J-0.1783
G1 X1.2002 Y0.6329
G2 X1.2357 Y0.639 I0.2553 J-1.3777
G3 X1.2708 Y0.6437 I0.0016 J0.1211
G3 X1.2889 Y0.6516 I-0.0057 J0.0373
G3 X1.2891 Y0.6519 I-0.0013 J0.0016
G3 X1.2955 Y0.6661 I-0.0215 J0.0182
G3 X1.296 Y0.6777 I-0.0362 J0.0075
G3 X1.2944 Y0.6884 I-0.0207 J0.0022
G1 X1.2943 Y0.6885
G1 X1.2911 Y0.6948
G3 X1.2904 Y0.6956 I-0.0018 J-0.0009
G0 Z0.125
G0 X1.2704 Y0.6011
G0 Z0.0624
G1 F20.0 Z-0.0026
G3 F40.0 X1.2562 Y0.6035 I-0.0367 J-0.1733
G1 X1.2561
G3 X1.207 Y0.6002 I-0.0139 J-0.1592
G3 X1.178 Y0.5879 I0.0029 J-0.0475
G3 X1.1701 Y0.5775 I0.0179 J-0.0216
G1 X1.1562 Y0.5653
G2 X1.1387 Y0.5535 I-0.0535 J0.0602
G3 X1.1385 Y0.5534 I0.0009 J-0.0018
G1 X1.1044 Y0.5332
G3 X1.1034 Y0.5315 I0.001 J-0.0017
G1 Y0.4283
G1 Y0.3251
G3 X1.104 Y0.3237 I0.002 J0.0
G1 X1.1495 Y0.2809
G3 X1.1828 Y0.2521 I0.1384 J0.1266
G3 X1.1829 I0.0011 J0.0017
G3 X1.209 Y0.2409 I0.0546 J0.091
G3 X1.2091 Y0.2408 I0.0005 J0.0019
G3 X1.2437 Y0.2405 I0.0181 J0.0892
G3 X1.2752 Y0.244 I0.0031 J0.1153
G3 X1.2894 Y0.2524 I-0.0076 J0.0287
G3 X1.2897 Y0.2529 I-0.0015 J0.0014
G3 X1.2926 Y0.2706 I-0.0266 J0.0135
G3 X1.2892 Y0.2887 I-0.0301 J0.0037
G3 X1.2889 Y0.2891 I-0.0018 J-0.0009
G3 X1.2711 Y0.2979 I-0.0212 J-0.0205
G3 X1.2296 Y0.3026 I-0.0512 J-0.2669
G3 X1.2293 I-0.0001 J-0.002
G2 X1.1668 Y0.3134 I-0.0128 J0.1123
G2 X1.1421 Y0.3463 I0.0355 J0.0524
G2 X1.1374 Y0.4257 I0.2305 J0.0533
G3 Y0.4262 I-0.002 J0.0002
G2 X1.1405 Y0.5002 I0.1836 J0.0293
G2 X1.1639 Y0.5283 I0.054 J-0.0212
G2 X1.2303 Y0.5381 I0.0521 J-0.123
G3 X1.2308 I0.0002 J0.002
G1 X1.269 Y0.5432
G3 X1.2886 Y0.5514 I-0.0041 J0.0375
G3 X1.2888 Y0.5516 I-0.0013 J0.0016
G3 X1.2955 Y0.566 I-0.0211 J0.0185
G3 X1.296 Y0.5776 I-0.0375 J0.0076
G3 X1.2944 Y0.5883 I-0.0206 J0.0023
G1 X1.2943
G1 X1.2911 Y0.5947
G3 X1.29 Y0.5957 I-0.0018 J-0.0009
G3 X1.2704 Y0.6011 I-0.0562 J-0.168
G0 Z0.125
G0 X0.9958 Y0.5813
G0 Z0.0624
G1 F20.0 Z-0.0026
G3 F40.0 X0.994 Y0.5883 I-0.0206 J-0.0015
G1 X0.9908 Y0.5947
G3 X0.99 Y0.5956 I-0.0018 J-0.0009
G3 X0.9792 Y0.5994 I-0.0176 J-0.0327
G3 X0.9791 I-0.0004 J-0.002
G1 X0.9594 Y0.6019
G3 X0.9337 Y0.6029 I-0.0157 J-0.0727
G1 X0.9047 Y0.6013
G3 X0.8854 Y0.5954 I0.0 J-0.0343
G1 Y0.5953
G3 X0.875 Y0.5847 I0.0259 J-0.0359
G1 X0.8601 Y0.5703
G1 X0.8295 Y0.5488
G2 X0.7902 Y0.5251 I-0.1535 J0.2107
G3 X0.7901 I0.0009 J-0.0018
G1 X0.7144 Y0.4828
G1 X0.5798
G1 X0.5347 Y0.4834
G1 X0.5346
G1 X0.4895 Y0.484
G3 X0.4893 I0.0 J-0.002
G2 X0.4465 Y0.4895 I-0.0084 J0.1038
G2 X0.4261 Y0.5022 I0.0192 J0.0535
G3 X0.4143 Y0.5126 I-0.0365 J-0.0296
G1 X0.4035 Y0.5198
G3 X0.3948 Y0.5228 I-0.0106 J-0.0161
G3 X0.3945 I-0.0002 J-0.002
G3 X0.3717 Y0.511 I0.0022 J-0.032
G3 X0.3522 Y0.4864 I0.0433 J-0.0544
G3 X0.347 Y0.4635 I0.0393 J-0.0208
G3 X0.3471 Y0.463 I0.002 J0.0001
G2 X0.348 Y0.4537 I-0.0233 J-0.0068
G1 X0.3446 Y0.4422
G2 X0.3379 Y0.4319 I-0.0486 J0.0243
G3 X0.3378 Y0.4318 I0.0015 J-0.0013
G3 X0.3281 Y0.4105 I0.064 J-0.0421
G3 X0.3242 Y0.366 I0.1191 J-0.0328
G1 X0.3247 Y0.2844
G1 X0.3275 Y0.1554
G3 X0.3295 Y0.1534 I0.002 J0.0
G1 X0.428 Y0.1506
G1 X0.4281
G2 X0.4859 Y0.1473 I0.0059 J-0.4117
G3 X0.486 I0.0003 J0.002
G2 X0.5257 Y0.1414 I-0.0182 J-0.2579
G1 X0.5493 Y0.1325
G3 X0.5897 Y0.126 I0.0313 J0.0665
G3 X0.59 Y0.1261 I-0.0002 J0.002
G3 X0.6187 Y0.1507 I-0.012 J0.0431
G3 X0.6169 Y0.1909 I-0.0428 J0.0182
G3 X0.6094 Y0.2014 I-0.0329 J-0.0155
G1 X0.6002 Y0.2102
G3 X0.5998 Y0.2104 I-0.0014 J-0.0015
G1 X0.5904 Y0.216
G3 X0.5899 Y0.2162 I-0.001 J-0.0017
G3 X0.5668 Y0.2163 I-0.0118 J-0.0408
G3 X0.5437 Y0.2061 I0.0065 J-0.046
G3 X0.5431 Y0.2054 I0.0013 J-0.0015
G2 X0.5334 Y0.1916 I-0.051 J0.0256
G2 X0.5227 Y0.1872 I-0.0118 J0.0136
G3 X0.5222 Y0.1871 I0.0001 J-0.002
G2 X0.4909 Y0.1837 I-0.0258 J0.0928
G3 X0.4906 I-0.0001 J-0.002
G2 X0.4448 Y0.1825 I-0.0319 J0.3222
G1 X0.4447
G1 X0.3566
G1 Y0.2944
G3 Y0.2945 I-0.002 J0.0
G2 X0.3569 Y0.328 I0.163 J0.0149
G3 X0.357 Y0.3282 I-0.002 J0.0002
G2 X0.3579 Y0.3618 I1.0903 J-0.013
G3 Y0.3619 I-0.002 J0.0001
G2 X0.3621 Y0.4014 I0.1632 J0.0024
G3 Y0.4016 I-0.0019 J0.0005
G2 X0.3695 Y0.4181 I0.0299 J-0.0035
G2 X0.3761 Y0.4222 I0.0098 J-0.0084
G3 X0.3766 Y0.4224 I-0.0005 J0.0019
G2 X0.3824 Y0.4239 I0.0059 J-0.0107
G1 X0.387 Y0.4224
G3 X0.3945 Y0.4214 I0.0055 J0.012
G3 X0.4064 Y0.4252 I-0.0006 J0.0226
G3 X0.42 Y0.4327 I-0.0131 J0.04
G2 X0.4456 Y0.4425 I0.0917 J-0.2002
G2 X0.4923 Y0.4474 I0.04 J-0.1559
G3 X0.4924 I0.0001 J0.002
G1 X0.5745 Y0.4488
G1 X0.703
G1 Y0.4007
G1 Y0.4006
G2 X0.7017 Y0.3758 I-0.1304 J-0.0056
G3 X0.7016 Y0.3755 I0.002 J-0.0003
G2 X0.6983 Y0.3583 I-0.0491 J0.0005
G2 X0.6942 Y0.3523 I-0.0193 J0.009
G1 X0.6882 Y0.3497
G3 X0.6879 Y0.3496 I0.0008 J-0.0018
G3 X0.6801 Y0.342 I0.0127 J-0.0209
G3 X0.6731 Y0.3314 I0.0171 J-0.0189
G3 X0.6711 Y0.2931 I0.0459 J-0.0215
G1 Y0.293
G3 X0.6971 Y0.2667 I0.0426 J0.0162
G1 X0.6972
G3 X0.7354 Y0.2685 I0.017 J0.0469
G3 X0.7561 Y0.2871 I-0.0166 J0.0394
G3 X0.7618 Y0.3112 I-0.0342 J0.0208
G3 X0.752 Y0.3376 I-0.0619 J-0.0079
G1 X0.7445 Y0.3557
G1 X0.739 Y0.3812
G2 X0.737 Y0.4085 I0.1612 J0.0259
G1 Y0.4559
G1 X0.8036 Y0.494
G1 Y0.4941
G2 X0.8488 Y0.5172 I0.1612 J-0.2585
G2 X0.8889 Y0.5312 I0.1565 J-0.3851
G1 X0.9304 Y0.5382
G3 X0.9688 Y0.5433 I-0.0035 J0.1735
G3 X0.9883 Y0.5514 I-0.0038 J0.0365
G3 X0.9885 Y0.5516 I-0.0013 J0.0015
G3 X0.9952 Y0.566 I-0.0206 J0.0183
G3 X0.9957 Y0.5776 I-0.0384 J0.0076
G3 X0.9958 Y0.5813 I-0.0205 J0.0023
G0 Z0.125
G0 X0.9757 Y0.4997
G0 Z0.0624
G1 F20.0 Z-0.0026
G3 F40.0 X0.9558 Y0.5034 I-0.0422 J-0.1717
G3 X0.9067 Y0.5001 I-0.0139 J-0.1593
G3 X0.8776 Y0.4878 I0.0029 J-0.0475
G3 X0.8698 Y0.4774 I0.0179 J-0.0216
G1 X0.8559 Y0.4652
G1 X0.8558
G2 X0.8383 Y0.4533 I-0.0531 J0.0597
G3 X0.8382 I0.0009 J-0.0018
G1 X0.8041 Y0.4331
G3 X0.8031 Y0.4314 I0.001 J-0.0017
G1 Y0.3167
G1 Y0.2019
G3 X0.8039 Y0.2002 I0.002 J0.0
G1 X0.8502 Y0.169
G3 X0.883 Y0.1495 I0.0997 J0.1302
G3 X0.9112 Y0.1409 I0.0375 J0.0724
G1 X0.9113
G3 X0.9439 Y0.1404 I0.0201 J0.242
G3 X0.9752 Y0.1439 I0.0072 J0.0768
G3 X0.9891 Y0.1524 I-0.0071 J0.0274
G3 X0.9894 Y0.1529 I-0.0015 J0.0013
G3 X0.9923 Y0.1704 I-0.0313 J0.0141
G3 X0.9893 Y0.1883 I-0.0311 J0.004
G3 X0.9889 Y0.1889 I-0.0018 J-0.0009
G3 X0.9728 Y0.1966 I-0.0193 J-0.0197
G3 X0.9347 Y0.1986 I-0.024 J-0.0931
G1 X0.9346
G2 X0.8992 Y0.1963 I-0.0273 J0.1473
G3 X0.8991 I-0.0001 J-0.002
G2 X0.8649 Y0.2037 I-0.0022 J0.0722
G2 X0.8403 Y0.233 I0.0335 J0.0531
G2 X0.8347 Y0.2733 I0.0761 J0.031
G3 Y0.2735 I-0.002 J0.0002
G1 X0.8371 Y0.3151
G3 Y0.3153 I-0.002 J0.0001
G1 X0.835 Y0.3569
G2 X0.84 Y0.3976 I0.1166 J0.0063
G2 X0.8633 Y0.4281 I0.0599 J-0.0214
G2 X0.8956 Y0.4371 I0.0331 J-0.0564
G3 X0.8957 I0.0 J0.002
G2 X0.9301 Y0.438 I0.0242 J-0.2855
G3 X0.9304 I0.0001 J0.002
G3 X0.9687 Y0.4431 I-0.0938 J0.8449
G3 X0.9883 Y0.4513 I-0.0043 J0.0378
G3 X0.9885 Y0.4515 I-0.0013 J0.0016
G3 X0.9952 Y0.4658 I-0.0211 J0.0185
G3 X0.9957 Y0.4774 I-0.0375 J0.0076
G3 X0.994 Y0.4882 I-0.0206 J0.0023
G1 X0.9908 Y0.4946
G3 X0.9897 Y0.4956 I-0.0018 J-0.0009
G3 X0.9757 Y0.4997 I-0.0562 J-0.1676
G0 Z0.125
G0 X0.7441 Y0.6776
G0 Z0.0624
G1 F20.0 Z-0.0026
G3 F40.0 X0.7517 Y0.6975 I-0.0292 J0.0224
G3 X0.755 Y0.7429 I-0.2548 J0.0412
G3 X0.7556 Y0.787 I-0.2345 J0.0252
G3 X0.7504 Y0.8103 I-0.0428 J0.0028
G3 Y0.8104 I-0.0018 J-0.001
G3 X0.7372 Y0.8223 I-0.0293 J-0.0193
G3 X0.7175 Y0.8314 I-0.0283 J-0.0351
G3 X0.7174 Y0.8315 I-0.0004 J-0.002
G3 X0.7044 Y0.83 I-0.0036 J-0.0268
G1 X0.7043 Y0.8299
G3 X0.6889 Y0.8165 I0.0128 J-0.03
G3 X0.6752 Y0.7794 I0.0793 J-0.0504
G3 Y0.7793 I0.002 J-0.0003
G3 X0.6741 Y0.7272 I0.3808 J-0.034
G3 X0.6863 Y0.6859 I0.0753 J-0.0002
G3 X0.6865 Y0.6856 I0.0017 J0.0011
G3 X0.6967 Y0.6763 I0.0649 J0.0608
G1 X0.6968
G3 X0.7106 Y0.6709 I0.0174 J0.0246
G3 X0.7257 Y0.6706 I0.0085 J0.0382
G3 X0.7434 Y0.6768 I0.0002 J0.0276
G3 X0.7437 Y0.6771 I-0.0013 J0.0015
G3 X0.7441 Y0.6776 I-0.0288 J0.023
G0 Z0.125
G0 X0.6312 Y0.6946
G0 Z0.0624
G1 F20.0 Z-0.0026
G3 F40.0 X0.6315 Y0.6975 I-0.0364 J0.0055
G3 X0.6348 Y0.7429 I-0.2548 J0.0412
G3 X0.6354 Y0.787 I-0.2345 J0.0252
G3 X0.6303 Y0.8103 I-0.0428 J0.0028
G3 X0.6302 Y0.8104 I-0.0018 J-0.001
G3 X0.6171 Y0.8223 I-0.0293 J-0.0193
G3 X0.5974 Y0.8314 I-0.0283 J-0.035
G3 X0.5972 Y0.8315 I-0.0004 J-0.002
G3 X0.5842 Y0.83 I-0.0036 J-0.0268
G1 X0.5841 Y0.8299
G3 X0.5688 Y0.8165 I0.0128 J-0.03
G3 X0.5551 Y0.7794 I0.0794 J-0.0504
G3 Y0.7793 I0.002 J-0.0003
G3 X0.554 Y0.7272 I0.3808 J-0.034
G3 X0.5662 Y0.6859 I0.0753 J-0.0002
G3 X0.5664 Y0.6856 I0.0017 J0.0011
G3 X0.5766 Y0.6763 I0.0649 J0.0608
G1 X0.5767
G3 X0.5904 Y0.6709 I0.0174 J0.0246
G3 X0.6056 Y0.6706 I0.0085 J0.0382
G3 X0.6233 Y0.6768 I0.0002 J0.0276
G3 X0.6236 Y0.6771 I-0.0013 J0.0015
G3 X0.6312 Y0.6946 I-0.0288 J0.023
G0 Z0.125
G0 X0.5244 Y0.7253
G0 Z0.0624
G1 F20.0 Z-0.0026
G3 F40.0 X0.5245 Y0.7254 I-0.0019 J0.0006
G3 X0.5229 Y0.7425 I-0.0277 J0.0059
G3 X0.5228 Y0.7426 I-0.0018 J-0.0008
G3 X0.5061 Y0.7626 I-0.0515 J-0.0261
G3 X0.4946 Y0.7727 I-0.0384 J-0.0319
G3 X0.4831 Y0.7803 I-0.0203 J-0.0183
G1 X0.4754 Y0.783
G3 X0.4744 Y0.7831 I-0.0007 J-0.0019
G3 X0.4545 Y0.7724 I0.0042 J-0.0317
G3 X0.4334 Y0.7513 I0.2282 J-0.2494
G3 X0.4227 Y0.7313 I0.0185 J-0.0228
G3 X0.4226 Y0.731 I0.002 J-0.0002
G3 X0.4258 Y0.7221 I0.0148 J0.0002
G1 X0.4329 Y0.7114
G3 X0.4331 Y0.7112 I0.0017 J0.0011
G1 X0.4432 Y0.6997
G3 X0.4433 Y0.6996 I0.0015 J0.0013
G2 X0.4597 Y0.674 I-0.0448 J-0.0469
G2 X0.4598 Y0.6481 I-0.0392 J-0.0131
G2 X0.4437 Y0.6228 I-0.0571 J0.0186
G2 X0.4236 Y0.6103 I-0.1004 J0.1388
G2 X0.3844 Y0.6039 I-0.0414 J0.1306
G1 X0.3843
G1 X0.3458 Y0.6021
G3 X0.3456 I0.0001 J-0.002
G2 X0.3075 Y0.6007 I-0.0259 J0.1913
G3 X0.3073 I-0.0001 J-0.002
G1 X0.1893 Y0.5979
G3 X0.1874 Y0.5961 I0.0 J-0.002
G1 X0.1842 Y0.5579
G2 X0.18 Y0.5362 I-0.1416 J0.0163
G2 X0.172 Y0.5159 I-0.0786 J0.0194
G2 X0.1616 Y0.5009 I-0.1173 J0.0697
G3 X0.1516 Y0.4879 I0.196 J-0.161
G3 X0.1465 Y0.4734 I0.0199 J-0.0152
G3 Y0.4732 I0.002 J-0.0001
G1 X0.1474 Y0.4606
G3 Y0.4602 I0.002 J0.0001
G2 X0.1482 Y0.4481 I-0.027 J-0.0078
G1 X0.1446 Y0.4325
G2 X0.1375 Y0.418 I-0.073 J0.0266
G3 X0.1286 Y0.4011 I0.0541 J-0.0393
G3 X0.1266 Y0.3862 I0.0252 J-0.0109
G3 X0.1316 Y0.3715 I0.0286 J0.0015
G3 X0.1631 Y0.3448 I0.0472 J0.0237
G3 X0.1632 Y0.3447 I0.0006 J0.0019
G3 X0.1991 Y0.3513 I0.0102 J0.0451
G3 X0.1992 Y0.3514 I-0.0011 J0.0017
G3 X0.222 Y0.3878 I-0.0412 J0.0512
G3 X0.2264 Y0.4059 I-0.0432 J0.02
G1 X0.2318 Y0.4259
G1 X0.2372 Y0.4443
G3 X0.2413 Y0.4641 I-0.0695 J0.0247
G3 X0.2394 Y0.4815 I-0.0377 J0.0046
G3 X0.2393 Y0.4817 I-0.0019 J-0.0007
G1 X0.2313 Y0.498
G3 X0.2311 Y0.4982 I-0.0018 J-0.0009
G2 X0.2238 Y0.5129 I0.0548 J0.0368
G3 X0.2237 Y0.513 I-0.0019 J-0.0007
G2 X0.2185 Y0.5299 I0.074 J0.0324
G1 X0.2164 Y0.5456
G1 Y0.5689
G1 X0.3199
G1 X0.3845 Y0.5674
G3 X0.3847 I0.0 J0.002
G2 X0.4248 Y0.5626 I0.0054 J-0.1232
G1 X0.4249 Y0.5625
G2 X0.4484 Y0.5534 I-0.0261 J-0.1021
G3 X0.4916 Y0.5464 I0.0326 J0.0642
G3 X0.492 Y0.5465 I-0.0003 J0.002
G3 X0.519 Y0.5741 I-0.0145 J0.0412
G3 X0.5191 Y0.5744 I-0.0019 J0.0006
G3 X0.5117 Y0.618 I-0.0666 J0.0112
G2 X0.4992 Y0.6478 I0.141 J0.0768
G2 Y0.6772 I0.0546 J0.0146
G3 X0.4993 Y0.6774 I-0.0019 J0.0005
G2 X0.5116 Y0.7042 I0.0592 J-0.011
G3 X0.5244 Y0.7251 I-0.0579 J0.0497
G3 Y0.7253 I-0.0019 J0.0008
G0 Z0.125
G0 X0.5875 Y0.9033
G0 Z0.0624
G1 F20.0 Z-0.0026
G3 F40.0 X0.5878 Y0.9032 I0.0007 J0.0019
G3 X0.6022 Y0.9033 I0.0069 J0.034
G3 X0.6025 Y0.9034 I-0.0004 J0.002
G3 X0.6207 Y0.9135 I-0.0326 J0.0802
G1 X0.6208 Y0.9136
G2 X0.6505 Y0.9271 I0.0419 J-0.0524
G3 X0.6507 Y0.9272 I-0.0004 J0.002
G2 X0.6759 Y0.926 I0.0108 J-0.0394
G2 X0.6985 Y0.9099 I-0.0336 J-0.0711
G3 X0.6987 Y0.9097 I0.0014 J0.0014
G1 X0.715 Y0.8974
G3 X0.7152 Y0.8972 I0.0012 J0.0016
G3 X0.7405 Y0.8909 I0.0253 J0.0472
G3 X0.7804 Y0.8893 I0.0275 J0.1817
G2 X0.8215 Y0.8875 I0.0119 J-0.2062
G1 X0.8216
G2 X0.8463 Y0.8803 I-0.0075 J-0.072
G2 X0.8666 Y0.8642 I-0.1078 J-0.1566
G3 X0.8867 Y0.8479 I0.0582 J0.0511
G3 X0.9092 Y0.841 I0.0269 J0.0478
G3 X0.9422 Y0.8411 I0.0162 J0.0907
G3 X0.9727 Y0.8446 I-0.008 J0.2042
G3 X0.989 Y0.8521 I-0.006 J0.0345
G3 X0.9893 Y0.8524 I-0.0013 J0.0015
G3 X0.9952 Y0.8662 I-0.0258 J0.0191
G3 X0.9957 Y0.8779 I-0.0312 J0.0073
G3 X0.994 Y0.8886 I-0.0211 J0.0021
G1 Y0.8887
G1 X0.9908 Y0.8951
G3 X0.9899 Y0.896 I-0.0018 J-0.0009
G3 X0.9779 Y0.8997 I-0.0198 J-0.0424
G3 X0.9777 I-0.0003 J-0.002
G1 X0.9545 Y0.9023
G3 X0.924 Y0.9033 I-0.019 J-0.1141
G2 X0.8944 Y0.9046 I-0.0048 J0.2188
G3 X0.8942 I-0.0002 J-0.002
G2 X0.8719 Y0.9081 I0.0037 J0.0976
G1 X0.8611 Y0.913
G3 X0.8493 Y0.9182 I-0.0199 J-0.029
G3 X0.825 Y0.9219 I-0.0232 J-0.0711
G3 X0.8091 Y0.9227 I-0.0108 J-0.0562
G3 X0.7936 Y0.9233 I-0.0123 J-0.1271
G1 X0.7555 Y0.9251
G2 X0.7292 Y0.9313 I0.0079 J0.0935
G1 X0.7088 Y0.943
G3 X0.6934 Y0.9531 I-0.083 J-0.1098
G3 X0.677 Y0.9605 I-0.0294 J-0.0431
G1 X0.6769
G1 X0.664 Y0.9633
G3 X0.6637 I-0.0004 J-0.002
G2 X0.6523 Y0.9659 I0.002 J0.0358
G1 X0.6386 Y0.973
G2 X0.6263 Y0.9827 I0.081 J0.1142
G3 X0.6146 Y0.993 I-0.0352 J-0.0282
G3 X0.6035 Y1.0004 I-0.0267 J-0.0281
G3 X0.5951 Y1.0034 I-0.0118 J-0.0204
G3 X0.5947 I-0.0003 J-0.002
G3 X0.5859 Y1.0003 I0.0008 J-0.0165
G1 X0.5751 Y0.9931
G3 X0.5749 Y0.9929 I0.0011 J-0.0017
G1 X0.5635 Y0.9829
G2 X0.5467 Y0.9711 I-0.1572 J0.2058
G2 X0.5235 Y0.9651 I-0.0272 J0.0577
G1 X0.4872 Y0.9633
G1 X0.4308
G1 X0.3913 Y1.0299
G1 X0.3513 Y1.0975
G3 X0.3497 Y1.0985 I-0.0017 J-0.001
G1 X0.2921 Y1.1015
G3 X0.2919 I-0.0001 J-0.002
G2 X0.2779 Y1.1027 I-0.003 J0.0473
G3 X0.2775 I-0.0005 J-0.0019
G2 X0.2633 Y1.104 I0.0011 J0.0911
G1 X0.2428 Y1.1078
G2 X0.2363 Y1.1112 I0.0089 J0.0252
G2 X0.2405 Y1.1203 I0.009 J0.0013
G3 X0.2411 Y1.1208 I-0.001 J0.0017
G2 X0.2502 Y1.1289 I0.0268 J-0.0208
G3 X0.2507 Y1.1293 I-0.001 J0.0017
G1 X0.2853 Y1.1657
G1 X0.2854
G2 X0.3045 Y1.1848 I0.1754 J-0.1569
G1 X0.3251 Y1.2025
G3 X0.3429 Y1.2222 I-0.0298 J0.0448
G3 X0.3431 Y1.2225 I-0.0018 J0.0009
G3 X0.3433 Y1.2409 I-0.0312 J0.0095
G3 X0.3431 Y1.2413 I-0.0019 J-0.0005
G3 X0.326 Y1.263 I-0.063 J-0.0319
G3 X0.3041 Y1.2802 I-0.0418 J-0.0306
G3 X0.3039 Y1.2803 I-0.0008 J-0.0018
G3 X0.2851 I-0.0093 J-0.0364
G3 X0.2848 Y1.2802 I0.0005 J-0.0019
G3 X0.2627 Y1.2627 I0.0221 J-0.0505
G1 X0.2519 Y1.2487
G3 X0.2518 Y1.2486 I0.0016 J-0.0012
G3 X0.2469 Y1.233 I0.0248 J-0.0164
G3 Y1.2327 I0.002 J-0.0001
G1 X0.2483 Y1.2168
G2 X0.2429 Y1.1827 I-0.0983 J-0.0021
G3 Y1.1826 I0.0019 J-0.0007
G2 X0.2232 Y1.1486 I-0.0761 J0.0214
G2 X0.2038 Y1.1389 I-0.0243 J0.0242
G3 X0.1859 Y1.1386 I-0.0073 J-0.1138
G3 X0.1856 I0.0002 J-0.002
G3 X0.1635 Y1.1258 I0.0103 J-0.0434
G3 X0.1487 Y1.1068 I0.0283 J-0.0373
G3 Y1.1067 I0.0018 J-0.0008
G3 X0.1481 Y1.0833 I0.0355 J-0.0126
G1 Y1.0832
G3 X0.1596 Y1.0608 I0.0818 J0.0276
G3 X0.1798 Y1.0455 I0.0349 J0.0252
G3 X0.1803 Y1.0454 I0.0007 J0.0019
G1 X0.1919 Y1.0442
G3 X0.1921 I0.0002 J0.002
G3 X0.2073 Y1.0476 I-0.0004 J0.0377
G1 X0.2213 Y1.0544
G3 X0.2215 Y1.0545 I-0.0009 J0.0018
G2 X0.2387 Y1.062 I0.045 J-0.0796
G1 X0.2388
G2 X0.262 Y1.0674 I0.0328 J-0.089
G3 X0.2622 I-0.0002 J0.002
G2 X0.2866 Y1.0694 I0.0216 J-0.1104
G3 X0.2869 Y1.0695 I0.0 J0.002
G2 X0.3174 Y1.0669 I0.0093 J-0.0722
G2 X0.3384 Y1.0498 I-0.0401 J-0.0706
G2 X0.3678 Y1.0029 I-0.3746 J-0.2683
G1 X0.3679 Y1.0028
G1 X0.4079 Y0.9353
G3 X0.4095 Y0.9343 I0.0017 J0.001
G1 X0.4782 Y0.9313
G2 X0.517 Y0.9278 I-0.0132 J-0.3589
G2 X0.5491 Y0.9213 I-0.0394 J-0.2781
G2 X0.5699 Y0.9129 I-0.0278 J-0.0987
G1 X0.5872 Y0.9034
G3 X0.5875 Y0.9033 I0.001 J0.0018
G0 Z0.125
G0 X0.596 Y1.0452
G0 Z0.0624
G1 F20.0 Z-0.0026
G3 F40.0 X0.6032 Y1.0451 I0.0041 J0.0686
G3 X0.6035 I-0.0001 J0.002
G2 X0.6461 Y1.0519 I0.0843 J-0.3941
G2 X0.6893 Y1.0361 I-0.0066 J-0.0851
G2 X0.7352 Y0.9971 I-0.2374 J-0.3262
G1 X0.7786 Y0.9504
G3 X0.78 Y0.9498 I0.0015 J0.0014
G1 X0.8851 Y0.9471
G1 X0.9564 Y0.9462
G3 X0.987 Y0.9513 I0.0088 J0.0417
G3 X0.9875 Y0.9517 I-0.001 J0.0017
G3 X0.9951 Y0.9663 I-0.0248 J0.0223
G1 X0.9952
G3 X0.9957 Y0.978 I-0.037 J0.0076
G3 X0.994 Y0.9887 I-0.0203 J0.0023
G1 Y0.9888
G1 X0.9908 Y0.9952
G3 X0.9898 Y0.9961 I-0.0018 J-0.0009
G3 X0.9577 Y1.0029 I-0.0361 J-0.0924
G3 X0.9088 Y1.0015 I-0.0209 J-0.1338
G3 X0.8793 Y0.9932 I0.0117 J-0.0972
G3 X0.8789 Y0.9929 I0.0008 J-0.0018
G2 X0.8704 Y0.9882 I-0.0186 J0.0236
G2 X0.853 Y0.9847 I-0.0216 J0.0629
G3 X0.8527 I0.0001 J-0.002
G2 X0.8303 Y0.9833 I-0.0171 J0.0971
G3 X0.8301 I-0.0001 J-0.002
G2 X0.7995 Y0.9859 I-0.004 J0.1373
G2 X0.7779 Y0.9979 I0.0134 J0.0495
G2 X0.7515 Y1.0271 I0.1025 J0.1194
G1 X0.7514 Y1.0272
G1 X0.7339 Y1.051
G2 X0.7233 Y1.0701 I0.0766 J0.0548
G1 X0.7216 Y1.081
G1 X0.722 Y1.0992
G3 X0.7219 Y1.0997 I-0.002 J0.0
G3 X0.7096 Y1.1221 I-0.0435 J-0.0093
G3 X0.6902 Y1.1372 I-0.0362 J-0.0265
G3 X0.6898 Y1.1373 I-0.0007 J-0.0019
G1 X0.6792 Y1.139
G3 X0.6659 Y1.1376 I-0.0038 J-0.0276
G1 X0.6545 Y1.1335
G2 X0.6043 Y1.1384 I-0.018 J0.0756
G3 X0.6042 Y1.1385 I-0.0008 J-0.0018
G2 X0.5556 Y1.178 I0.0343 J0.0917
G2 X0.5425 Y1.225 I0.1052 J0.0546
G3 X0.5372 Y1.2473 I-0.0579 J-0.0021
G1 X0.5371 Y1.2474
G3 X0.5175 Y1.2718 I-0.0668 J-0.0336
G3 X0.4949 Y1.2837 I-0.0248 J-0.0197
G3 X0.4948 I-0.0001 J-0.002
G3 X0.4859 Y1.2807 I-0.0002 J-0.0139
G3 X0.4747 Y1.2732 I0.0102 J-0.0272
G1 X0.4634 Y1.2632
G3 X0.4529 Y1.2513 I0.0373 J-0.0434
G1 X0.4457 Y1.2405
G3 X0.4455 Y1.2401 I0.0017 J-0.0011
G1 X0.4428 Y1.2323
G3 X0.4427 Y1.2315 I0.0019 J-0.0007
G3 X0.4541 Y1.2099 I0.0306 J0.0024
G3 X0.4773 Y1.1894 I0.0612 J0.0458
G3 X0.4774 Y1.1893 I0.001 J0.0017
G3 X0.4974 Y1.1824 I0.0388 J0.0805
G2 X0.5194 Y1.1693 I-0.0146 J-0.0497
G1 X0.5195 Y1.1692
G2 X0.5416 Y1.1341 I-0.0533 J-0.058
G1 X0.5479 Y1.1015
G3 X0.553 Y1.0733 I0.0924 J0.0023
G3 Y1.0731 I0.0019 J0.0007
G3 X0.5763 Y1.0493 I0.0429 J0.0185
G3 X0.5765 Y1.0492 I0.0008 J0.0018
G3 X0.596 Y1.0452 I0.0237 J0.0645
G0 Z0.125
G0 X0.7588 Y1.2516
G0 Z0.0624
G1 F20.0 Z-0.0026
G3 F40.0 X0.76 Y1.2512 I0.0012 J0.0016
G1 X0.8751 Y1.2479
G1 X0.9536 Y1.2467
G3 X0.9867 Y1.2516 I0.0105 J0.0436
G3 X0.9871 Y1.2519 I-0.001 J0.0017
G3 X0.9952 Y1.2667 I-0.0203 J0.0206
G3 X0.9957 Y1.2783 I-0.0467 J0.008
G3 X0.994 Y1.2891 I-0.0199 J0.0024
G1 X0.9908 Y1.2955
G3 X0.9897 Y1.2965 I-0.0018 J-0.0009
G3 X0.9577 Y1.3032 I-0.0391 J-0.1068
G3 X0.9088 Y1.3019 I-0.0199 J-0.1716
G3 X0.8793 Y1.2935 I0.0135 J-0.1034
G3 X0.879 Y1.2933 I0.0008 J-0.0018
G2 X0.8693 Y1.2886 I-0.0196 J0.0276
G1 X0.8692 Y1.2885
G2 X0.8488 Y1.2851 I-0.0216 J0.0649
G3 X0.8486 Y1.285 I0.0 J-0.002
G2 X0.8218 Y1.2837 I-0.0221 J0.1712
G3 X0.8215 I-0.0001 J-0.002
G2 X0.7834 Y1.2863 I-0.0114 J0.111
G2 X0.7532 Y1.3031 I0.0395 J0.1065
G2 X0.7291 Y1.3244 I0.7875 J0.9141
G2 X0.7068 Y1.3477 I0.2502 J0.2622
G1 X0.6743 Y1.3833
G1 X0.6509 Y1.4141
G1 X0.6414 Y1.4338
G1 X0.6327 Y1.4555
G3 X0.6326 Y1.4558 I-0.0019 J-0.0007
G3 X0.614 Y1.4753 I-0.0571 J-0.0358
G3 X0.5929 Y1.4839 I-0.021 J-0.0215
G3 X0.5924 Y1.4838 I0.0 J-0.002
G3 X0.5852 Y1.481 I0.0073 J-0.0288
G3 X0.5746 Y1.4734 I0.0105 J-0.0261
G1 X0.5635 Y1.4634
G3 X0.5633 Y1.4632 I0.0013 J-0.0015
G2 X0.5477 Y1.4521 I-0.0347 J0.0322
G2 X0.5264 Y1.4458 I-0.0584 J0.1583
G1 X0.4968 Y1.4439
G1 X0.4967 Y1.4438
G2 X0.4621 Y1.4464 I-0.0106 J0.0931
G2 X0.4375 Y1.4635 I0.0254 J0.0629
G3 X0.4374 I-0.0015 J-0.0014
G2 X0.4011 Y1.5104 I0.1476 J0.152
G3 X0.4009 Y1.5106 I-0.0017 J-0.001
G1 X0.3512 Y1.5782
G3 X0.3497 Y1.579 I-0.0016 J-0.0012
G1 X0.2921 Y1.582
G1 X0.2632 Y1.5848
G1 X0.2631
G2 X0.243 Y1.589 I0.003 J0.0638
G3 X0.2428 Y1.5891 I-0.0007 J-0.0019
G2 X0.2361 Y1.5932 I0.003 J0.0123
G1 X0.2335 Y1.5991
G3 X0.2334 Y1.5993 I-0.0018 J-0.0008
G3 X0.2258 Y1.607 I-0.0198 J-0.012
G3 X0.2152 Y1.6139 I-0.0191 J-0.0176
G3 X0.1768 Y1.6158 I-0.0215 J-0.0456
G3 X0.1505 Y1.5899 I0.0163 J-0.0427
G1 Y1.5898
G3 X0.1523 Y1.5516 I0.0469 J-0.017
G3 X0.1709 Y1.5309 I0.0392 J0.0164
G3 X0.1949 Y1.5252 I0.0209 J0.0348
G1 X0.195
G3 X0.2216 Y1.5351 I-0.0071 J0.0597
G2 X0.2386 Y1.5425 I0.026 J-0.0367
G3 X0.2388 I-0.0004 J0.002
G2 X0.2628 Y1.5479 I0.0932 J-0.3561
G3 X0.263 Y1.548 I-0.0004 J0.002
G2 X0.2877 Y1.55 I0.0185 J-0.0738
G3 X0.2881 I0.0002 J0.002
G2 X0.32 Y1.5471 I0.0085 J-0.0847
G2 X0.3444 Y1.5292 I-0.0316 J-0.0684
G1 X0.364 Y1.5057
G1 X0.3641
G2 X0.3815 Y1.4809 I-0.1114 J-0.0967
G3 X0.3816 Y1.4807 I0.0017 J0.001
G1 X0.4327 Y1.4106
G3 X0.4343 Y1.4098 I0.0016 J0.0012
G1 X0.4899
G1 X0.5223 Y1.4079
G2 X0.5493 Y1.4025 I-0.0067 J-0.1046
G1 X0.5494 Y1.4024
G2 X0.5687 Y1.3942 I-0.0238 J-0.0826
G3 X0.5688 I0.001 J0.0017
G1 X0.5826 Y1.3871
G1 X0.5827
G3 X0.5962 Y1.3838 I0.0153 J0.0329
G3 X0.597 Y1.3839 I0.0001 J0.002
G2 X0.6054 Y1.3852 I0.0079 J-0.0236
G2 X0.6193 Y1.3803 I0.0 J-0.0224
G3 X0.6196 Y1.3801 I0.0012 J0.0016
G2 X0.6482 Y1.3582 I-0.0725 J-0.1246
G1 X0.6483
G1 X0.6871 Y1.3223
G1 X0.7586 Y1.2518
G3 X0.7588 Y1.2516 I0.0014 J0.0014
G0 Z0.125
G0 X0.7789 Y1.3281
G0 Z0.0624
G1 F20.0 Z-0.0026
G3 F40.0 X0.7791 I0.0005 J0.0019
G3 X0.8191 Y1.3324 I0.0128 J0.0686
G2 X0.8399 Y1.3386 I0.0455 J-0.1149
G3 X0.8401 Y1.3387 I-0.0004 J0.002
G2 X0.8742 Y1.3431 I0.0317 J-0.1115
G3 X0.8744 I0.0 J0.002
G2 X0.9152 Y1.3448 I0.0412 J-0.5018
G1 X0.9663 Y1.3459
G3 X0.9888 Y1.3526 I0.0013 J0.0367
G3 X0.9892 Y1.3529 I-0.0012 J0.0016
G3 X0.9956 Y1.3698 I-0.0207 J0.0175
G3 X0.9954 Y1.3844 I-0.0325 J0.0069
G3 X0.989 Y1.3949 I-0.0162 J-0.0027
G3 X0.9886 Y1.3951 I-0.0012 J-0.0016
G1 X0.9769 Y1.4005
G3 X0.9767 Y1.4006 I-0.0008 J-0.0018
G2 X0.9599 Y1.4132 I0.0096 J0.0302
G2 X0.9596 Y1.4303 I0.019 J0.0089
G2 X0.976 Y1.4429 I0.0312 J-0.0237
G1 X0.9761
G3 X0.9936 Y1.4583 I-0.0152 J0.035
G3 X0.9964 Y1.4824 I-0.0243 J0.015
G3 X0.9963 Y1.4825 I-0.0019 J-0.0006
G3 X0.9825 Y1.4995 I-0.0344 J-0.0138
G3 X0.9819 Y1.4998 I-0.0011 J-0.0017
G3 X0.9686 Y1.5021 I-0.0182 J-0.0652
G1 X0.9685
G1 X0.9479 Y1.5029
G3 X0.9236 Y1.502 I-0.0088 J-0.0941
G3 X0.8954 Y1.4984 I0.0099 J-0.1857
G3 X0.8953 Y1.4983 I0.0004 J-0.002
G3 X0.8807 Y1.4901 I0.01 J-0.0349
G3 X0.8805 Y1.4899 I0.0014 J-0.0015
G3 X0.8749 Y1.4738 I0.023 J-0.017
G3 X0.875 Y1.4593 I0.0459 J-0.0067
G1 X0.8751
G3 X0.8814 Y1.4488 I0.0167 J0.003
G1 X0.8815
G3 X0.8937 Y1.4431 I0.0228 J0.0328
G1 X0.9039 Y1.438
G2 X0.9105 Y1.4304 I-0.0085 J-0.0141
G3 X0.9107 Y1.4301 I0.0018 J0.0008
G2 X0.9132 Y1.4213 I-0.0132 J-0.0085
G2 X0.8977 Y1.4025 I-0.0256 J0.0053
G3 X0.8975 Y1.4024 I0.0008 J-0.0018
G2 X0.8614 Y1.3965 I-0.0263 J0.0483
G3 X0.8613 Y1.3966 I-0.0004 J-0.002
G2 X0.8235 Y1.4079 I0.0135 J0.1139
G3 X0.7962 Y1.4184 I-0.0443 J-0.0745
G3 X0.796 I-0.0004 J-0.002
G3 X0.7715 Y1.4129 I-0.0031 J-0.0428
G3 X0.7525 Y1.3914 I0.0207 J-0.0375
G3 X0.7509 Y1.3528 I0.0445 J-0.0212
G3 X0.751 Y1.3527 I0.0019 J0.0007
G3 X0.7788 Y1.3282 I0.0416 J0.0192
G1 X0.7789 Y1.3281
G0 Z0.125
G0 X0.6856 Y1.4814
G0 Z0.0624
G1 F20.0 Z-0.0026
G3 F40.0 X0.6896 Y1.485 I-0.0078 J0.0128
G3 X0.7016 Y1.4966 I-0.0569 J0.0708
G3 X0.7174 Y1.5133 I-0.0488 J0.0618
G2 X0.7409 Y1.5349 I0.0696 J-0.0521
G2 X0.7709 Y1.545 I0.0613 J-0.1334
G2 X0.8278 Y1.55 I0.0575 J-0.3279
G3 X0.8279 I0.0 J0.002
G1 X0.9103 Y1.555
G3 X0.9122 Y1.5569 I-0.0001 J0.002
G1 X0.915 Y1.699
G1 X0.9177 Y1.8393
G1 X0.9532 Y1.8422
G3 X0.9533 I-0.0002 J0.002
G1 X0.9765 Y1.846
G3 X0.9768 I-0.0003 J0.002
G3 X0.99 Y1.8544 I-0.0075 J0.0265
G3 X0.9901 Y1.8546 I-0.0015 J0.0013
G3 X0.9955 Y1.8696 I-0.025 J0.0173
G3 X0.9952 Y1.8826 I-0.0336 J0.0057
G3 X0.9909 Y1.8932 I-0.0335 J-0.0073
G3 X0.9907 Y1.8934 I-0.0017 J-0.001
G3 X0.9831 Y1.8998 I-0.0196 J-0.0158
G3 X0.9826 Y1.9 I-0.0009 J-0.0018
G3 X0.969 Y1.9024 I-0.0196 J-0.0702
G1 X0.9689
G1 X0.948 Y1.9033
G3 X0.9238 Y1.9025 I-0.0065 J-0.1651
G1 X0.8803 Y1.8994
G3 X0.8784 Y1.8973 I0.0001 J-0.002
G1 X0.8817 Y1.7396
G1 X0.885 Y1.584
G1 X0.8204
G1 X0.8203
G1 X0.7841 Y1.5826
G3 X0.7525 Y1.5787 I-0.0041 J-0.0975
G1 X0.7334 Y1.5734
G1 X0.7167 Y1.5695
G2 X0.6933 Y1.5752 I0.0047 J0.0697
G1 X0.6549 Y1.5927
G3 X0.6222 Y1.6072 I-0.0832 J-0.1434
G1 X0.5953 Y1.616
G3 X0.5787 Y1.6173 I-0.011 J-0.0329
G3 X0.5783 Y1.6172 I0.0003 J-0.002
G3 X0.5595 Y1.6024 I0.0152 J-0.0385
G3 X0.5485 Y1.58 I0.0481 J-0.0376
G1 Y1.5799
G3 X0.5488 Y1.5575 I0.0449 J-0.0105
G3 X0.5491 Y1.557 I0.0019 J0.0005
G3 X0.5826 Y1.531 I0.0505 J0.0304
G2 X0.6406 Y1.4973 I-0.0937 J-0.2284
G1 X0.6587 Y1.484
G3 X0.6827 Y1.48 I0.0159 J0.0211
G1 X0.6828
G3 X0.6856 Y1.4814 I-0.005 J0.0142
G0 Z0.125
G0 X0.6608 Y1.6658
G0 Z0.0624
G1 F20.0 Z-0.0026
G3 F40.0 X0.6758 Y1.6703 I-0.0065 J0.0485
G3 X0.676 Y1.6704 I-0.0009 J0.0018
G1 X0.6861 Y1.6769
G3 X0.6862 Y1.677 I-0.0011 J0.0017
G3 X0.6937 Y1.6839 I-0.0331 J0.0432
G3 X0.694 Y1.6843 I-0.0015 J0.0013
G1 X0.6967 Y1.6896
G2 X0.7151 Y1.7058 I0.0433 J-0.0308
G1 X0.7152
G2 X0.7541 Y1.7214 I0.0764 J-0.1341
G2 X0.7852 Y1.725 I0.0266 J-0.0937
G3 X0.7983 Y1.7244 I0.0077 J0.0248
G3 X0.8125 Y1.7298 I-0.0055 J0.0361
G3 X0.8126 Y1.7299 I-0.0011 J0.0017
G1 X0.8258 Y1.7401
G3 X0.8435 Y1.7623 I-0.0377 J0.0482
G3 X0.8436 Y1.7625 I-0.0018 J0.0008
G3 X0.8437 Y1.7817 I-0.0264 J0.0098
G3 X0.8436 Y1.7819 I-0.0019 J-0.0007
G3 X0.8265 Y1.8037 I-0.0608 J-0.0303
G3 X0.8149 Y1.8139 I-0.037 J-0.0302
G3 X0.8035 Y1.8214 I-0.0211 J-0.0196
G1 X0.7957 Y1.8242
G3 X0.7947 Y1.8243 I-0.0007 J-0.0019
G3 X0.7754 Y1.8139 I0.0062 J-0.0347
G3 X0.7537 Y1.7928 I0.0418 J-0.0648
G3 X0.7432 Y1.7747 I0.0531 J-0.0428
G2 X0.7301 Y1.7602 I-0.043 J0.0255
G2 X0.7018 Y1.7514 I-0.0336 J0.0582
G1 X0.7017
G2 X0.6757 Y1.754 I-0.0065 J0.0654
G1 X0.6756 Y1.7541
G3 X0.6526 Y1.7596 I-0.1334 J-0.5013
G3 X0.6521 Y1.7597 I-0.0004 J-0.002
G3 X0.6299 Y1.7522 I0.0011 J-0.0399
G3 X0.6128 Y1.7326 I0.0216 J-0.0361
G3 X0.611 Y1.6943 I0.0445 J-0.0212
G3 X0.6111 I0.0019 J0.0007
G3 X0.6372 Y1.6684 I0.045 J0.0193
G1 X0.6373 Y1.6683
G3 X0.6608 Y1.6658 I0.0169 J0.0459
G0 Z0.125
G0 X0.5395 Y1.703
G0 Z0.0624
G1 F20.0 Z-0.0026
G3 F40.0 X0.5426 Y1.7182 I-0.0762 J0.0234
G1 X0.5486 Y1.7455
G2 X0.5751 Y1.7802 I0.1209 J-0.0651
G3 X0.5752 Y1.7803 I-0.0014 J0.0015
G2 X0.6134 Y1.8107 I0.1048 J-0.0925
G1 X0.6352 Y1.8206
G2 X0.6599 Y1.8276 I0.0339 J-0.0732
G1 X0.6828 Y1.8303
G3 X0.7107 Y1.8344 I-0.0006 J0.101
G3 X0.7109 Y1.8345 I-0.0006 J0.0019
G3 X0.7392 Y1.8516 I-0.0302 J0.0818
G3 X0.7791 Y1.8885 I-0.1346 J0.1857
G1 X0.8368 Y1.9454
G1 X0.913
G3 X0.9645 Y1.9466 I0.0188 J0.3053
G3 X0.9879 Y1.9526 I0.0027 J0.0382
G3 X0.9883 Y1.953 I-0.0011 J0.0017
G3 X0.9952 Y1.9675 I-0.0207 J0.0186
G3 X0.9957 Y1.9792 I-0.0286 J0.0072
G3 X0.994 Y1.9898 I-0.0211 J0.0021
G1 Y1.9899
G1 X0.9908 Y1.9963
G3 X0.9894 Y1.9973 I-0.0018 J-0.0009
G1 X0.9579 Y2.0039
G3 X0.9576 Y2.004 I-0.0004 J-0.002
G3 X0.909 Y2.0027 I-0.0129 J-0.4289
G3 X0.8792 Y1.9942 I0.0022 J-0.0644
G3 X0.8789 Y1.994 I0.001 J-0.0017
G1 X0.8732 Y1.9892
G1 X0.8645 Y1.9859
G3 X0.853 Y1.9844 I-0.0022 J-0.0278
G3 X0.8339 Y1.976 I0.0312 J-0.0973
G1 X0.8338
G3 X0.8038 Y1.9542 I0.1064 J-0.1784
G1 X0.7695 Y1.9239
G3 X0.7693 Y1.9238 I0.0013 J-0.0015
G2 X0.7094 Y1.8758 I-0.1892 J0.1749
G3 X0.7093 Y1.8757 I0.001 J-0.0017
G2 X0.6641 Y1.8633 I-0.0411 J0.0609
G2 X0.6263 Y1.8837 I0.0113 J0.0659
G3 X0.6047 Y1.9008 I-0.0649 J-0.0598
G3 X0.6042 Y1.901 I-0.001 J-0.0017
G3 X0.5854 I-0.0093 J-0.0391
G3 X0.5851 Y1.9009 I0.0005 J-0.0019
G3 X0.5631 Y1.8834 I0.0214 J-0.0497
G1 X0.5522 Y1.8694
G3 X0.5521 Y1.8693 I0.0016 J-0.0012
G3 X0.5472 Y1.8537 I0.0253 J-0.0165
G3 Y1.8534 I0.002 J-0.0001
G1 X0.5486 Y1.8374
G2 X0.5437 Y1.8028 I-0.0759 J-0.0068
G3 X0.5436 Y1.8026 I0.0019 J-0.0007
G2 X0.5231 Y1.7703 I-0.0611 J0.0163
G2 X0.4998 Y1.7604 I-0.0337 J0.0469
G3 X0.4786 Y1.7546 I0.0088 J-0.0746
G1 X0.4785
G3 X0.4544 Y1.7345 I0.0279 J-0.0582
G3 X0.4427 Y1.7124 I0.0234 J-0.0265
G3 Y1.7117 I0.002 J-0.0002
G3 X0.4532 Y1.6921 I0.0426 J0.0103
G3 X0.4746 Y1.6707 I0.1133 J0.0919
G3 X0.4944 Y1.6601 I0.0255 J0.0239
G3 X0.495 I0.0003 J0.002
G3 X0.5173 Y1.6719 I-0.0057 J0.0379
G3 X0.5372 Y1.6963 I-0.0353 J0.049
G1 Y1.6964
G3 X0.5395 Y1.703 I-0.0739 J0.03
G0 Z0.125
G0 X0.585 Y1.9468
G0 Z0.0624
G1 F20.0 Z-0.0026
G3 F40.0 X0.5928 Y1.946 I0.0094 J0.0505
G3 X0.593 I0.0001 J0.002
G3 X0.6211 Y1.9549 I-0.0044 J0.0624
G1 X0.6394 Y1.9628
G1 X0.6647 Y1.9683
G2 X0.6917 Y1.9704 I0.0701 J-0.7195
G3 X0.7253 Y1.973 I0.006 J0.1455
G3 X0.7255 I-0.0004 J0.002
G3 X0.7507 Y1.984 I-0.0428 J0.1326
G3 X0.7508 Y1.9841 I-0.001 J0.0017
G3 X0.7792 Y2.0086 I-0.1059 J0.1512
G2 X0.8091 Y2.0347 I0.1252 J-0.1137
G2 X0.841 Y2.0442 I0.0528 J-0.1188
G2 X0.9032 Y2.0455 I0.0379 J-0.3049
G3 X0.9034 I0.0002 J0.002
G1 X0.9325 Y2.046
G3 X0.9326 I0.0 J0.002
G2 X0.9614 Y2.0467 I0.0195 J-0.212
G3 X0.9875 Y2.0526 I0.0048 J0.0393
G3 X0.988 Y2.0531 I-0.0011 J0.0017
G3 X0.9951 Y2.0675 I-0.0302 J0.0239
G3 X0.9957 Y2.0793 I-0.0318 J0.0074
G3 X0.994 Y2.0899 I-0.0207 J0.0022
G1 Y2.09
G1 X0.9908 Y2.0964
G3 X0.9894 Y2.0975 I-0.0018 J-0.0009
G1 X0.9579 Y2.1041
G3 X0.9577 I-0.0004 J-0.002
G3 X0.9089 Y2.1028 I-0.0197 J-0.1783
G3 X0.8791 Y2.0943 I0.0015 J-0.0615
G3 X0.8788 Y2.094 I0.001 J-0.0017
G2 X0.8721 Y2.0893 I-0.0204 J0.022
G3 X0.8719 Y2.0892 I0.0009 J-0.0018
G2 X0.8601 Y2.0859 I-0.0113 J0.0177
G3 X0.8596 I0.0 J-0.002
G2 X0.8444 Y2.0846 I-0.0117 J0.0466
G3 X0.8442 I-0.0001 J-0.002
G3 X0.8222 Y2.0803 I0.0022 J-0.0698
G3 X0.7979 Y2.067 I0.0335 J-0.0902
G3 X0.7698 Y2.0439 I0.0955 J-0.1452
G1 X0.7697
G2 X0.739 Y2.0184 I-0.1168 J0.1095
G1 X0.7389
G2 X0.7137 Y2.0071 I-0.0418 J0.0598
G2 X0.6813 Y2.0045 I-0.0321 J0.1946
G3 X0.6811 I0.0 J-0.002
G2 X0.6584 Y2.0058 I-0.0075 J0.0699
G3 X0.6581 I-0.0004 J-0.002
G2 X0.6421 Y2.0091 I0.0094 J0.086
G2 X0.6365 Y2.0134 I0.033 J0.0491
G3 X0.6262 Y2.0279 I-0.0672 J-0.0368
G3 X0.626 Y2.0281 I-0.0015 J-0.0013
G3 X0.6027 Y2.0384 I-0.0298 J-0.0358
G3 X0.5799 Y2.0383 I-0.0111 J-0.0673
G3 X0.5796 Y2.0382 I0.0003 J-0.002
G3 X0.5598 Y2.0231 I0.0131 J-0.0377
G3 X0.5485 Y2.0004 I0.042 J-0.0351
G3 X0.5491 Y1.9773 I0.0414 J-0.0105
G3 X0.5669 Y1.954 I0.0428 J0.0142
G1 Y1.9539
G3 X0.585 Y1.9468 I0.0275 J0.0434
G0 Z0.125
G0 Y2.0706
G0 Z0.0624
G1 F20.0 Z-0.0026
G1 F40.0 X0.7415
G3 X0.743 Y2.0712 I0.0 J0.002
G1 X0.7672 Y2.0972
G1 X0.7825 Y2.1115
G3 Y2.1116 I-0.0014 J0.0015
G2 X0.7988 Y2.1237 I0.044 J-0.0421
G1 X0.7989
G1 X0.8134 Y2.1316
G3 X0.8285 Y2.1413 I-0.015 J0.0401
G3 X0.8287 Y2.1415 I-0.0014 J0.0014
G3 X0.8356 Y2.1609 I-0.0304 J0.0217
G1 Y2.161
G1 X0.8371 Y2.197
G1 Y2.1971
G3 X0.8355 Y2.2319 I-0.4444 J-0.0027
G3 X0.8294 Y2.2525 I-0.048 J-0.003
G3 X0.829 Y2.253 I-0.0017 J-0.001
G1 X0.8171 Y2.2639
G3 X0.8166 Y2.2642 I-0.0013 J-0.0015
G3 X0.7789 Y2.2675 I-0.0237 J-0.0541
G3 X0.7783 Y2.2672 I0.0005 J-0.0019
G3 X0.757 Y2.2348 I0.0264 J-0.0405
G3 X0.7576 Y2.1761 I0.124 J-0.0279
G2 X0.76 Y2.1536 I-0.0782 J-0.0195
G2 X0.7568 Y2.1369 I-0.0546 J0.0017
G1 Y2.1368
G2 X0.7478 Y2.1231 I-0.0309 J0.0104
G2 X0.7249 Y2.1108 I-0.0381 J0.0433
G2 X0.6581 Y2.1056 I-0.0475 J0.1797
G3 X0.6579 I-0.0002 J-0.002
G1 X0.5042 Y2.1046
G1 X0.2766
G3 X0.275 Y2.1039 I0.0 J-0.002
G1 X0.2445 Y2.0691
G1 X0.2265 Y2.0514
G3 X0.2264 Y2.0513 I0.0014 J-0.0014
G2 X0.2116 Y2.0417 I-0.0234 J0.02
G2 X0.2007 Y2.0404 I-0.0094 J0.0324
G3 X0.2003 I-0.0001 J-0.002
G3 X0.1787 Y2.035 I0.0246 J-0.1435
G3 X0.1783 Y2.0348 I0.0006 J-0.0019
G3 X0.1542 Y2.0152 I0.0674 J-0.1071
G3 X0.1423 Y1.9926 I0.02 J-0.0249
G3 Y1.9925 I0.002 J-0.0002
G3 X0.1453 Y1.9837 I0.0141 J-0.0001
G3 X0.1528 Y1.9725 I0.0262 J0.0095
G3 X0.1629 Y1.9611 I0.0909 J0.07
G2 X0.1781 Y1.9345 I-0.0645 J-0.0546
G3 X0.1782 Y1.9342 I0.0019 J0.0007
G2 X0.1824 Y1.9065 I-0.0377 J-0.0198
G2 X0.1736 Y1.894 I-0.0233 J0.0071
G3 X0.159 Y1.8837 I0.0397 J-0.0717
G3 X0.1588 Y1.8835 I0.0013 J-0.0015
G3 X0.1485 Y1.8602 I0.033 J-0.0286
G3 X0.1486 Y1.8373 I0.0473 J-0.0112
G3 X0.1487 Y1.837 I0.0019 J0.0005
G3 X0.1649 Y1.8157 I0.0487 J0.0203
G3 X0.1891 Y1.8057 I0.0282 J0.0336
G3 X0.2141 Y1.8098 I0.0057 J0.0427
G3 X0.2353 Y1.8286 I-0.0184 J0.0422
G3 X0.2412 Y1.8527 I-0.0349 J0.0214
G3 Y1.8529 I-0.002 J-0.0001
G3 X0.2313 Y1.8795 I-0.0651 J-0.009
G2 X0.2187 Y1.9082 I0.0691 J0.0475
G2 Y1.9366 I0.0797 J0.0141
G2 X0.2316 Y1.9657 I0.1599 J-0.0533
G1 X0.2389 Y1.9788
G3 X0.2437 Y1.9917 I-0.0206 J0.015
G1 X0.2443 Y2.0
G3 Y2.0001 I-0.002 J0.0002
G2 X0.2458 Y2.0086 I0.0254 J-0.0001
G1 X0.253 Y2.0233
G1 Y2.0234
G2 X0.2638 Y2.04 I0.0668 J-0.0315
G3 X0.2639 Y2.0401 I-0.0015 J0.0013
G1 X0.2861 Y2.0706
G1 X0.5133
G1 X0.585
G0 Z0.125
G0 X0.5955 Y2.1424
G0 Z0.0624
G1 F20.0 Z-0.0026
G3 F40.0 X0.5972 Y2.1422 I0.0116 J0.079
G3 X0.5974 I0.0002 J0.002
G1 X0.6383 Y2.1406
G3 X0.6723 Y2.1423 I0.0099 J0.1475
G1 X0.6988 Y2.1465
G3 X0.6992 Y2.1467 I-0.0003 J0.002
G3 X0.7138 Y2.1528 I-0.0729 J0.1928
G3 X0.7144 Y2.1532 I-0.0008 J0.0018
G3 X0.7249 Y2.1751 I-0.025 J0.0256
G3 X0.7259 Y2.201 I-0.0567 J0.0152
G3 X0.7258 Y2.2015 I-0.002 J-0.0004
G1 X0.7173 Y2.2182
G2 X0.7154 Y2.2251 I0.0445 J0.0164
G2 X0.7191 Y2.2386 I0.0609 J-0.0094
G1 X0.7283 Y2.2572
G2 X0.7441 Y2.2797 I0.0833 J-0.0416
G2 X0.7622 Y2.2889 I0.0383 J-0.0528
G2 X0.7945 Y2.2908 I0.0238 J-0.1309
G3 X0.7949 I0.0001 J0.002
G2 X0.8255 Y2.2887 I0.0086 J-0.1001
G3 X0.8258 I0.0004 J0.002
G2 X0.8473 Y2.2812 I-0.0055 J-0.0503
G3 X0.8474 Y2.2811 I0.0011 J0.0017
G2 X0.8665 Y2.2659 I-0.0371 J-0.0661
G1 Y2.2658
G3 X0.8867 Y2.2495 I0.0668 J0.0616
G1 Y2.2494
G3 X0.9092 Y2.2426 I0.0267 J0.0473
G3 X0.9422 Y2.2427 I0.0162 J0.0906
G3 X0.9727 Y2.2462 I-0.0081 J0.2052
G3 X0.989 Y2.2536 I-0.006 J0.0345
G3 X0.9893 Y2.254 I-0.0013 J0.0015
G3 X0.9952 Y2.2678 I-0.0258 J0.0191
G3 X0.9957 Y2.2795 I-0.0312 J0.0073
G3 X0.994 Y2.2901 I-0.0211 J0.0021
G1 Y2.2902
G1 X0.9908 Y2.2966
G3 X0.9899 Y2.2975 I-0.0018 J-0.0009
G3 X0.9781 Y2.3013 I-0.0195 J-0.0412
G3 X0.9779 I-0.0003 J-0.002
G1 X0.9552 Y2.3038
G3 X0.9255 Y2.3048 I-0.0188 J-0.1173
G1 X0.8959 Y2.3063
G1 X0.8722 Y2.31
G1 X0.8595 Y2.3152
G3 X0.8457 Y2.3202 I-0.0222 J-0.0394
G3 X0.8202 Y2.323 I-0.0194 J-0.06
G3 X0.789 Y2.3229 I-0.0151 J-0.1649
G3 X0.7473 Y2.3189 I-0.0062 J-0.1567
G1 X0.7472
G3 X0.724 Y2.3076 I0.0156 J-0.0616
G3 X0.7239 Y2.3075 I0.0012 J-0.0016
G3 X0.704 Y2.2812 I0.052 J-0.0599
G2 X0.6857 Y2.2566 I-0.0841 J0.0436
G2 X0.6664 Y2.2467 I-0.0372 J0.0485
G2 X0.6335 Y2.2447 I-0.0213 J0.0809
G3 X0.6332 I-0.0003 J-0.002
G3 X0.6029 Y2.2428 I0.0042 J-0.2968
G1 X0.6028
G3 X0.5804 Y2.2362 I0.0137 J-0.0885
G3 X0.5635 Y2.2242 I0.0183 J-0.0439
G3 X0.5467 Y2.2042 I0.0285 J-0.041
G3 X0.5466 Y2.2041 I0.0018 J-0.0008
G3 X0.5453 Y2.1869 I0.0297 J-0.0109
G3 X0.5454 Y2.1866 I0.002 J0.0004
G3 X0.5587 Y2.1637 I0.0713 J0.0264
G3 X0.5736 Y2.149 I0.0385 J0.0241
G3 X0.5738 Y2.1489 I0.001 J0.0017
G3 X0.5955 Y2.1424 I0.0333 J0.0726
G0 Z0.125
G0 X0.6036 Y2.3476
G0 Z0.0624
G1 F20.0 Z-0.0026
G3 F40.0 X0.7291 Y2.3496 I0.0448 J1.138
G1 X0.7292
G2 X0.9106 Y2.3479 I0.083 J-0.81
G3 X0.9461 Y2.3441 I0.0336 J0.1469
G3 X0.9814 Y2.3525 I0.0015 J0.0725
G3 X0.9951 Y2.3676 I-0.0137 J0.026
G3 X0.9952 Y2.3681 I-0.0019 J0.0007
G3 X0.9957 Y2.3795 I-0.1713 J0.0133
G3 Y2.3799 I-0.002 J0.0
G1 X0.9942 Y2.3898
G3 X0.994 Y2.3903 I-0.002 J-0.0003
G1 X0.9908 Y2.3967
G3 X0.9894 Y2.3978 I-0.0018 J-0.0009
G1 X0.9579 Y2.4044
G3 X0.9577 I-0.0004 J-0.002
G3 X0.9088 Y2.4031 I-0.0196 J-0.1843
G3 X0.9085 I0.0003 J-0.002
G1 X0.8796 Y2.3948
G2 X0.8516 Y2.3896 I-0.0525 J0.2024
G1 X0.7792 Y2.3861
G2 X0.6701 Y2.3849 I-0.0876 J2.9287
G1 X0.5984 Y2.388
G3 X0.5262 Y2.3857 I-0.0227 J-0.4291
G1 X0.4989 Y2.3834
G1 X0.4988
G2 X0.4742 Y2.3909 I-0.0039 J0.0314
G1 X0.4647 Y2.4063
G3 X0.4497 Y2.4292 I-0.0626 J-0.0245
G3 X0.4495 Y2.4294 I-0.0014 J-0.0014
G3 X0.4238 Y2.4333 I-0.0166 J-0.0228
G3 X0.4236 I0.0006 J-0.0019
G3 X0.4059 Y2.4145 I0.0131 J-0.0302
G2 X0.4008 Y2.4043 I-0.1107 J0.0488
G2 X0.393 Y2.3975 I-0.0167 J0.0115
G3 X0.3928 Y2.3974 I0.0009 J-0.0018
G2 X0.384 Y2.3949 I-0.0084 J0.0127
G2 X0.369 Y2.4048 I0.0027 J0.0206
G2 X0.3595 Y2.4422 I0.0541 J0.0337
G3 Y2.4424 I-0.002 J0.0001
G3 X0.354 Y2.5182 I-0.6168 J-0.006
G1 X0.3516 Y2.5782
G3 X0.3496 Y2.5801 I-0.002 J-0.0001
G1 X0.252 Y2.583
G3 X0.2519 I-0.0001 J-0.002
G2 X0.2031 Y2.5857 I-0.0085 J0.2887
G3 X0.2027 I-0.0003 J-0.002
G2 X0.1683 Y2.59 I-0.0025 J0.1206
G3 X0.168 I-0.0005 J-0.0019
G2 X0.1556 Y2.5947 I0.0053 J0.0331
G2 X0.1459 Y2.6082 I0.0318 J0.033
G3 X0.1454 Y2.6088 I-0.0018 J-0.0009
G3 X0.1221 Y2.619 I-0.028 J-0.0321
G3 X0.0993 Y2.6189 I-0.0111 J-0.0602
G3 X0.0991 Y2.6188 I0.0004 J-0.002
G3 X0.0793 Y2.6037 I0.014 J-0.0388
G3 X0.068 Y2.5811 I0.0408 J-0.0346
G3 X0.0686 Y2.558 I0.0416 J-0.0105
G1 Y2.5579
G3 X0.0863 Y2.5346 I0.0429 J0.0143
G3 X0.1123 Y2.5266 I0.0271 J0.0423
G3 X0.1125 Y2.5267 I0.0 J0.002
G3 X0.1406 Y2.5356 I-0.0062 J0.0678
G2 X0.1623 Y2.5444 I0.0771 J-0.1584
G2 X0.1957 Y2.5495 I0.0311 J-0.0931
G3 X0.1958 I0.0 J0.002
G1 X0.2441 Y2.5511
G1 X0.3225
G1 Y2.4951
G1 X0.3211 Y2.4645
G1 X0.3173 Y2.4402
G1 X0.3121 Y2.4273
G3 X0.3071 Y2.4148 I0.0315 J-0.0201
G3 X0.3043 Y2.3928 I0.0615 J-0.0189
G1 X0.3044 Y2.3668
G3 X0.308 Y2.3346 I0.0919 J-0.0061
G3 X0.3162 Y2.3185 I0.0277 J0.004
G3 X0.3164 Y2.3183 I0.0014 J0.0014
G3 X0.3325 Y2.3126 I0.0187 J0.0272
G3 X0.3471 Y2.3127 I0.0068 J0.0426
G3 X0.3576 Y2.3192 I-0.0026 J0.0161
G3 X0.3578 Y2.3195 I-0.0016 J0.0012
G1 X0.3633 Y2.3312
G3 X0.3634 Y2.3315 I-0.0018 J0.0008
G2 X0.3759 Y2.3482 I0.0297 J-0.0092
G2 X0.3931 Y2.3485 I0.009 J-0.0197
G2 X0.4056 Y2.3322 I-0.0173 J-0.0262
G3 X0.4057 Y2.3321 I0.0019 J0.0006
G3 X0.4222 Y2.313 I0.0367 J0.0151
G3 X0.4224 Y2.3129 I0.001 J0.0017
G3 X0.4473 Y2.3134 I0.0119 J0.0242
G3 X0.4475 Y2.3136 I-0.001 J0.0018
G3 X0.4638 Y2.3331 I-0.0282 J0.0403
G2 X0.4773 Y2.3472 I0.0564 J-0.0402
G2 X0.5103 Y2.3551 I0.0275 J-0.042
G2 X0.5455 Y2.3514 I-0.0562 J-0.709
G3 X0.6036 Y2.3476 I0.1028 J1.1342
G0 Z0.125
G0 X0.633 Y2.4538
G0 Z0.0624
G1 F20.0 Z-0.0026
G3 F40.0 X0.6366 Y2.4529 I0.0295 J0.1067
G3 X0.6367 I0.0005 J0.0019
G3 X0.6824 Y2.451 I0.0293 J0.1559
G2 X0.7194 Y2.4492 I0.0063 J-0.248
G3 X0.7195 I0.0002 J0.002
G2 X0.7486 Y2.4439 I-0.0065 J-0.1195
G2 X0.7686 Y2.4356 I-0.039 J-0.1214
G3 X0.786 Y2.4263 I0.0293 J0.0339
G3 X0.8009 Y2.4255 I0.0087 J0.0245
G3 X0.8011 Y2.4256 I-0.0005 J0.0019
G3 X0.8178 Y2.433 I-0.0253 J0.0799
G2 X0.839 Y2.4396 I0.0351 J-0.0747
G1 X0.8734 Y2.4443
G1 X0.9152 Y2.446
G3 X0.9664 Y2.4471 I0.0148 J0.4845
G3 X0.9888 Y2.4538 I0.0012 J0.0368
G3 X0.9892 Y2.4542 I-0.0012 J0.0016
G3 X0.9956 Y2.471 I-0.021 J0.0176
G3 X0.9953 Y2.4857 I-0.0295 J0.0069
G3 X0.989 Y2.496 I-0.0177 J-0.0038
G3 X0.9889 Y2.4961 I-0.0013 J-0.0016
G3 X0.9768 Y2.5018 I-0.0244 J-0.0362
G2 X0.9606 Y2.514 I0.0251 J0.0501
G2 X0.9588 Y2.536 I0.031 J0.0135
G2 X0.9722 Y2.566 I0.1087 J-0.0304
G3 Y2.5661 I-0.0017 J0.0011
G3 X0.9792 Y2.6074 I-0.0553 J0.0306
G3 Y2.6075 I-0.002 J-0.0003
G3 X0.9553 Y2.637 I-0.0431 J-0.0105
G1 X0.9552
G3 X0.9155 Y2.6356 I-0.0184 J-0.0436
G3 X0.8943 Y2.6169 I0.0216 J-0.0458
G3 Y2.6168 I0.0017 J-0.0011
G3 X0.8884 Y2.5928 I0.0401 J-0.0226
G3 Y2.5926 I0.002 J0.0001
G3 X0.8983 Y2.5659 I0.0589 J0.0067
G3 X0.8984 Y2.5658 I0.0017 J0.0011
G2 X0.9116 Y2.5361 I-0.0548 J-0.0423
G2 X0.908 Y2.5138 I-0.0393 J-0.005
G2 X0.8872 Y2.4973 I-0.0457 J0.0361
G3 X0.8871 I0.0009 J-0.0018
G2 X0.8608 Y2.4869 I-0.057 J0.1058
G2 X0.8449 Y2.4888 I-0.0045 J0.0299
G2 X0.8266 Y2.5044 I0.0525 J0.0802
G1 X0.8265
G3 X0.8149 Y2.5147 I-0.0722 J-0.0702
G3 X0.8038 Y2.5221 I-0.0283 J-0.0304
G3 X0.7953 Y2.525 I-0.0119 J-0.0205
G3 X0.795 Y2.5251 I-0.0003 J-0.002
G3 X0.7861 Y2.522 I0.0008 J-0.0164
G1 X0.7754 Y2.5148
G3 X0.7752 Y2.5146 I0.0011 J-0.0017
G1 X0.7638 Y2.5046
G2 X0.7469 Y2.4927 I-0.1898 J0.2525
G2 X0.7235 Y2.4868 I-0.0267 J0.0557
G3 X0.7233 I0.0001 J-0.002
G2 X0.687 Y2.485 I-0.0257 J0.156
G3 X0.6867 I-0.0001 J-0.002
G2 X0.6467 Y2.4869 I-0.0138 J0.1298
G3 X0.6466 I-0.0004 J-0.002
G2 X0.6219 Y2.4963 I0.0087 J0.0601
G2 X0.5965 Y2.5192 I0.077 J0.1108
G3 X0.5964 Y2.5193 I-0.0015 J-0.0013
G2 X0.5793 Y2.5397 I0.1479 J0.1416
G3 X0.5791 Y2.5399 I-0.0016 J-0.0012
G2 X0.5668 Y2.5595 I0.0399 J0.0386
G1 X0.5614 Y2.575
G3 X0.5524 Y2.5972 I-0.0702 J-0.0156
G1 Y2.5973
G3 X0.5339 Y2.6166 I-0.0639 J-0.0426
G3 X0.5129 Y2.6252 I-0.0214 J-0.0223
G3 X0.5125 Y2.6251 I0.0 J-0.002
G3 X0.4937 Y2.6142 I0.0061 J-0.0318
G1 X0.4732 Y2.5928
G3 X0.4627 Y2.5735 I0.0265 J-0.0269
G3 Y2.5729 I0.002 J-0.0004
G3 X0.4745 Y2.5501 I0.0357 J0.0041
G3 X0.4993 Y2.5308 I0.0606 J0.0524
G3 X0.5231 Y2.5256 I0.0225 J0.0456
G1 X0.5367 Y2.5243
G2 X0.5548 Y2.5132 I-0.0364 J-0.0797
G1 X0.5784 Y2.4916
G3 X0.6083 Y2.464 I0.1667 J0.1506
G3 X0.6086 Y2.4638 I0.0012 J0.0016
G3 X0.633 Y2.4538 I0.0539 J0.0967
G0 Z0.125
G0 X0.6592 Y2.5282
G0 Z0.0624
G1 F20.0 Z-0.0026
G3 F40.0 X0.6752 Y2.5262 I0.0128 J0.0363
G3 X0.7011 Y2.5355 I-0.0077 J0.0618
G1 X0.7194 Y2.5432
G1 X0.7466 Y2.5495
G2 X0.7764 Y2.553 I0.0348 J-0.1668
G1 X0.8302 Y2.5561
G3 X0.8321 Y2.558 I-0.0001 J0.002
G1 X0.835 Y2.6245
G3 Y2.625 I-0.002 J0.0001
G2 X0.8402 Y2.6752 I0.0867 J0.0165
G2 X0.8636 Y2.6952 I0.0417 J-0.025
G2 X0.8958 Y2.7022 I0.0414 J-0.113
G3 X0.9296 Y2.705 I0.0067 J0.1267
G3 X0.9463 Y2.7092 I-0.0125 J0.0845
G3 X0.9622 Y2.7173 I-0.015 J0.0489
G3 X0.9623 Y2.7175 I-0.0012 J0.0016
G1 X0.9731 Y2.7272
G1 X0.9732
G3 X0.9835 Y2.7432 I-0.0294 J0.0305
G3 X0.9855 Y2.7558 I-0.019 J0.0095
G3 X0.9803 Y2.7719 I-0.0424 J-0.0048
G3 X0.9801 Y2.7723 I-0.0017 J-0.001
G1 X0.9658 Y2.7889
G3 X0.9655 Y2.7893 I-0.0015 J-0.0013
G3 X0.9426 Y2.7996 I-0.0364 J-0.0501
G3 X0.9199 Y2.799 I-0.0104 J-0.0368
G3 X0.909 Y2.7915 I0.009 J-0.0247
G3 X0.8975 Y2.7785 I0.0243 J-0.0331
G1 X0.8878 Y2.7632
G3 Y2.763 I0.0017 J-0.0011
G1 X0.8734 Y2.7353
G1 X0.7194
G1 X0.6229 Y2.7366
G3 X0.6227 I0.0 J-0.002
G2 X0.5685 Y2.7412 I-0.0107 J0.1946
G3 X0.5684 I-0.0004 J-0.0019
G2 X0.5418 Y2.7503 I0.0147 J0.087
G3 X0.5156 Y2.76 I-0.0518 J-0.0994
G3 X0.5153 Y2.7601 I-0.0005 J-0.0019
G3 X0.4912 Y2.7544 I-0.0026 J-0.0427
G3 X0.4726 Y2.7337 I0.0209 J-0.0375
G3 X0.4708 Y2.6934 I0.0438 J-0.0222
G3 Y2.6933 I0.0019 J0.0007
G3 X0.4997 Y2.669 I0.0409 J0.0192
G3 X0.4999 Y2.6689 I0.0005 J0.0019
G3 X0.5409 Y2.6757 I0.0103 J0.0651
G1 X0.5657 Y2.685
G2 X0.6101 Y2.6899 I0.0645 J-0.3872
G1 X0.6474 Y2.6906
G3 X0.6476 Y2.6907 I0.0 J0.002
G2 X0.6844 Y2.6913 I0.0215 J-0.192
G3 X0.6846 Y2.6912 I0.0002 J0.002
G1 X0.8031
G1 Y2.6382
G1 Y2.5851
G1 X0.7601
G1 X0.7375 Y2.5864
G2 X0.7218 Y2.5898 I0.0038 J0.0559
G2 X0.7167 Y2.5938 I0.004 J0.0105
G1 X0.7141 Y2.5999
G3 X0.7139 Y2.6002 I-0.0018 J-0.0008
G3 X0.7063 Y2.608 I-0.0217 J-0.0135
G3 X0.6957 Y2.615 I-0.0189 J-0.017
G3 X0.6574 Y2.617 I-0.0215 J-0.0458
G1 X0.6573 Y2.6169
G3 X0.6311 Y2.591 I0.0163 J-0.0428
G1 X0.631 Y2.5909
G3 X0.6328 Y2.5527 I0.0462 J-0.017
G3 X0.6512 Y2.5321 I0.0406 J0.0178
G3 X0.6592 Y2.5282 I0.0207 J0.0325
G0 Z0.125
G0 X1.1137 Y2.5196
G0 Z0.0624
G1 F20.0 Z-0.0026
G1 F40.0 X1.1116 Y2.4047
G1 Y2.4046
G1 X1.1099 Y2.2027
G1 X1.1084 Y1.8173
G3 X1.1095 Y1.8156 I0.002 J0.0
G1 X1.147 Y1.7955
G3 X1.1473 Y1.7954 I0.0009 J0.0018
G2 X1.1726 Y1.7795 I-0.0207 J-0.0613
G2 X1.182 Y1.7592 I-0.0317 J-0.0269
G1 Y1.7591
G2 X1.1835 Y1.7162 I-0.1246 J-0.0258
G3 Y1.7157 I0.002 J-0.0003
G2 X1.1784 Y1.6627 I-0.1545 J-0.0119
G2 X1.162 Y1.6387 I-0.0431 J0.0118
G2 X1.1312 Y1.638 I-0.0165 J0.0507
G1 Y1.6381
G3 X1.1142 Y1.6397 I-0.0138 J-0.0557
G3 X1.1139 Y1.6396 I0.0001 J-0.002
G3 X1.0989 Y1.635 I0.0127 J-0.068
G3 X1.0987 Y1.6349 I0.0008 J-0.0018
G3 X1.0842 Y1.6237 I0.0316 J-0.0559
G3 X1.0669 Y1.6018 I0.0372 J-0.0472
G3 X1.0668 Y1.6016 I0.0018 J-0.0008
G3 X1.0667 Y1.5826 I0.0303 J-0.0096
G3 X1.0668 Y1.5823 I0.0019 J0.0006
G3 X1.084 Y1.5606 I0.0598 J0.0295
G2 X1.0969 Y1.5379 I-0.0561 J-0.0472
G2 X1.1024 Y1.4808 I-0.1567 J-0.0437
G3 X1.1023 Y1.4806 I0.002 J-0.0002
G1 X1.1034 Y1.3514
G1 X1.1045 Y1.2339
G3 X1.1087 Y1.1741 I0.2105 J-0.0153
G3 X1.1177 Y1.1543 I0.0375 J0.0051
G3 X1.1183 Y1.1539 I0.0015 J0.0013
G3 X1.137 Y1.1507 I0.0144 J0.0286
G1 X1.1699 Y1.1481
G3 X1.2117 Y1.1464 I0.0282 J0.1776
G3 X1.2669 Y1.1461 I0.0291 J0.2536
G3 X1.2887 Y1.1525 I0.0017 J0.0341
G3 X1.2893 Y1.1534 I-0.0012 J0.0016
G3 X1.2926 Y1.1714 I-0.0375 J0.0162
G3 X1.2896 Y1.1894 I-0.0266 J0.0047
G3 X1.2893 Y1.1898 I-0.0017 J-0.001
G3 X1.2747 Y1.1982 I-0.0217 J-0.0208
G3 X1.2416 Y1.2017 I-0.0287 J-0.1121
G1 X1.2156 Y1.2018
G3 X1.1937 Y1.1991 I-0.0008 J-0.0823
G3 X1.181 Y1.1939 I0.0067 J-0.0345
G3 X1.1807 Y1.1936 I0.0011 J-0.0017
G2 X1.1735 Y1.1887 I-0.0158 J0.0153
G3 X1.1733 Y1.1886 I0.0008 J-0.0018
G2 X1.1636 Y1.185 I-0.017 J0.0309
G3 X1.1635 I0.0004 J-0.002
G2 X1.1537 Y1.1836 I-0.0104 J0.0382
G2 X1.1431 Y1.1922 I0.0058 J0.018
G2 X1.1383 Y1.2405 I0.0615 J0.0305
G3 X1.1384 Y1.2408 I-0.0019 J0.0005
G3 X1.1401 Y1.3016 I-0.4468 J0.0433
G3 X1.1374 Y1.3623 I-0.6827 J-0.0001
G2 X1.1364 Y1.432 I0.4489 J0.0415
G1 Y1.4321
G2 X1.1398 Y1.5019 I1.4764 J-0.0377
G1 Y1.502
G2 X1.1548 Y1.5701 I0.1937 J-0.0068
G2 X1.1942 Y1.6216 I0.1808 J-0.0973
G3 X1.1944 Y1.6219 I-0.0014 J0.0014
G1 X1.2098 Y1.6435
G3 X1.2101 Y1.6442 I-0.0016 J0.0012
G3 X1.216 Y1.6728 I-0.2079 J0.0579
G3 X1.2155 Y1.7234 I-0.2311 J0.023
G1 X1.2125 Y1.7973
G3 X1.2115 Y1.799 I-0.002 J-0.0001
G1 X1.1739 Y1.819
G1 X1.1375 Y1.8385
G1 Y1.9943
G1 X1.1374 Y2.1493
G1 X1.2129 Y2.1475
G3 X1.2672 Y2.1472 I0.0284 J0.2267
G3 X1.2887 Y2.1537 I0.0018 J0.0328
G3 X1.2893 Y2.1545 I-0.0012 J0.0016
G3 X1.2926 Y2.1725 I-0.0379 J0.0162
G3 X1.2896 Y2.1905 I-0.0265 J0.0048
G3 X1.2893 Y2.1909 I-0.0017 J-0.001
G3 X1.2747 Y2.1993 I-0.0217 J-0.0209
G3 X1.2416 Y2.2028 I-0.0286 J-0.1113
G1 X1.2156 Y2.2029
G3 X1.1937 Y2.2002 I-0.001 J-0.0806
G3 X1.181 Y2.195 I0.007 J-0.0351
G3 X1.1807 Y2.1947 I0.0011 J-0.0017
G2 X1.1734 Y2.1898 I-0.0157 J0.0153
G3 X1.1733 Y2.1897 I0.0008 J-0.0018
G2 X1.1634 Y2.1861 I-0.0167 J0.0305
G1 X1.1633
G2 X1.1533 Y2.1847 I-0.0119 J0.0491
G2 X1.1426 Y2.1933 I0.0053 J0.0176
G2 X1.139 Y2.2455 I0.0707 J0.0311
G3 Y2.2456 I-0.0019 J0.0005
G3 X1.1422 Y2.2795 I-0.1376 J0.03
G1 X1.1426 Y2.33
G3 Y2.3301 I-0.002 J0.0
G2 X1.1413 Y2.3804 I1.0193 J0.0519
G1 X1.143 Y2.4753
G1 X1.1454 Y2.5226
G3 X1.148 Y2.5703 I-0.3017 J0.0403
G2 X1.1513 Y2.6243 I0.3185 J0.0079
G3 Y2.6246 I-0.002 J0.0003
G2 X1.1582 Y2.6783 I0.2228 J-0.0014
G2 X1.1741 Y2.7288 I0.2804 J-0.0606
G1 X1.1808 Y2.7414
G1 X1.1809 Y2.7415
G3 X1.1844 Y2.7535 I-0.034 J0.0165
G3 Y2.754 I-0.002 J0.0002
G1 X1.1836 Y2.7616
G3 Y2.762 I-0.002 J-0.0002
G2 X1.1838 Y2.7682 I0.0096 J0.0027
G1 X1.1839 Y2.7683
G2 X1.1896 Y2.7785 I0.0273 J-0.0087
G3 X1.1898 Y2.7786 I-0.0015 J0.0013
G2 X1.2002 Y2.7903 I0.0579 J-0.0412
G2 X1.2254 Y2.8045 I0.0405 J-0.0426
G2 X1.2934 Y2.8098 I0.0484 J-0.1845
G3 X1.2936 I0.0002 J0.002
G1 X1.4563 Y2.8097
G1 X1.5981 Y2.8076
G2 X1.6775 Y2.803 I-0.0039 J-0.7472
G3 X1.6776 I0.0002 J0.002
G2 X1.7099 Y2.795 I-0.0056 J-0.0923
G1 X1.7208 Y2.7883
G3 X1.7209 Y2.7882 I0.001 J0.0017
G1 X1.7308 Y2.7834
G3 X1.7312 Y2.7833 I0.0009 J0.0018
G1 X1.7378 Y2.7814
G3 X1.7386 I0.0005 J0.0019
G3 X1.7572 Y2.7924 I-0.003 J0.0264
G3 X1.7777 Y2.8138 I-0.1111 J0.1267
G3 X1.7881 Y2.8332 I-0.0181 J0.0223
G3 X1.7882 Y2.8334 I-0.002 J0.0002
G3 X1.785 Y2.8424 I-0.0151 J-0.0003
G1 X1.7779 Y2.8531
G3 X1.7777 Y2.8533 I-0.0017 J-0.0011
G1 X1.7677 Y2.8647
G3 X1.7559 Y2.8751 I-0.032 J-0.0243
G3 X1.7448 Y2.8825 I-0.0268 J-0.0283
G3 X1.7364 Y2.8854 I-0.012 J-0.0207
G3 X1.736 Y2.8855 I-0.0003 J-0.002
G3 X1.7272 Y2.8824 I0.0008 J-0.0163
G1 X1.7164 Y2.8752
G3 X1.7162 Y2.875 I0.0011 J-0.0017
G1 X1.7047 Y2.8649
G3 X1.7046 Y2.8648 I0.0013 J-0.0015
G2 X1.6763 Y2.8462 I-0.0475 J0.0416
G2 X1.6562 Y2.8489 I-0.0073 J0.023
G2 X1.648 Y2.8718 I0.0354 J0.0256
G3 Y2.872 I-0.002 J-0.0001
G3 X1.627 Y2.9193 I-0.0938 J-0.0132
G3 X1.5812 Y2.9447 I-0.0558 J-0.0469
G3 X1.5366 Y2.9331 I-0.0092 J-0.0562
G3 X1.5363 Y2.9328 I0.0012 J-0.0016
G2 X1.5289 Y2.9272 I-0.0152 J0.0124
G2 X1.523 Y2.9271 I-0.003 J0.0091
G2 X1.5152 Y2.933 I0.0207 J0.0355
G3 X1.5151 Y2.9331 I-0.0014 J-0.0014
G3 X1.4703 Y2.9447 I-0.0353 J-0.0436
G3 X1.4246 Y2.9189 I0.0103 J-0.0715
G3 X1.4245 Y2.9187 I0.0016 J-0.0013
G3 X1.4038 Y2.8707 I0.1169 J-0.0789
G3 X1.4037 Y2.8703 I0.002 J-0.0004
G1 Y2.8454
G1 X1.3114
G3 X1.2469 Y2.844 I-0.0214 J-0.4973
G3 X1.2117 Y2.8369 I0.0066 J-0.1232
G3 X1.2116 Y2.8368 I0.0007 J-0.0019
G3 X1.186 Y2.8199 I0.0403 J-0.0886
G1 X1.169 Y2.808
G2 X1.1534 Y2.8014 I-0.0405 J0.0734
G2 X1.1426 Y2.801 I-0.0061 J0.0218
G3 X1.1421 Y2.8011 I-0.0004 J-0.002
G3 X1.1197 Y2.7957 I0.0013 J-0.0554
G3 X1.1196 I0.0009 J-0.0018
G3 X1.0953 Y2.7761 I0.0414 J-0.0765
G3 X1.0834 Y2.7535 I0.0201 J-0.025
G3 Y2.7533 I0.002 J-0.0001
G3 X1.0866 Y2.7443 I0.0145 J0.0001
G3 X1.0942 Y2.733 I0.0637 J0.035
G1 X1.0943
G1 X1.1047 Y2.7211
G1 X1.1176 Y2.7041
G2 X1.1214 Y2.683 I-0.0384 J-0.0177
G3 Y2.6828 I0.002 J-0.0002
G2 X1.1183 Y2.6452 I-0.1772 J-0.0044
G3 Y2.6449 I0.002 J-0.0004
G1 X1.1146 Y2.5635
G1 X1.1137 Y2.5196
G0 Z0.125
G0 X1.1811 Y2.4899
G0 Z0.0624
G1 F20.0 Z-0.0026
G3 F40.0 X1.1785 Y2.4729 I0.03 J-0.0132
G1 Y2.448
G3 X1.1805 Y2.446 I0.002 J0.0
G1 X1.3157 Y2.4496
G1 X1.3855 Y2.4528
G1 X1.4119 Y2.455
G3 X1.4386 Y2.4576 I0.003 J0.1081
G3 X1.4635 Y2.4631 I-0.009 J0.1004
G3 X1.4638 Y2.4632 I-0.0007 J0.0019
G1 X1.4713 Y2.4672
G2 X1.4782 Y2.4681 I0.0048 J-0.01
G1 X1.4852 Y2.4661
G3 X1.4948 Y2.4648 I0.0076 J0.02
G3 X1.4951 I-0.0002 J0.002
G1 X1.5078 Y2.4681
G3 X1.5079 Y2.4682 I-0.0005 J0.0019
G3 X1.522 Y2.4754 I-0.0213 J0.0586
G2 X1.541 Y2.4836 I0.0626 J-0.1201
G2 X1.5677 Y2.489 I0.0608 J-0.2288
G2 X1.5985 Y2.491 I0.0343 J-0.2901
G1 X1.6506
G1 X1.6872 Y2.4274
G1 X1.7241 Y2.3632
G1 Y2.2232
G1 Y2.0846
G1 X1.5129
G1 X1.5128
G2 X1.3956 Y2.0858 I-0.036 J2.1451
G1 X1.3955
G1 X1.3576 Y2.087
G1 X1.3198 Y2.0894
G3 X1.3196 I-0.0001 J-0.002
G2 X1.3046 Y2.0912 I-0.0002 J0.0631
G3 X1.3044 I-0.0005 J-0.0019
G2 X1.2899 Y2.095 I0.0054 J0.0502
G3 X1.2775 Y2.1 I-0.0261 J-0.0463
G3 X1.2555 Y2.1028 I-0.0196 J-0.0665
G1 X1.2294 Y2.1027
G3 X1.1964 Y2.0992 I-0.0024 J-0.134
G3 X1.1817 Y2.0907 I0.0054 J-0.0264
G3 X1.1815 Y2.0903 I0.0015 J-0.0013
G3 X1.1785 Y2.0724 I0.0264 J-0.0136
G1 Y2.0475
G3 X1.1805 Y2.0455 I0.002 J0.0
G1 X1.5134 Y2.0491
G1 X1.8442 Y2.0527
G1 Y1.6682
G1 Y1.2837
G1 X1.5729
G1 X1.4212 Y1.2849
G1 X1.3259 Y1.2885
G2 X1.2898 Y1.2941 I0.0002 J0.1185
G3 X1.2775 Y1.2991 I-0.0278 J-0.0507
G3 X1.2555 Y1.3019 I-0.0194 J-0.0654
G1 X1.2294 Y1.3018
G3 X1.1964 Y1.2983 I-0.0024 J-0.1338
G3 X1.1817 Y1.2898 I0.0054 J-0.0264
G3 X1.1815 Y1.2894 I0.0015 J-0.0013
G3 X1.1785 Y1.2715 I0.0264 J-0.0136
G1 Y1.2466
G3 X1.1805 Y1.2446 I0.002 J0.0
G1 X1.5208 Y1.2481
G3 X1.5425 Y1.2479 I0.0127 J0.2286
G3 X1.6935 Y1.2508 I0.0425 J1.7237
G3 X1.6936 I-0.0001 J0.002
G2 X1.8182 Y1.2546 I0.0813 J-0.6209
G1 X1.8438 Y1.2529
G3 X1.8699 Y1.259 I0.0035 J0.0436
G3 X1.8705 Y1.2595 I-0.001 J0.0017
G3 X1.8777 Y1.2902 I-0.0306 J0.0234
G3 X1.8743 Y1.3201 I-0.1908 J-0.0062
G2 X1.8761 Y1.4675 I0.7232 J0.0649
G3 X1.8774 Y1.4936 I-0.0937 J0.0176
G3 X1.8759 Y1.6728 I-4.1185 J0.0545
G1 X1.8732 Y2.0776
G3 X1.8714 Y2.0796 I-0.002 J0.0
G1 X1.8138 Y2.0826
G1 X1.7581 Y2.0855
G1 Y2.2182
G1 Y2.3509
G1 X1.8037 Y2.3506
G2 X1.83 Y2.3484 I-0.0036 J-0.2058
G2 X1.8538 Y2.3431 I-0.0201 J-0.1453
G2 X1.8696 Y2.3359 I-0.0162 J-0.0564
G3 X1.8697 Y2.3358 I0.0011 J0.0017
G2 X1.8802 Y2.3286 I-0.0243 J-0.047
G3 X1.8806 Y2.3284 I0.0013 J0.0015
G1 X1.8905 Y2.3231
G3 X1.8909 Y2.3229 I0.0009 J0.0018
G1 X1.8976 Y2.3209
G3 X1.8984 I0.0006 J0.0019
G3 X1.9173 Y2.3318 I-0.003 J0.027
G3 X1.9378 Y2.3532 I-0.0929 J0.1099
G3 X1.9483 Y2.3727 I-0.0183 J0.0224
G3 Y2.3729 I-0.002 J0.0002
G3 X1.9452 Y2.3818 I-0.0151 J-0.0003
G1 X1.9381 Y2.3926
G3 X1.9379 Y2.3928 I-0.0017 J-0.0011
G1 X1.9279 Y2.4042
G3 X1.9161 Y2.4146 I-0.032 J-0.0244
G3 X1.905 Y2.422 I-0.0269 J-0.0285
G3 X1.8966 Y2.4249 I-0.0119 J-0.0204
G3 X1.8962 I-0.0003 J-0.002
G3 X1.8874 Y2.4218 I0.0008 J-0.0165
G1 X1.8766 Y2.4147
G3 X1.8764 Y2.4145 I0.0011 J-0.0017
G1 X1.8649 Y2.4044
G3 X1.8648 Y2.4043 I0.0013 J-0.0015
G2 X1.8493 Y2.3932 I-0.0319 J0.0284
G1 X1.8277 Y2.3868
G2 X1.7988 Y2.3849 I-0.023 J0.1266
G1 X1.7987
G1 X1.7523
G1 X1.7128 Y2.4515
G1 X1.6727 Y2.5191
