( Made using CamBam - http://www.cambam.co.uk )
( multinoise_panel 12/5/2014 10:53:21 PM )
( T3 : 3.175 )
( T10 : 0.0 )
G21 G90 G61 G40
G0 Z3.0
( T10 : 0.0 )
T10 M6
( Engrave1 )
G17
M3 S1000
G0 X4.7803 Y55.9301
G0 Z0.4
G1 F1000.0 Z-0.01
G3 F2000.0 X5.6046 Y55.8207 I0.8726 J3.4156
G3 X6.3624 Y55.9535 I0.0455 J1.9688
G3 X6.8819 Y56.3129 I-0.4975 J1.2744
G3 X7.1788 Y56.8442 I-1.0472 J0.9338
G3 X7.2764 Y57.4926 I-2.0158 J0.6352
G1 Y59.2426
G3 X7.1553 Y59.8793 I-1.9199 J-0.0353
G3 X6.8428 Y60.4028 I-1.4673 J-0.521
G3 X6.3585 Y60.7621 I-1.0897 J-0.9625
G3 X5.7257 Y60.8949 I-0.6103 J-1.334
G3 X5.085 Y60.7778 I-0.0145 J-1.7302
G3 X4.5733 Y60.4379 I0.5184 J-1.3357
G3 X4.2335 Y59.8949 I1.1337 J-1.0874
G3 X4.1085 Y59.1645 I1.8988 J-0.7009
G3 X4.2413 Y58.4965 I1.6222 J-0.0247
G3 X4.5928 Y57.9926 I1.4825 J0.6597
G3 X5.1124 Y57.6723 I1.0476 J1.1177
G3 X5.7491 Y57.5629 I0.6266 J1.7398
G3 X6.2921 Y57.6567 I0.0036 J1.5982
G2 X5.7491 Y57.5629 I-0.5393 J1.5043
G2 X5.1124 Y57.6723 I-0.0101 J1.849
G2 X4.5928 Y57.9926 I0.528 J1.4379
G2 X4.2413 Y58.4965 I1.1309 J1.1636
G2 X4.1085 Y59.1645 I1.4892 J0.6433
G2 X4.2335 Y59.8949 I2.024 J0.0296
G2 X4.5733 Y60.4379 I1.4737 J-0.5446
G2 X5.085 Y60.7778 I1.0301 J-0.9959
G2 X5.7257 Y60.8949 I0.6261 J-1.6131
G2 X6.3585 Y60.7621 I0.0225 J-1.4668
G2 X6.8428 Y60.4028 I-0.6052 J-1.3218
G2 X7.1553 Y59.8793 I-1.1547 J-1.0444
G2 X7.2764 Y59.2426 I-1.799 J-0.672
G1 Y57.4926
G2 X7.1788 Y56.8442 I-2.1134 J-0.0133
G2 X6.8819 Y56.3129 I-1.3441 J0.4026
G2 X6.3624 Y55.9535 I-1.017 J0.915
G2 X5.6046 Y55.8207 I-0.7123 J1.8358
G2 X4.7803 Y55.9301 I0.0485 J3.5254
G0 Z3.0
G0 X8.6553 Y57.6567
G0 Z0.4
G1 F1000.0 Z-0.01
G1 F2000.0 Y59.1606
G2 X8.7452 Y59.9184 I2.8297 J0.0488
G2 X8.9991 Y60.4379 I1.4932 J-0.4079
G2 X9.3741 Y60.7426 I0.8285 J-0.6366
G2 X9.8389 Y60.8832 I0.6704 J-1.3775
G3 X9.3741 Y60.7426 I0.2056 J-1.5181
G3 X8.9991 Y60.4379 I0.4535 J-0.9413
G3 X8.7452 Y59.9184 I1.2391 J-0.9274
G3 X8.6553 Y59.1606 I2.7393 J-0.709
G1 Y57.6567
G0 Z3.0
G0 Y57.6606
G0 Z0.4
G1 F1000.0 Z-0.01
G1 F2000.0 Y60.7934
G1 Y57.6606
G0 Z3.0
G0 X12.9561 Y57.7153
G0 Z0.4
G1 F1000.0 Z-0.01
G2 F2000.0 X12.3585 Y57.5629 I-0.5647 J0.967
G2 X11.7022 Y57.6879 I-0.0172 J1.6949
G2 X11.1866 Y58.0356 I0.6008 J1.4473
G2 X10.8507 Y58.5668 I1.1994 J1.1303
G2 X10.7335 Y59.2465 I1.7864 J0.658
G2 X10.8507 Y59.9145 I1.8298 J0.0232
G2 X11.1866 Y60.4379 I1.4542 J-0.5637
G2 X11.7022 Y60.7856 I1.1164 J-1.0996
G2 X12.3585 Y60.9106 I0.639 J-1.5699
G2 X12.9991 Y60.8012 I0.0221 J-1.8012
G2 X13.503 Y60.5004 I-0.526 J-1.4536
G2 X13.8311 Y60.0356 I-0.8377 J-0.9396
G2 X13.9483 Y59.4379 I-1.3684 J-0.5786
G1 Y57.6606
G1 Y59.4379
G3 X13.8311 Y60.0356 I-1.4856 J0.019
G3 X13.503 Y60.5004 I-1.1659 J-0.4748
G3 X12.9991 Y60.8012 I-1.0298 J-1.1528
G3 X12.3585 Y60.9106 I-0.6185 J-1.6919
G3 X11.7022 Y60.7856 I-0.0172 J-1.6949
G3 X11.1866 Y60.4379 I0.6008 J-1.4473
G3 X10.8507 Y59.9145 I1.1182 J-1.0872
G3 X10.7335 Y59.2465 I1.7127 J-0.6447
G3 X10.8507 Y58.5668 I1.9034 J-0.0218
G3 X11.1866 Y58.0356 I1.5353 J0.599
G3 X11.7022 Y57.6879 I1.1164 J1.0996
G3 X12.3585 Y57.5629 I0.639 J1.5699
G3 X12.9561 Y57.7153 I0.0329 J1.1193
G0 Z3.0
G0 X15.7335 Y57.6606
G0 Z0.4
G1 F1000.0 Z-0.01
G1 F2000.0 Y60.7934
G1 Y57.6606
G0 Z3.0
G0 X17.5577
G0 Z0.4
G1 F1000.0 Z-0.01
G1 F2000.0 Y59.5473
G2 X17.6358 Y60.0317 I1.5702 J-0.0048
G2 X17.8819 Y60.4692 I1.2293 J-0.4035
G2 X18.2842 Y60.7817 I0.9813 J-0.8482
G2 X18.8467 Y60.9028 I0.5366 J-1.1257
G2 X19.4014 Y60.7817 I0.0257 J-1.2131
G2 X19.8038 Y60.4692 I-0.5431 J-1.1145
G2 X20.046 Y60.0317 I-1.0221 J-0.8516
G2 X20.1319 Y59.5473 I-1.355 J-0.4902
G1 Y57.6606
G1 Y59.5473
G3 X20.046 Y60.0317 I-1.4409 J-0.0058
G3 X19.8038 Y60.4692 I-1.2642 J-0.4141
G3 X19.4014 Y60.7817 I-0.9454 J-0.802
G3 X18.8467 Y60.9028 I-0.5289 J-1.0919
G3 X18.2842 Y60.7817 I-0.0259 J-1.2467
G3 X17.8819 Y60.4692 I0.5789 J-1.1606
G3 X17.6358 Y60.0317 I0.9833 J-0.8411
G3 X17.5577 Y59.5473 I1.4925 J-0.4892
G1 Y57.6606
G0 Z3.0
G0 X21.9561
G0 Z0.4
G1 F1000.0 Z-0.01
G1 F2000.0 Y60.7934
G1 Y57.6606
G0 Z3.0
G0 X23.7803
G0 Z0.4
G1 F1000.0 Z-0.01
G1 F2000.0 Y59.5473
G2 X23.8585 Y60.0317 I1.5702 J-0.0048
G2 X24.1046 Y60.4692 I1.2293 J-0.4035
G2 X24.5069 Y60.7817 I0.9813 J-0.8482
G2 X25.0694 Y60.9028 I0.5366 J-1.1257
G2 X25.6241 Y60.7817 I0.0257 J-1.2131
G2 X26.0264 Y60.4692 I-0.5431 J-1.1145
G2 X26.2686 Y60.0317 I-1.0221 J-0.8516
G2 X26.3546 Y59.5473 I-1.355 J-0.4902
G1 Y57.6606
G1 Y59.5473
G3 X26.2686 Y60.0317 I-1.4409 J-0.0058
G3 X26.0264 Y60.4692 I-1.2642 J-0.4141
G3 X25.6241 Y60.7817 I-0.9454 J-0.802
G3 X25.0694 Y60.9028 I-0.5289 J-1.0919
G3 X24.5069 Y60.7817 I-0.0259 J-1.2467
G3 X24.1046 Y60.4692 I0.5789 J-1.1606
G3 X23.8585 Y60.0317 I0.9833 J-0.8411
G3 X23.7803 Y59.5473 I1.4925 J-0.4892
G1 Y57.6606
G0 Z3.0
G0 X27.7302 Y58.7374
G0 Z0.4
G1 F1000.0 Z-0.01
G2 F2000.0 X27.6671 Y59.2309 I1.7337 J0.4726
G2 X27.7921 Y59.9028 I1.7566 J0.0208
G2 X28.1319 Y60.4301 I1.4895 J-0.5867
G2 X28.6475 Y60.7738 I1.0546 J-1.0234
G2 X29.2999 Y60.8949 I0.6364 J-1.6107
G2 X30.1514 Y60.6762 I0.024 J-1.6733
G2 X30.4607 Y60.4352 I-0.6133 J-1.1061
G2 X30.6671 Y60.102 I-0.7536 J-0.6972
G1 X28.7296 Y59.0278
G1 X30.6671 Y60.102
G3 X30.1514 Y60.6762 I-1.0337 J-0.4096
G3 X29.2999 Y60.8949 I-0.8275 J-1.4545
G3 X28.6475 Y60.7738 I-0.0159 J-1.732
G3 X28.1319 Y60.4301 I0.539 J-1.367
G3 X27.7921 Y59.9028 I1.1496 J-1.114
G3 X27.6671 Y59.2309 I1.6315 J-0.6511
G3 X27.7921 Y58.5512 I1.797 J-0.0209
G3 X28.1319 Y58.0238 I1.5367 J0.6172
G3 X28.6475 Y57.684 I1.0637 J1.0527
G3 X29.2999 Y57.5668 I0.6359 J1.6658
G3 X29.8148 Y57.6338 I0.0146 J1.8997
G3 X30.2842 Y57.8559 I-0.4076 J1.4689
G3 X30.649 Y58.2356 I-0.8115 J1.1447
G3 X30.8663 Y58.7153 I-1.5191 J0.977
G2 X30.649 Y58.2356 I-1.7368 J0.4975
G2 X30.2842 Y57.8559 I-1.1762 J0.7649
G2 X29.2999 Y57.5668 I-0.9397 J1.3794
G2 X28.6475 Y57.684 I-0.0164 J1.7832
G2 X28.1319 Y58.0238 I0.548 J1.3925
G2 X27.7921 Y58.5512 I1.1967 J1.1444
G2 X27.7302 Y58.7374 I1.6718 J0.6588
G0 Z3.0
G0 X32.0928 Y57.6606
G0 Z0.4
G1 F1000.0 Z-0.01
G1 F2000.0 X33.71
G3 X34.0295 Y57.6917 I0.0159 J1.4917
G3 X34.3233 Y57.8207 I-0.1425 J0.7236
G3 X34.4926 Y58.0674 I-0.3049 J0.3906
G3 X34.5342 Y58.3637 I-0.9127 J0.2794
G3 X34.4919 Y58.6067 I-0.6636 J0.0097
G3 X34.3507 Y58.809 I-0.4888 J-0.191
G3 X33.9014 Y59.0785 I-0.9517 J-1.077
G3 X33.3194 Y59.2621 I-1.4383 J-3.5453
G2 X32.7335 Y59.4418 I1.2301 J5.0563
G2 X32.2882 Y59.7035 I0.5475 J1.4413
G2 X32.1085 Y60.1215 I0.3467 J0.3967
G2 X32.1788 Y60.4692 I0.7432 J0.0306
G2 X32.3741 Y60.6723 I0.4621 J-0.2488
G2 X32.6592 Y60.7699 I0.388 J-0.6678
G2 X32.9874 Y60.7973 I0.3252 J-1.9199
G1 X34.3585
G1 X32.9874
G3 X32.6592 Y60.7699 I-0.003 J-1.9461
G3 X32.3741 Y60.6723 I0.1028 J-0.7655
G3 X32.1788 Y60.4692 I0.2667 J-0.4519
G3 X32.1085 Y60.1215 I0.6729 J-0.317
G3 X32.2882 Y59.7035 I0.5264 J-0.0213
G3 X32.7335 Y59.4418 I0.9929 J1.1797
G3 X33.3194 Y59.2621 I1.8164 J4.878
G2 X33.9014 Y59.0785 I-0.8561 J-3.7285
G2 X34.3507 Y58.809 I-0.5026 J-1.3467
G2 X34.5342 Y58.3637 I-0.3845 J-0.419
G2 X34.4926 Y58.0674 I-0.954 J-0.0169
G2 X34.3233 Y57.8207 I-0.4742 J0.144
G2 X34.0295 Y57.6917 I-0.4364 J0.5946
G2 X33.71 Y57.6606 I-0.3036 J1.4612
G1 X32.0928
G0 Z3.0
G0 X35.6436
G0 Z0.4
G1 F1000.0 Z-0.01
G1 F2000.0 X37.2608
G3 X37.5802 Y57.6917 I0.0159 J1.4917
G3 X37.8741 Y57.8207 I-0.1425 J0.7236
G3 X38.0434 Y58.0674 I-0.3049 J0.3906
G3 X38.085 Y58.3637 I-0.9127 J0.2794
G3 X38.0427 Y58.6067 I-0.6636 J0.0097
G3 X37.9014 Y58.809 I-0.4888 J-0.191
G3 X37.4522 Y59.0785 I-0.9517 J-1.077
G3 X36.8702 Y59.2621 I-1.4383 J-3.5453
G2 X36.2842 Y59.4418 I1.2301 J5.0563
G2 X35.8389 Y59.7035 I0.5475 J1.4413
G2 X35.6592 Y60.1215 I0.3467 J0.3967
G2 X35.7296 Y60.4692 I0.7432 J0.0306
G2 X35.9249 Y60.6723 I0.4621 J-0.2488
G2 X36.21 Y60.7699 I0.388 J-0.6678
G2 X36.5382 Y60.7973 I0.3252 J-1.9199
G1 X37.9092
G1 X36.5382
G3 X36.21 Y60.7699 I-0.003 J-1.9461
G3 X35.9249 Y60.6723 I0.1028 J-0.7655
G3 X35.7296 Y60.4692 I0.2667 J-0.4519
G3 X35.6592 Y60.1215 I0.6729 J-0.317
G3 X35.8389 Y59.7035 I0.5264 J-0.0213
G3 X36.2842 Y59.4418 I0.9929 J1.1797
G3 X36.8702 Y59.2621 I1.8164 J4.878
G2 X37.4522 Y59.0785 I-0.8561 J-3.7285
G2 X37.9014 Y58.809 I-0.5026 J-1.3467
G2 X38.085 Y58.3637 I-0.3845 J-0.419
G2 X38.0434 Y58.0674 I-0.954 J-0.0169
G2 X37.8741 Y57.8207 I-0.4742 J0.144
G2 X37.5802 Y57.6917 I-0.4364 J0.5946
G2 X37.2608 Y57.6606 I-0.3036 J1.4612
G1 X35.6436
G0 Z3.0
G0 X31.0167 Y46.1838
G0 Z0.4
G1 F1000.0 Z-0.01
G1 F2000.0 Y44.2542
G2 X30.9347 Y43.7502 I-1.4952 J-0.0152
G2 X30.7003 Y43.344 I-1.1098 J0.3696
G2 X30.3097 Y43.0706 I-0.825 J0.7628
G2 X29.7667 Y42.9729 I-0.5133 J1.2959
G2 X29.2199 Y43.0706 I-0.0282 J1.4219
G2 X28.8332 Y43.344 I0.4455 J1.0403
G2 X28.5988 Y43.7502 I0.8754 J0.7758
G2 X28.5207 Y44.2542 I1.4853 J0.4883
G1 Y46.1838
G1 Y44.2542
G3 X28.5988 Y43.7502 I1.5635 J-0.0156
G3 X28.8332 Y43.344 I1.1098 J0.3696
G3 X29.2199 Y43.0706 I0.8323 J0.7669
G3 X29.7667 Y42.9729 I0.5186 J1.3242
G3 X30.3097 Y43.0706 I0.0297 J1.3934
G3 X30.7003 Y43.344 I-0.4343 J1.0362
G3 X30.9347 Y43.7502 I-0.8754 J0.7758
G3 X31.0167 Y44.2542 I-1.4134 J0.4887
G1 Y46.1838
G0 Z3.0
G0 X29.7667 Y42.9729
G0 Z0.0
G1 F1000.0 Z-0.01
G1 F2000.0 Y41.3479
G1 Y42.9729
G0 Z3.0
G0 X27.0519 Y43.0706
G0 Z0.4
G1 F1000.0 Z-0.01
G1 F2000.0 Y44.9573
G3 X26.966 Y45.4417 I-1.4409 J-0.0058
G3 X26.7238 Y45.8792 I-1.2642 J-0.4141
G3 X26.3214 Y46.1917 I-0.9454 J-0.802
G3 X25.7667 Y46.3127 I-0.5289 J-1.0919
G3 X25.2042 Y46.1917 I-0.0259 J-1.2467
G3 X24.8019 Y45.8792 I0.5789 J-1.1606
G3 X24.5558 Y45.4417 I0.9833 J-0.8411
G3 X24.4777 Y44.9573 I1.4925 J-0.4892
G1 Y43.0706
G1 Y44.9573
G2 X24.5558 Y45.4417 I1.5702 J-0.0048
G2 X24.8019 Y45.8792 I1.2293 J-0.4035
G2 X25.2042 Y46.1917 I0.9813 J-0.8482
G2 X25.7667 Y46.3127 I0.5366 J-1.1257
G2 X26.3214 Y46.1917 I0.0257 J-1.2131
G2 X26.7238 Y45.8792 I-0.5431 J-1.1145
G2 X26.966 Y45.4417 I-1.0221 J-0.8516
G2 X27.0519 Y44.9573 I-1.355 J-0.4902
G1 Y43.0706
G0 Z3.0
G0 X22.6535
G0 Z0.4
G1 F1000.0 Z-0.01
G1 F2000.0 Y46.2034
G1 Y43.0706
G0 Z3.0
G0 X20.8683
G0 Z0.4
G1 F1000.0 Z-0.01
G1 F2000.0 Y44.8479
G3 X20.7511 Y45.4456 I-1.4856 J0.019
G3 X20.423 Y45.9104 I-1.1659 J-0.4748
G3 X19.9191 Y46.2112 I-1.0298 J-1.1528
G3 X19.2785 Y46.3206 I-0.6185 J-1.6919
G3 X18.6222 Y46.1956 I-0.0172 J-1.6949
G3 X18.1066 Y45.8479 I0.6008 J-1.4473
G3 X17.7707 Y45.3245 I1.1182 J-1.0872
G3 X17.6535 Y44.6565 I1.7127 J-0.6447
G3 X17.7707 Y43.9768 I1.9034 J-0.0218
G3 X18.1066 Y43.4456 I1.5353 J0.599
G3 X18.6222 Y43.0979 I1.1164 J1.0996
G3 X19.2785 Y42.9729 I0.639 J1.5699
G3 X19.8761 Y43.1252 I0.0329 J1.1193
G2 X19.2785 Y42.9729 I-0.5647 J0.967
G2 X18.6222 Y43.0979 I-0.0172 J1.6949
G2 X18.1066 Y43.4456 I0.6008 J1.4473
G2 X17.7707 Y43.9768 I1.1994 J1.1303
G2 X17.6535 Y44.6565 I1.7864 J0.658
G2 X17.7707 Y45.3245 I1.8298 J0.0232
G2 X18.1066 Y45.8479 I1.4542 J-0.5637
G2 X18.6222 Y46.1956 I1.1164 J-1.0996
G2 X19.2785 Y46.3206 I0.639 J-1.5699
G2 X19.9191 Y46.2112 I0.0221 J-1.8012
G2 X20.423 Y45.9104 I-0.526 J-1.4536
G2 X20.7511 Y45.4456 I-0.8377 J-0.9396
G2 X20.8683 Y44.8479 I-1.3684 J-0.5786
G1 Y43.0706
G0 Z3.0
G0 X22.624 Y47.3484
G0 Z0.4
G1 F1000.0 Z-0.01
G2 F2000.0 X22.5988 Y47.3674 I0.0235 J0.0573
G2 X22.5832 Y47.4143 I0.0688 J0.049
G2 X22.6535 Y47.4885 I0.0631 J0.0106
G2 X22.7277 Y47.4143 I0.0093 J-0.0649
G2 X22.7082 Y47.3674 I-0.0741 J0.0034
G2 X22.6535 Y47.344 I-0.0487 J0.0382
G2 X22.624 Y47.3484 I-0.0059 J0.0616
G2 X22.5988 Y47.3674 I0.0235 J0.0573
G2 X22.5832 Y47.4143 I0.0688 J0.049
G2 X22.6535 Y47.4885 I0.0631 J0.0106
G2 X22.7277 Y47.4143 I0.0093 J-0.0649
G2 X22.7082 Y47.3674 I-0.0741 J0.0034
G2 X22.6535 Y47.344 I-0.0487 J0.0382
G2 X22.624 Y47.3484 I-0.0059 J0.0616
G3 X22.6535 Y47.344 I0.0235 J0.0573
G3 X22.7082 Y47.3674 I0.0059 J0.0616
G3 X22.7277 Y47.4143 I-0.0545 J0.0502
G3 X22.6535 Y47.4885 I-0.0649 J0.0093
G3 X22.5832 Y47.4143 I-0.0072 J-0.0636
G3 X22.5988 Y47.3674 I0.0844 J0.0021
G3 X22.624 Y47.3484 I0.0487 J0.0382
G3 X22.6535 Y47.344 I0.0235 J0.0573
G3 X22.7082 Y47.3674 I0.0059 J0.0616
G3 X22.7277 Y47.4143 I-0.0545 J0.0502
G3 X22.6535 Y47.4885 I-0.0649 J0.0093
G3 X22.5832 Y47.4143 I-0.0072 J-0.0636
G3 X22.5988 Y47.3674 I0.0844 J0.0021
G3 X22.624 Y47.3484 I0.0487 J0.0382
G0 Z3.0
G0 X16.7589 Y46.2932
G0 Z0.4
G1 F1000.0 Z-0.01
G3 F2000.0 X16.2941 Y46.1526 I0.2056 J-1.5181
G3 X15.9191 Y45.8479 I0.4535 J-0.9413
G3 X15.6652 Y45.3284 I1.2391 J-0.9274
G3 X15.5753 Y44.5706 I2.7393 J-0.709
G1 Y43.0667
G1 Y44.5706
G2 X15.6652 Y45.3284 I2.8297 J0.0488
G2 X15.9191 Y45.8479 I1.4932 J-0.4079
G2 X16.2941 Y46.1526 I0.8285 J-0.6366
G2 X16.7589 Y46.2932 I0.6704 J-1.3775
G0 Z3.0
G0 X15.5753 Y46.2034
G0 Z0.4
G1 F1000.0 Z-0.01
G1 F2000.0 Y43.0706
G1 Y46.2034
G0 Z3.0
G0 X11.7003 Y41.3401
G0 Z0.4
G1 F1000.0 Z-0.01
G3 F2000.0 X12.5246 Y41.2307 I0.8726 J3.4156
G3 X13.2824 Y41.3635 I0.0455 J1.9688
G3 X13.8019 Y41.7229 I-0.4975 J1.2744
G3 X14.0988 Y42.2542 I-1.0472 J0.9338
G3 X14.1964 Y42.9026 I-2.0158 J0.6352
G1 Y44.6526
G3 X14.0753 Y45.2893 I-1.9199 J-0.0353
G3 X13.7628 Y45.8127 I-1.4673 J-0.521
G3 X13.2785 Y46.1721 I-1.0897 J-0.9625
G3 X12.6457 Y46.3049 I-0.6103 J-1.334
G3 X12.005 Y46.1877 I-0.0145 J-1.7302
G3 X11.4933 Y45.8479 I0.5184 J-1.3357
G3 X11.1535 Y45.3049 I1.1337 J-1.0874
G3 X11.0285 Y44.5745 I1.8988 J-0.7009
G3 X11.1613 Y43.9065 I1.6222 J-0.0247
G3 X11.5128 Y43.4026 I1.4825 J0.6597
G3 X12.0324 Y43.0823 I1.0476 J1.1177
G3 X12.6691 Y42.9729 I0.6266 J1.7398
G3 X13.2121 Y43.0667 I0.0036 J1.5982
G2 X12.6691 Y42.9729 I-0.5393 J1.5043
G2 X12.0324 Y43.0823 I-0.0101 J1.849
G2 X11.5128 Y43.4026 I0.528 J1.4379
G2 X11.1613 Y43.9065 I1.1309 J1.1636
G2 X11.0285 Y44.5745 I1.4892 J0.6433
G2 X11.1535 Y45.3049 I2.024 J0.0296
G2 X11.4933 Y45.8479 I1.4737 J-0.5446
G2 X12.005 Y46.1877 I1.0301 J-0.9959
G2 X12.6457 Y46.3049 I0.6261 J-1.6131
G2 X13.2785 Y46.1721 I0.0225 J-1.4668
G2 X13.7628 Y45.8127 I-0.6052 J-1.3218
G2 X14.0753 Y45.2893 I-1.1547 J-1.0444
G2 X14.1964 Y44.6526 I-1.799 J-0.672
G1 Y42.9026
G2 X14.0988 Y42.2542 I-2.1134 J-0.0133
G2 X13.8019 Y41.7229 I-1.3441 J0.4026
G2 X13.2824 Y41.3635 I-1.017 J0.915
G2 X12.5246 Y41.2307 I-0.7123 J1.8358
G2 X11.7003 Y41.3401 I0.0485 J3.5254
G0 Z3.0
G0 X11.6903 Y27.6301
G0 Z0.4
G1 F1000.0 Z-0.01
G3 F2000.0 X12.5146 Y27.5207 I0.8726 J3.4156
G3 X13.2724 Y27.6535 I0.0455 J1.9688
G3 X13.7919 Y28.0129 I-0.4975 J1.2744
G3 X14.0888 Y28.5442 I-1.0472 J0.9338
G3 X14.1864 Y29.1926 I-2.0158 J0.6352
G1 Y30.9426
G3 X14.0653 Y31.5793 I-1.9199 J-0.0353
G3 X13.7528 Y32.1028 I-1.4673 J-0.521
G3 X13.2685 Y32.4621 I-1.0897 J-0.9625
G3 X12.6357 Y32.5949 I-0.6103 J-1.334
G3 X11.995 Y32.4778 I-0.0145 J-1.7302
G3 X11.4833 Y32.1379 I0.5184 J-1.3357
G3 X11.1435 Y31.5949 I1.1337 J-1.0874
G3 X11.0185 Y30.8645 I1.8988 J-0.7009
G3 X11.1513 Y30.1965 I1.6222 J-0.0247
G3 X11.5028 Y29.6926 I1.4825 J0.6597
G3 X12.0224 Y29.3723 I1.0476 J1.1177
G3 X12.6591 Y29.2629 I0.6266 J1.7398
G3 X13.2021 Y29.3567 I0.0036 J1.5982
G2 X12.6591 Y29.2629 I-0.5393 J1.5043
G2 X12.0224 Y29.3723 I-0.0101 J1.849
G2 X11.5028 Y29.6926 I0.528 J1.4379
G2 X11.1513 Y30.1965 I1.1309 J1.1636
G2 X11.0185 Y30.8645 I1.4892 J0.6433
G2 X11.1435 Y31.5949 I2.024 J0.0296
G2 X11.4833 Y32.1379 I1.4737 J-0.5446
G2 X11.995 Y32.4778 I1.0301 J-0.9959
G2 X12.6357 Y32.5949 I0.6261 J-1.6131
G2 X13.2685 Y32.4621 I0.0225 J-1.4668
G2 X13.7528 Y32.1028 I-0.6052 J-1.3218
G2 X14.0653 Y31.5793 I-1.1547 J-1.0444
G2 X14.1864 Y30.9426 I-1.799 J-0.672
G1 Y29.1926
G2 X14.0888 Y28.5442 I-2.1134 J-0.0133
G2 X13.7919 Y28.0129 I-1.3441 J0.4026
G2 X13.2724 Y27.6535 I-1.017 J0.915
G2 X12.5146 Y27.5207 I-0.7123 J1.8358
G2 X11.6903 Y27.6301 I0.0485 J3.5254
G0 Z3.0
G0 X15.6608 Y30.0168
G0 Z0.4
G1 F1000.0 Z-0.01
G3 F2000.0 X15.8739 Y29.7356 I1.4125 J0.849
G3 X16.3896 Y29.3879 I1.1164 J1.0996
G3 X17.0458 Y29.2629 I0.639 J1.5699
G3 X17.6435 Y29.4153 I0.0329 J1.1193
G2 X17.0458 Y29.2629 I-0.5647 J0.967
G2 X16.3896 Y29.3879 I-0.0172 J1.6949
G2 X15.8739 Y29.7356 I0.6008 J1.4473
G2 X15.538 Y30.2668 I1.1994 J1.1303
G2 X15.4208 Y30.9465 I1.7864 J0.658
G2 X15.538 Y31.6145 I1.8298 J0.0232
G2 X15.8739 Y32.1379 I1.4542 J-0.5637
G2 X16.3896 Y32.4856 I1.1164 J-1.0996
G2 X17.0458 Y32.6106 I0.639 J-1.5699
G2 X17.6864 Y32.5012 I0.0221 J-1.8012
G2 X18.1903 Y32.2004 I-0.526 J-1.4536
G2 X18.5185 Y31.7356 I-0.8377 J-0.9396
G2 X18.6357 Y31.1379 I-1.3684 J-0.5786
G1 Y29.3606
G1 Y31.1379
G3 X18.5185 Y31.7356 I-1.4856 J0.019
G3 X18.1903 Y32.2004 I-1.1659 J-0.4748
G3 X17.6864 Y32.5012 I-1.0298 J-1.1528
G3 X17.0458 Y32.6106 I-0.6185 J-1.6919
G3 X16.3896 Y32.4856 I-0.0172 J-1.6949
G3 X15.8739 Y32.1379 I0.6008 J-1.4473
G3 X15.538 Y31.6145 I1.1182 J-1.0872
G3 X15.4208 Y30.9465 I1.7127 J-0.6447
G3 X15.538 Y30.2668 I1.9034 J-0.0218
G3 X15.6608 Y30.0168 I1.5353 J0.599
G0 Z3.0
G0 X20.1322 Y30.1487
G0 Z0.4
G1 F1000.0 Z-0.01
G3 F2000.0 X20.1736 Y29.8565 I1.3273 J0.0392
G3 X20.3544 Y29.552 I0.5884 J0.1433
G3 X20.642 Y29.4018 I0.4906 J0.5892
G3 X20.9638 Y29.3606 I0.3085 J1.1306
G1 X21.5107
G1 X20.9638
G2 X20.642 Y29.4018 I-0.0133 J1.1718
G2 X20.3544 Y29.552 I0.2031 J0.7395
G2 X20.1736 Y29.8565 I0.4076 J0.4479
G2 X20.1317 Y30.2082 I1.2862 J0.3314
G1 Y33.4582
G1 Y30.2082
G3 X20.1322 Y30.1487 I1.3277 J-0.0203
G0 Z3.0
G0 X21.5107 Y32.5129
G0 Z0.4
G1 F1000.0 Z-0.01
G1 F2000.0 X20.1317
G1 X21.5107
G0 Z3.0
G0 X22.7904 Y31.7973
G0 Z0.4
G1 F1000.0 Z-0.01
G3 F2000.0 X22.6982 Y31.6028 I1.3972 J-0.7813
G3 X22.5732 Y30.9309 I1.6315 J-0.6511
G3 X22.6982 Y30.2512 I1.797 J-0.0209
G3 X23.038 Y29.7238 I1.5367 J0.6172
G3 X23.5536 Y29.384 I1.0637 J1.0527
G3 X24.206 Y29.2668 I0.6359 J1.6658
G3 X24.7209 Y29.3338 I0.0146 J1.8997
G3 X25.1903 Y29.5559 I-0.4076 J1.4689
G3 X25.5551 Y29.9356 I-0.8115 J1.1447
G3 X25.7724 Y30.4153 I-1.5191 J0.977
G2 X25.5551 Y29.9356 I-1.7368 J0.4975
G2 X25.1903 Y29.5559 I-1.1762 J0.7649
G2 X24.206 Y29.2668 I-0.9397 J1.3794
G2 X23.5536 Y29.384 I-0.0164 J1.7832
G2 X23.038 Y29.7238 I0.548 J1.3925
G2 X22.6982 Y30.2512 I1.1967 J1.1444
G2 X22.5732 Y30.9309 I1.6718 J0.6588
G2 X22.6982 Y31.6028 I1.7566 J0.0208
G2 X23.038 Y32.1301 I1.4895 J-0.5867
G2 X23.5536 Y32.4738 I1.0546 J-1.0234
G2 X24.206 Y32.5949 I0.6364 J-1.6107
G2 X25.0575 Y32.3762 I0.024 J-1.6733
G2 X25.3668 Y32.1352 I-0.6133 J-1.1061
G2 X25.5732 Y31.802 I-0.7536 J-0.6972
G1 X23.6357 Y30.7278
G1 X25.5732 Y31.802
G3 X25.0575 Y32.3762 I-1.0337 J-0.4096
G3 X24.206 Y32.5949 I-0.8275 J-1.4545
G3 X23.5536 Y32.4738 I-0.0159 J-1.732
G3 X23.038 Y32.1301 I0.539 J-1.367
G3 X22.7904 Y31.7973 I1.1496 J-1.114
G0 Z3.0
G0 X28.6161 Y29.3606
G0 Z0.4
G1 F1000.0 Z-0.01
G3 F2000.0 X28.9356 Y29.3917 I0.0159 J1.4917
G3 X29.2294 Y29.5207 I-0.1425 J0.7236
G3 X29.3987 Y29.7674 I-0.3049 J0.3906
G3 X29.4403 Y30.0637 I-0.9127 J0.2794
G3 X29.398 Y30.3067 I-0.6636 J0.0097
G3 X29.2567 Y30.509 I-0.4888 J-0.191
G3 X28.8075 Y30.7785 I-0.9517 J-1.077
G3 X28.2255 Y30.9621 I-1.4383 J-3.5453
G2 X27.6396 Y31.1418 I1.2301 J5.0563
G2 X27.1942 Y31.4035 I0.5475 J1.4413
G2 X27.0146 Y31.8215 I0.3467 J0.3967
G2 X27.0849 Y32.1692 I0.7432 J0.0306
G2 X27.2802 Y32.3723 I0.4621 J-0.2488
G2 X27.5653 Y32.4699 I0.388 J-0.6678
G2 X27.8935 Y32.4973 I0.3252 J-1.9199
G1 X29.2646
G1 X27.8935
G3 X27.5653 Y32.4699 I-0.003 J-1.9461
G3 X27.2802 Y32.3723 I0.1028 J-0.7655
G3 X27.0849 Y32.1692 I0.2667 J-0.4519
G3 X27.0146 Y31.8215 I0.6729 J-0.317
G3 X27.1942 Y31.4035 I0.5264 J-0.0213
G3 X27.6396 Y31.1418 I0.9929 J1.1797
G3 X28.2255 Y30.9621 I1.8164 J4.878
G2 X28.8075 Y30.7785 I-0.8561 J-3.7285
G2 X29.2567 Y30.509 I-0.5026 J-1.3467
G2 X29.4403 Y30.0637 I-0.3845 J-0.419
G2 X29.3987 Y29.7674 I-0.954 J-0.0169
G2 X29.2294 Y29.5207 I-0.4742 J0.144
G2 X28.9356 Y29.3917 I-0.4364 J0.5946
G2 X28.6161 Y29.3606 I-0.3036 J1.4612
G1 X26.9989
G1 X28.6161
G0 Z3.0
G0 X29.0322 Y19.5235
G0 Z0.4
G1 F1000.0 Z-0.01
G2 F2000.0 X29.1213 Y19.5249 I0.0732 J-1.7304
G2 X29.9728 Y19.3062 I0.024 J-1.6733
G2 X30.2821 Y19.0652 I-0.6133 J-1.1061
G2 X30.4885 Y18.732 I-0.7536 J-0.6972
G1 X28.551 Y17.6578
G1 X30.4885 Y18.732
G3 X29.9728 Y19.3062 I-1.0337 J-0.4096
G3 X29.1213 Y19.5249 I-0.8275 J-1.4545
G3 X28.4689 Y19.4038 I-0.0159 J-1.732
G3 X27.9533 Y19.0601 I0.539 J-1.367
G3 X27.6135 Y18.5328 I1.1496 J-1.114
G3 X27.4885 Y17.8609 I1.6315 J-0.6511
G3 X27.6135 Y17.1812 I1.797 J-0.0209
G3 X27.9533 Y16.6538 I1.5367 J0.6172
G3 X28.4689 Y16.314 I1.0637 J1.0527
G3 X29.1213 Y16.1968 I0.6359 J1.6658
G3 X29.6362 Y16.2638 I0.0146 J1.8997
G3 X30.1057 Y16.4859 I-0.4076 J1.4689
G3 X30.4705 Y16.8656 I-0.8115 J1.1447
G3 X30.6877 Y17.3453 I-1.5191 J0.977
G2 X30.4705 Y16.8656 I-1.7368 J0.4975
G2 X30.1057 Y16.4859 I-1.1762 J0.7649
G2 X29.1213 Y16.1968 I-0.9397 J1.3794
G2 X28.4689 Y16.314 I-0.0164 J1.7832
G2 X27.9533 Y16.6538 I0.548 J1.3925
G2 X27.6135 Y17.1812 I1.1967 J1.1444
G2 X27.4885 Y17.8609 I1.6718 J0.6588
G2 X27.6135 Y18.5328 I1.7566 J0.0208
G2 X27.9533 Y19.0601 I1.4895 J-0.5867
G2 X28.4689 Y19.4038 I1.0546 J-1.0234
G2 X29.0322 Y19.5235 I0.6364 J-1.6107
G0 Z3.0
G0 X32.0432 Y19.4234
G0 Z0.4
G1 F1000.0 Z-0.01
G1 F2000.0 Y16.2906
G1 Y19.4234
G0 Z3.0
G0 Y17.7906
G0 Z0.4
G1 F1000.0 Z-0.01
G2 F2000.0 X32.133 Y18.5484 I2.8297 J0.0488
G2 X32.3869 Y19.0679 I1.4932 J-0.4079
G2 X32.7619 Y19.3726 I0.8285 J-0.6366
G2 X33.2267 Y19.5132 I0.6704 J-1.3775
G3 X32.7619 Y19.3726 I0.2056 J-1.5181
G3 X32.3869 Y19.0679 I0.4535 J-0.9413
G3 X32.133 Y18.5484 I1.2391 J-0.9274
G3 X32.0432 Y17.7906 I2.7393 J-0.709
G1 Y16.2867
G1 Y17.7906
G0 Z3.0
G0 X35.7541 Y16.2906
G0 Z0.4
G1 F1000.0 Z-0.01
G3 F2000.0 X36.0735 Y16.3217 I0.0159 J1.4917
G3 X36.3674 Y16.4507 I-0.1425 J0.7236
G3 X36.5367 Y16.6974 I-0.3049 J0.3906
G3 X36.5783 Y16.9937 I-0.9127 J0.2794
G3 X36.536 Y17.2367 I-0.6636 J0.0097
G3 X36.3947 Y17.439 I-0.4888 J-0.191
G3 X35.9455 Y17.7085 I-0.9517 J-1.077
G3 X35.3635 Y17.8921 I-1.4383 J-3.5453
G2 X34.7775 Y18.0718 I1.2301 J5.0563
G2 X34.3322 Y18.3335 I0.5475 J1.4413
G2 X34.1525 Y18.7515 I0.3467 J0.3967
G2 X34.2228 Y19.0992 I0.7432 J0.0306
G2 X34.4182 Y19.3023 I0.4621 J-0.2488
G2 X34.7033 Y19.3999 I0.388 J-0.6678
G2 X35.0314 Y19.4273 I0.3252 J-1.9199
G1 X36.4025
G1 X35.0314
G3 X34.7033 Y19.3999 I-0.003 J-1.9461
G3 X34.4182 Y19.3023 I0.1028 J-0.7655
G3 X34.2228 Y19.0992 I0.2667 J-0.4519
G3 X34.1525 Y18.7515 I0.6729 J-0.317
G3 X34.3322 Y18.3335 I0.5264 J-0.0213
G3 X34.7775 Y18.0718 I0.9929 J1.1797
G3 X35.3635 Y17.8921 I1.8164 J4.878
G2 X35.9455 Y17.7085 I-0.8561 J-3.7285
G2 X36.3947 Y17.439 I-0.5026 J-1.3467
G2 X36.5783 Y16.9937 I-0.3845 J-0.419
G2 X36.5367 Y16.6974 I-0.954 J-0.0169
G2 X36.3674 Y16.4507 I-0.4742 J0.144
G2 X36.0735 Y16.3217 I-0.4364 J0.5946
G2 X35.7541 Y16.2906 I-0.3036 J1.4612
G1 X34.1369
G1 X35.7541
G0 Z3.0
G0 X23.7189 Y14.5601
G0 Z0.4
G1 F1000.0 Z-0.01
G3 F2000.0 X24.5432 Y14.4507 I0.8726 J3.4156
G3 X25.301 Y14.5835 I0.0455 J1.9688
G3 X25.8205 Y14.9429 I-0.4975 J1.2744
G3 X26.1174 Y15.4742 I-1.0472 J0.9338
G3 X26.215 Y16.1226 I-2.0158 J0.6352
G1 Y17.8726
G3 X26.0939 Y18.5093 I-1.9199 J-0.0353
G3 X25.7814 Y19.0328 I-1.4673 J-0.521
G3 X25.2971 Y19.3921 I-1.0897 J-0.9625
G3 X24.6642 Y19.5249 I-0.6103 J-1.334
G3 X24.0236 Y19.4078 I-0.0145 J-1.7302
G3 X23.5119 Y19.0679 I0.5184 J-1.3357
G3 X23.1721 Y18.5249 I1.1337 J-1.0874
G3 X23.0471 Y17.7945 I1.8988 J-0.7009
G3 X23.1799 Y17.1265 I1.6222 J-0.0247
G3 X23.5314 Y16.6226 I1.4825 J0.6597
G3 X24.051 Y16.3023 I1.0476 J1.1177
G3 X24.6877 Y16.1929 I0.6266 J1.7398
G3 X25.2307 Y16.2867 I0.0036 J1.5982
G2 X24.6877 Y16.1929 I-0.5393 J1.5043
G2 X24.051 Y16.3023 I-0.0101 J1.849
G2 X23.5314 Y16.6226 I0.528 J1.4379
G2 X23.1799 Y17.1265 I1.1309 J1.1636
G2 X23.0471 Y17.7945 I1.4892 J0.6433
G2 X23.1721 Y18.5249 I2.024 J0.0296
G2 X23.5119 Y19.0679 I1.4737 J-0.5446
G2 X24.0236 Y19.4078 I1.0301 J-0.9959
G2 X24.6642 Y19.5249 I0.6261 J-1.6131
G2 X25.2971 Y19.3921 I0.0225 J-1.4668
G2 X25.7814 Y19.0328 I-0.6052 J-1.3218
G2 X26.0939 Y18.5093 I-1.1547 J-1.0444
G2 X26.215 Y17.8726 I-1.799 J-0.672
G1 Y16.1226
G2 X26.1174 Y15.4742 I-2.1134 J-0.0133
G2 X25.8205 Y14.9429 I-1.3441 J0.4026
G2 X25.301 Y14.5835 I-1.017 J0.915
G2 X24.5432 Y14.4507 I-0.7123 J1.8358
G2 X23.7189 Y14.5601 I0.0485 J3.5254
G0 Z3.0
G0 X21.6322 Y15.3694
G0 Z0.4
G1 F1000.0 Z-0.01
G3 F2000.0 X21.6682 Y15.4742 I-1.3081 J0.5073
G3 X21.7658 Y16.1226 I-2.0158 J0.6352
G1 Y17.8726
G3 X21.6447 Y18.5093 I-1.9199 J-0.0353
G3 X21.3322 Y19.0328 I-1.4673 J-0.521
G3 X20.8478 Y19.3921 I-1.0897 J-0.9625
G3 X20.215 Y19.5249 I-0.6103 J-1.334
G3 X19.5744 Y19.4078 I-0.0145 J-1.7302
G3 X19.0627 Y19.0679 I0.5184 J-1.3357
G3 X18.7228 Y18.5249 I1.1337 J-1.0874
G3 X18.5978 Y17.7945 I1.8988 J-0.7009
G3 X18.7307 Y17.1265 I1.6222 J-0.0247
G3 X19.0822 Y16.6226 I1.4825 J0.6597
G3 X19.6017 Y16.3023 I1.0476 J1.1177
G3 X20.2385 Y16.1929 I0.6266 J1.7398
G3 X20.7814 Y16.2867 I0.0036 J1.5982
G2 X20.2385 Y16.1929 I-0.5393 J1.5043
G2 X19.6017 Y16.3023 I-0.0101 J1.849
G2 X19.0822 Y16.6226 I0.528 J1.4379
G2 X18.7307 Y17.1265 I1.1309 J1.1636
G2 X18.5978 Y17.7945 I1.4892 J0.6433
G2 X18.7228 Y18.5249 I2.024 J0.0296
G2 X19.0627 Y19.0679 I1.4737 J-0.5446
G2 X19.5744 Y19.4078 I1.0301 J-0.9959
G2 X20.215 Y19.5249 I0.6261 J-1.6131
G2 X20.8478 Y19.3921 I0.0225 J-1.4668
G2 X21.3322 Y19.0328 I-0.6052 J-1.3218
G2 X21.6447 Y18.5093 I-1.1547 J-1.0444
G2 X21.7658 Y17.8726 I-1.799 J-0.672
G1 Y16.1226
G2 X21.6682 Y15.4742 I-2.1134 J-0.0133
G2 X21.3713 Y14.9429 I-1.3441 J0.4026
G2 X20.8517 Y14.5835 I-1.017 J0.915
G2 X20.0939 Y14.4507 I-0.7123 J1.8358
G2 X19.2697 Y14.5601 I0.0485 J3.5254
G3 X20.0939 Y14.4507 I0.8726 J3.4156
G3 X20.8517 Y14.5835 I0.0455 J1.9688
G3 X21.3713 Y14.9429 I-0.4975 J1.2744
G3 X21.6322 Y15.3694 I-1.0472 J0.9338
G0 Z3.0
G0 X16.8791 Y16.2906
G0 Z0.4
G1 F1000.0 Z-0.01
G1 F2000.0 Y19.4234
G1 Y16.2906
G0 Z3.0
G0 X14.2502
G0 Z0.4
G1 F1000.0 Z-0.01
G1 F2000.0 Y19.4234
G1 Y16.2906
G0 Z3.0
G0 Y17.7906
G0 Z0.4
G1 F1000.0 Z-0.01
G2 F2000.0 X14.34 Y18.5484 I2.8297 J0.0488
G2 X14.5939 Y19.0679 I1.4932 J-0.4079
G2 X14.9689 Y19.3726 I0.8285 J-0.6366
G2 X15.4338 Y19.5132 I0.6704 J-1.3775
G3 X14.9689 Y19.3726 I0.2056 J-1.5181
G3 X14.5939 Y19.0679 I0.4535 J-0.9413
G3 X14.34 Y18.5484 I1.2391 J-0.9274
G3 X14.2502 Y17.7906 I2.7393 J-0.709
G1 Y16.2867
G1 Y17.7906
G0 Z3.0
G0 X13.0822 Y16.2906
G0 Z0.4
G1 F1000.0 Z-0.01
G1 F2000.0 X12.5353
G2 X12.2136 Y16.3318 I-0.0133 J1.1718
G2 X11.926 Y16.482 I0.2031 J0.7395
G2 X11.7452 Y16.7865 I0.4076 J0.4479
G2 X11.7033 Y17.1382 I1.2862 J0.3314
G1 Y20.3882
G1 Y17.1382
G3 X11.7452 Y16.7865 I1.3277 J-0.0203
G3 X11.926 Y16.482 I0.5884 J0.1433
G3 X12.2136 Y16.3318 I0.4906 J0.5892
G3 X12.5353 Y16.2906 I0.3085 J1.1306
G1 X13.0822
G0 Z3.0
G0 Y19.4429
G0 Z0.4
G1 F1000.0 Z-0.01
G1 F2000.0 X11.7033
G1 X13.0822
G0 Z3.0
G0 X16.8126 Y20.6112
G0 Z0.4
G1 F1000.0 Z-0.01
G3 F2000.0 X16.8244 Y20.5874 I0.0805 J0.0252
G3 X16.8791 Y20.564 I0.0487 J0.0382
G3 X16.9338 Y20.5874 I0.0059 J0.0616
G3 X16.9533 Y20.6343 I-0.0545 J0.0502
G3 X16.8791 Y20.7085 I-0.0649 J0.0093
G3 X16.8088 Y20.6343 I-0.0072 J-0.0636
G3 X16.8126 Y20.6112 I0.0844 J0.0021
G3 X16.8244 Y20.5874 I0.0805 J0.0252
G3 X16.8791 Y20.564 I0.0487 J0.0382
G3 X16.9338 Y20.5874 I0.0059 J0.0616
G3 X16.9533 Y20.6343 I-0.0545 J0.0502
G3 X16.8791 Y20.7085 I-0.0649 J0.0093
G3 X16.8088 Y20.6343 I-0.0072 J-0.0636
G3 X16.8126 Y20.6112 I0.0844 J0.0021
G2 X16.8088 Y20.6343 I0.0806 J0.0252
G2 X16.8791 Y20.7085 I0.0631 J0.0106
G2 X16.9533 Y20.6343 I0.0093 J-0.0649
G2 X16.9338 Y20.5874 I-0.0741 J0.0034
G2 X16.8791 Y20.564 I-0.0487 J0.0382
G2 X16.8244 Y20.5874 I-0.0059 J0.0616
G2 X16.8126 Y20.6112 I0.0688 J0.049
G2 X16.8088 Y20.6343 I0.0806 J0.0252
G2 X16.8791 Y20.7085 I0.0631 J0.0106
G2 X16.9533 Y20.6343 I0.0093 J-0.0649
G2 X16.9338 Y20.5874 I-0.0741 J0.0034
G2 X16.8791 Y20.564 I-0.0487 J0.0382
G2 X16.8244 Y20.5874 I-0.0059 J0.0616
G2 X16.8126 Y20.6112 I0.0688 J0.049
G0 Z3.0
G0 X15.741 Y61.9337
G0 Z0.4
G1 F1000.0 Z-0.01
G3 F2000.0 X15.7882 Y61.9574 I-0.0016 J0.0619
G3 X15.8077 Y62.0043 I-0.0545 J0.0502
G3 X15.7335 Y62.0785 I-0.0649 J0.0093
G3 X15.6632 Y62.0043 I-0.0072 J-0.0636
G3 X15.6788 Y61.9574 I0.0844 J0.0021
G3 X15.7335 Y61.934 I0.0487 J0.0382
G3 X15.741 Y61.9337 I0.0059 J0.0616
G3 X15.7882 Y61.9574 I-0.0016 J0.0619
G3 X15.8077 Y62.0043 I-0.0545 J0.0502
G3 X15.7335 Y62.0785 I-0.0649 J0.0093
G3 X15.6632 Y62.0043 I-0.0072 J-0.0636
G3 X15.6788 Y61.9574 I0.0844 J0.0021
G3 X15.7335 Y61.934 I0.0487 J0.0382
G3 X15.741 Y61.9337 I0.0059 J0.0616
G2 X15.7335 Y61.934 I-0.0016 J0.0619
G2 X15.6788 Y61.9574 I-0.0059 J0.0616
G2 X15.6632 Y62.0043 I0.0688 J0.049
G2 X15.7335 Y62.0785 I0.0631 J0.0106
G2 X15.8077 Y62.0043 I0.0093 J-0.0649
G2 X15.7882 Y61.9574 I-0.0741 J0.0034
G2 X15.741 Y61.9337 I-0.0487 J0.0382
G2 X15.7335 Y61.934 I-0.0016 J0.0619
G2 X15.6788 Y61.9574 I-0.0059 J0.0616
G2 X15.6632 Y62.0043 I0.0688 J0.049
G2 X15.7335 Y62.0785 I0.0631 J0.0106
G2 X15.8077 Y62.0043 I0.0093 J-0.0649
G2 X15.7882 Y61.9574 I-0.0741 J0.0034
G2 X15.741 Y61.9337 I-0.0487 J0.0382
G0 Z3.0
G0 X21.8849 Y62.0141
G0 Z0.4
G1 F1000.0 Z-0.01
G2 F2000.0 X21.9561 Y62.0785 I0.064 J0.0008
G2 X22.0303 Y62.0043 I0.0093 J-0.0649
G2 X22.0108 Y61.9574 I-0.0741 J0.0034
G2 X21.9561 Y61.934 I-0.0487 J0.0382
G2 X21.9014 Y61.9574 I-0.0059 J0.0616
G2 X21.8858 Y62.0043 I0.0688 J0.049
G2 X21.8849 Y62.0141 I0.0631 J0.0106
G2 X21.9561 Y62.0785 I0.064 J0.0008
G2 X22.0303 Y62.0043 I0.0093 J-0.0649
G2 X22.0108 Y61.9574 I-0.0741 J0.0034
G2 X21.9561 Y61.934 I-0.0487 J0.0382
G2 X21.9014 Y61.9574 I-0.0059 J0.0616
G2 X21.8858 Y62.0043 I0.0688 J0.049
G2 X21.8849 Y62.0141 I0.0631 J0.0106
G3 X21.8858 Y62.0043 I0.064 J0.0008
G3 X21.9014 Y61.9574 I0.0844 J0.0021
G3 X21.9561 Y61.934 I0.0487 J0.0382
G3 X22.0108 Y61.9574 I0.0059 J0.0616
G3 X22.0303 Y62.0043 I-0.0545 J0.0502
G3 X21.9561 Y62.0785 I-0.0649 J0.0093
G3 X21.8849 Y62.0141 I-0.0072 J-0.0636
G3 X21.8858 Y62.0043 I0.064 J0.0008
G3 X21.9014 Y61.9574 I0.0844 J0.0021
G3 X21.9561 Y61.934 I0.0487 J0.0382
G3 X22.0108 Y61.9574 I0.0059 J0.0616
G3 X22.0303 Y62.0043 I-0.0545 J0.0502
G3 X21.9561 Y62.0785 I-0.0649 J0.0093
G3 X21.8849 Y62.0141 I-0.0072 J-0.0636
G0 Z3.0
G0 X19.0579 Y75.0946
G0 Z0.4
G1 F1000.0 Z-0.01
G2 F2000.0 X18.5964 Y75.0507 I-0.416 J1.9247
G2 X17.7722 Y75.1601 I0.0485 J3.5254
G3 X18.5964 Y75.0507 I0.8726 J3.4156
G3 X19.3542 Y75.1835 I0.0455 J1.9688
G3 X19.8738 Y75.5429 I-0.4975 J1.2744
G3 X20.1707 Y76.0742 I-1.0472 J0.9338
G3 X20.2683 Y76.7226 I-2.0158 J0.6352
G1 Y78.4726
G3 X20.1472 Y79.1093 I-1.9199 J-0.0353
G3 X19.8347 Y79.6328 I-1.4673 J-0.521
G3 X19.3503 Y79.9921 I-1.0897 J-0.9625
G3 X18.7175 Y80.1249 I-0.6103 J-1.334
G3 X18.0769 Y80.0078 I-0.0145 J-1.7302
G3 X17.5652 Y79.6679 I0.5184 J-1.3357
G3 X17.2253 Y79.1249 I1.1337 J-1.0874
G3 X17.1003 Y78.3945 I1.8988 J-0.7009
G3 X17.2332 Y77.7265 I1.6222 J-0.0247
G3 X17.5847 Y77.2226 I1.4825 J0.6597
G3 X18.1042 Y76.9023 I1.0476 J1.1177
G3 X18.741 Y76.7929 I0.6266 J1.7398
G3 X19.2839 Y76.8867 I0.0036 J1.5982
G2 X18.741 Y76.7929 I-0.5393 J1.5043
G2 X18.1042 Y76.9023 I-0.0101 J1.849
G2 X17.5847 Y77.2226 I0.528 J1.4379
G2 X17.2332 Y77.7265 I1.1309 J1.1636
G2 X17.1003 Y78.3945 I1.4892 J0.6433
G2 X17.2253 Y79.1249 I2.024 J0.0296
G2 X17.5652 Y79.6679 I1.4737 J-0.5446
G2 X18.0769 Y80.0078 I1.0301 J-0.9959
G2 X18.7175 Y80.1249 I0.6261 J-1.6131
G2 X19.3503 Y79.9921 I0.0225 J-1.4668
G2 X19.8347 Y79.6328 I-0.6052 J-1.3218
G2 X20.1472 Y79.1093 I-1.1547 J-1.0444
G2 X20.2683 Y78.4726 I-1.799 J-0.672
G1 Y76.7226
G2 X20.1707 Y76.0742 I-2.1134 J-0.0133
G2 X19.8738 Y75.5429 I-1.3441 J0.4026
G2 X19.3542 Y75.1835 I-1.017 J0.915
G2 X19.0579 Y75.0946 I-0.7123 J1.8358
G0 Z3.0
G0 X22.0535 Y76.8906
G0 Z0.4
G1 F1000.0 Z-0.01
G1 F2000.0 Y80.0234
G1 Y76.8906
G0 Z3.0
G0 X24.8191
G0 Z0.4
G1 F1000.0 Z-0.01
G2 F2000.0 X24.4973 Y76.9318 I-0.0133 J1.1718
G2 X24.2097 Y77.082 I0.2031 J0.7395
G2 X24.0289 Y77.3865 I0.4076 J0.4479
G2 X23.9871 Y77.7382 I1.2862 J0.3314
G1 Y80.9882
G1 Y77.7382
G3 X24.0289 Y77.3865 I1.3277 J-0.0203
G3 X24.2097 Y77.082 I0.5884 J0.1433
G3 X24.4973 Y76.9318 I0.4906 J0.5892
G3 X24.8191 Y76.8906 I0.3085 J1.1306
G1 X25.366
G1 X24.8191
G0 Z3.0
G0 X28.6121 Y76.9453
G0 Z0.4
G1 F1000.0 Z-0.01
G2 F2000.0 X28.0144 Y76.7929 I-0.5647 J0.967
G2 X27.3582 Y76.9179 I-0.0172 J1.6949
G2 X26.8425 Y77.2656 I0.6008 J1.4473
G2 X26.5066 Y77.7968 I1.1994 J1.1303
G2 X26.3894 Y78.4765 I1.7864 J0.658
G2 X26.5066 Y79.1445 I1.8298 J0.0232
G2 X26.8425 Y79.6679 I1.4542 J-0.5637
G2 X27.3582 Y80.0156 I1.1164 J-1.0996
G2 X28.0144 Y80.1406 I0.639 J-1.5699
G2 X28.655 Y80.0312 I0.0221 J-1.8012
G2 X29.1589 Y79.7304 I-0.526 J-1.4536
G2 X29.4871 Y79.2656 I-0.8377 J-0.9396
G2 X29.6042 Y78.6679 I-1.3684 J-0.5786
G1 Y76.8906
G1 Y78.6679
G3 X29.4871 Y79.2656 I-1.4856 J0.019
G3 X29.1589 Y79.7304 I-1.1659 J-0.4748
G3 X28.655 Y80.0312 I-1.0298 J-1.1528
G3 X28.0144 Y80.1406 I-0.6185 J-1.6919
G3 X27.3582 Y80.0156 I-0.0172 J-1.6949
G3 X26.8425 Y79.6679 I0.6008 J-1.4473
G3 X26.5066 Y79.1445 I1.1182 J-1.0872
G3 X26.3894 Y78.4765 I1.7127 J-0.6447
G3 X26.5066 Y77.7968 I1.9034 J-0.0218
G3 X26.8425 Y77.2656 I1.5353 J0.599
G3 X27.3582 Y76.9179 I1.1164 J1.0996
G3 X28.0144 Y76.7929 I0.639 J1.5699
G3 X28.6121 Y76.9453 I0.0329 J1.1193
G0 Z3.0
G0 X31.1667 Y81.7851
G0 Z0.4
G1 F1000.0 Z-0.01
G1 F2000.0 Y76.8867
G1 Y81.7851
G0 Z3.0
G0 X25.366 Y80.0429
G0 Z0.4
G1 F1000.0 Z-0.01
G1 F2000.0 X23.9871
G1 X25.366
G0 Z3.0
G0 X22.1234 Y81.2125
G0 Z0.4
G1 F1000.0 Z-0.01
G3 F2000.0 X22.1277 Y81.2343 I-0.0697 J0.0252
G3 X22.0535 Y81.3085 I-0.0649 J0.0093
G3 X21.9832 Y81.2343 I-0.0072 J-0.0636
G3 X21.9988 Y81.1874 I0.0844 J0.0021
G3 X22.0535 Y81.164 I0.0487 J0.0382
G3 X22.1082 Y81.1874 I0.0059 J0.0616
G3 X22.1234 Y81.2125 I-0.0545 J0.0502
G3 X22.1277 Y81.2343 I-0.0697 J0.0252
G3 X22.0535 Y81.3085 I-0.0649 J0.0093
G3 X21.9832 Y81.2343 I-0.0072 J-0.0636
G3 X21.9988 Y81.1874 I0.0844 J0.0021
G3 X22.0535 Y81.164 I0.0487 J0.0382
G3 X22.1082 Y81.1874 I0.0059 J0.0616
G3 X22.1234 Y81.2125 I-0.0545 J0.0502
G2 X22.1082 Y81.1874 I-0.0698 J0.0252
G2 X22.0535 Y81.164 I-0.0487 J0.0382
G2 X21.9988 Y81.1874 I-0.0059 J0.0616
G2 X21.9832 Y81.2343 I0.0688 J0.049
G2 X22.0535 Y81.3085 I0.0631 J0.0106
G2 X22.1277 Y81.2343 I0.0093 J-0.0649
G2 X22.1234 Y81.2125 I-0.0741 J0.0034
G2 X22.1082 Y81.1874 I-0.0698 J0.0252
G2 X22.0535 Y81.164 I-0.0487 J0.0382
G2 X21.9988 Y81.1874 I-0.0059 J0.0616
G2 X21.9832 Y81.2343 I0.0688 J0.049
G2 X22.0535 Y81.3085 I0.0631 J0.0106
G2 X22.1277 Y81.2343 I0.0093 J-0.0649
G2 X22.1234 Y81.2125 I-0.0741 J0.0034
G0 Z3.0
G0 X15.4565 Y81.2433
G0 Z0.4
G1 F1000.0 Z-0.01
G2 F2000.0 X15.4558 Y81.2343 I-0.0656 J0.0003
G2 X15.4363 Y81.1874 I-0.0741 J0.0034
G2 X15.3816 Y81.164 I-0.0487 J0.0382
G2 X15.3269 Y81.1874 I-0.0059 J0.0616
G2 X15.3113 Y81.2343 I0.0688 J0.049
G2 X15.3816 Y81.3085 I0.0631 J0.0106
G2 X15.4565 Y81.2433 I0.0093 J-0.0649
G3 X15.3816 Y81.3085 I-0.0656 J0.0003
G3 X15.3113 Y81.2343 I-0.0072 J-0.0636
G3 X15.3269 Y81.1874 I0.0844 J0.0021
G3 X15.3816 Y81.164 I0.0487 J0.0382
G3 X15.4363 Y81.1874 I0.0059 J0.0616
G3 X15.4558 Y81.2343 I-0.0545 J0.0502
G3 X15.4565 Y81.2433 I-0.0649 J0.0093
G3 X15.3816 Y81.3085 I-0.0656 J0.0003
G3 X15.3113 Y81.2343 I-0.0072 J-0.0636
G3 X15.3269 Y81.1874 I0.0844 J0.0021
G3 X15.3816 Y81.164 I0.0487 J0.0382
G3 X15.4363 Y81.1874 I0.0059 J0.0616
G3 X15.4558 Y81.2343 I-0.0545 J0.0502
G3 X15.4565 Y81.2433 I-0.0649 J0.0093
G2 X15.4558 Y81.2343 I-0.0656 J0.0003
G2 X15.4363 Y81.1874 I-0.0741 J0.0034
G2 X15.3816 Y81.164 I-0.0487 J0.0382
G2 X15.3269 Y81.1874 I-0.0059 J0.0616
G2 X15.3113 Y81.2343 I0.0688 J0.049
G2 X15.3816 Y81.3085 I0.0631 J0.0106
G2 X15.4565 Y81.2433 I0.0093 J-0.0649
G0 Z3.0
G0 X15.3816 Y80.0234
G0 Z0.4
G1 F1000.0 Z-0.01
G1 F2000.0 Y76.8906
G1 Y80.0234
G0 Z3.0
G0 X13.5964 Y78.6328
G0 Z0.4
G1 F1000.0 Z-0.01
G2 F2000.0 X13.4792 Y77.8515 I-2.4053 J-0.0386
G2 X13.155 Y77.2734 I-1.5696 J0.5003
G2 X12.655 Y76.914 I-1.036 J0.9139
G2 X12.0144 Y76.7929 I-0.6198 J1.5239
G2 X11.3738 Y76.9023 I-0.0154 J1.8404
G2 X10.8542 Y77.2343 I0.5261 J1.3956
G2 X10.5066 Y77.7734 I1.1824 J1.1442
G2 X10.3816 Y78.5117 I1.906 J0.7024
G2 X10.5027 Y79.1757 I1.7477 J0.0244
G2 X10.8386 Y79.6835 I1.4542 J-0.597
G2 X11.3347 Y80.0078 I1.0537 J-1.0706
G2 X11.9402 Y80.121 I0.5962 J-1.5118
G2 X12.6121 Y79.9999 I0.0212 J-1.8067
G3 X11.9402 Y80.121 I-0.6507 J-1.6857
G3 X11.3347 Y80.0078 I-0.0092 J-1.6253
G3 X10.8386 Y79.6835 I0.5575 J-1.3947
G3 X10.5027 Y79.1757 I1.1184 J-1.1049
G3 X10.3816 Y78.5117 I1.6266 J-0.6397
G3 X10.5066 Y77.7734 I2.0312 J-0.0358
G3 X10.8542 Y77.2343 I1.53 J0.6051
G3 X11.3738 Y76.9023 I1.0456 J1.0636
G3 X12.0144 Y76.7929 I0.6252 J1.731
G3 X12.655 Y76.914 I0.0208 J1.645
G3 X13.155 Y77.2734 I-0.5361 J1.2733
G3 X13.4792 Y77.8515 I-1.2453 J1.0784
G3 X13.5964 Y78.6328 I-2.2883 J0.7427
G1 Y81.7851
G1 Y78.6328
G0 Z3.0
G0 X10.4052 Y89.5476
G0 Z0.4
G1 F1000.0 Z-0.01
G3 F2000.0 X10.4794 Y89.114 I1.2146 J-0.0152
G3 X10.6942 Y88.782 I0.8481 J0.3132
G3 X11.0224 Y88.5671 I0.7231 J0.7463
G3 X11.4364 Y88.4929 I0.4007 J1.0435
G3 X11.8829 Y88.5663 I0.0193 J1.2767
G3 X12.2567 Y88.821 I-0.3198 J0.8711
G3 X12.4878 Y89.2509 I-0.8181 J0.7168
G3 X12.5497 Y89.7351 I-1.6948 J0.4627
G1 Y91.7273
G1 Y89.7351
G3 X12.6106 Y89.2516 I1.7797 J-0.0215
G3 X12.8388 Y88.821 I1.0554 J0.2836
G3 X13.2127 Y88.5663 I0.6937 J0.6165
G3 X13.6591 Y88.4929 I0.4271 J1.2034
G3 X14.0732 Y88.5671 I0.0134 J1.1176
G3 X14.3974 Y88.782 I-0.376 J0.9195
G3 X14.6122 Y89.114 I-0.6948 J0.6851
G3 X14.6942 Y89.5476 I-1.0291 J0.4192
G1 Y91.7273
G1 Y89.5476
G2 X14.6122 Y89.114 I-1.1111 J-0.0144
G2 X14.3974 Y88.782 I-0.9096 J0.353
G2 X14.0732 Y88.5671 I-0.7003 J0.7047
G2 X13.6591 Y88.4929 I-0.4007 J1.0435
G2 X13.2127 Y88.5663 I-0.0193 J1.2767
G2 X12.8388 Y88.821 I0.3198 J0.8711
G2 X12.6106 Y89.2516 I0.8271 J0.7141
G2 X12.5497 Y89.7351 I1.7186 J0.462
G1 Y91.7273
G1 Y89.7351
G2 X12.4878 Y89.2509 I-1.7562 J-0.0215
G2 X12.2567 Y88.821 I-1.0491 J0.2869
G2 X11.8829 Y88.5663 I-0.6937 J0.6165
G2 X11.4364 Y88.4929 I-0.4271 J1.2034
G2 X11.0224 Y88.5671 I-0.0134 J1.1176
G2 X10.6942 Y88.782 I0.3949 J0.961
G2 X10.4794 Y89.114 I0.6332 J0.6453
G2 X10.4052 Y89.5476 I1.1406 J0.4184
G1 Y91.7273
G1 Y89.5476
G0 Z3.0
G0 X18.7255 Y90.4773
G0 Z0.4
G1 F1000.0 Z-0.01
G3 F2000.0 X18.6513 Y90.9538 I-1.5952 J-0.0044
G3 X18.4247 Y91.3874 I-1.1662 J-0.3334
G3 X18.0302 Y91.6999 I-0.8898 J-0.7181
G3 X17.4599 Y91.821 I-0.5355 J-1.1186
G3 X16.8817 Y91.6999 I-0.0262 J-1.3156
G3 X16.4755 Y91.3874 I0.489 J-1.056
G3 X16.2333 Y90.9538 I1.0269 J-0.858
G3 X16.1513 Y90.4773 I1.3746 J-0.482
G1 Y88.5906
G1 Y90.4773
G2 X16.2333 Y90.9538 I1.4567 J-0.0054
G2 X16.4755 Y91.3874 I1.2692 J-0.4245
G2 X16.8817 Y91.6999 I0.8952 J-0.7434
G2 X17.4599 Y91.821 I0.552 J-1.1946
G2 X18.0302 Y91.6999 I0.0348 J-1.2398
G2 X18.4247 Y91.3874 I-0.4953 J-1.0306
G2 X18.6513 Y90.9538 I-0.9397 J-0.767
G2 X18.7255 Y90.4773 I-1.5214 J-0.481
G1 Y88.5906
G1 Y90.4773
G0 Z3.0
G0 X20.5497 Y88.5906
G0 Z0.4
G1 F1000.0 Z-0.01
G1 F2000.0 Y91.7234
G1 Y88.5906
G0 Z3.0
G0 X23.3153
G0 Z0.4
G1 F1000.0 Z-0.01
G2 F2000.0 X22.9936 Y88.6318 I-0.0133 J1.1718
G2 X22.706 Y88.782 I0.2031 J0.7395
G2 X22.5252 Y89.0865 I0.4076 J0.4479
G2 X22.4833 Y89.4382 I1.2862 J0.3314
G1 Y92.6882
G1 Y89.4382
G3 X22.5252 Y89.0865 I1.3277 J-0.0203
G3 X22.706 Y88.782 I0.5884 J0.1433
G3 X22.9936 Y88.6318 I0.4906 J0.5892
G3 X23.3153 Y88.5906 I0.3085 J1.1306
G1 X23.8622
G1 X23.3153
G0 Z3.0
G0 X25.0825 Y89.4051
G0 Z0.4
G1 F1000.0 Z-0.01
G2 F2000.0 X25.0497 Y89.4812 I1.5038 J0.6931
G2 X24.9247 Y90.1609 I1.6718 J0.6588
G2 X25.0497 Y90.8328 I1.7566 J0.0208
G2 X25.3896 Y91.3601 I1.4895 J-0.5867
G2 X25.9052 Y91.7038 I1.0546 J-1.0234
G2 X26.5575 Y91.8249 I0.6364 J-1.6107
G2 X27.4091 Y91.6062 I0.024 J-1.6733
G2 X27.7183 Y91.3652 I-0.6133 J-1.1061
G2 X27.9247 Y91.032 I-0.7536 J-0.6972
G1 X25.9872 Y89.9578
G1 X27.9247 Y91.032
G3 X27.4091 Y91.6062 I-1.0337 J-0.4096
G3 X26.5575 Y91.8249 I-0.8275 J-1.4545
G3 X25.9052 Y91.7038 I-0.0159 J-1.732
G3 X25.3896 Y91.3601 I0.539 J-1.367
G3 X25.0497 Y90.8328 I1.1496 J-1.114
G3 X24.9247 Y90.1609 I1.6315 J-0.6511
G3 X25.0497 Y89.4812 I1.797 J-0.0209
G3 X25.3896 Y88.9538 I1.5367 J0.6172
G3 X25.9052 Y88.614 I1.0637 J1.0527
G3 X26.5575 Y88.4968 I0.6359 J1.6658
G3 X27.0725 Y88.5638 I0.0146 J1.8997
G3 X27.5419 Y88.7859 I-0.4076 J1.4689
G3 X27.9067 Y89.1656 I-0.8115 J1.1447
G3 X28.1239 Y89.6453 I-1.5191 J0.977
G2 X27.9067 Y89.1656 I-1.7368 J0.4975
G2 X27.5419 Y88.7859 I-1.1762 J0.7649
G2 X26.5575 Y88.4968 I-0.9397 J1.3794
G2 X25.9052 Y88.614 I-0.0164 J1.7832
G2 X25.3896 Y88.9538 I0.548 J1.3925
G2 X25.0825 Y89.4051 I1.1967 J1.1444
G0 Z3.0
G0 X23.8622 Y91.7429
G0 Z0.4
G1 F1000.0 Z-0.01
G1 F2000.0 X22.4833
G1 X23.8622
G0 Z3.0
G0 X20.6196 Y92.9125
G0 Z0.4
G1 F1000.0 Z-0.01
G3 F2000.0 X20.6239 Y92.9343 I-0.0697 J0.0252
G3 X20.5497 Y93.0085 I-0.0649 J0.0093
G3 X20.4794 Y92.9343 I-0.0072 J-0.0636
G3 X20.495 Y92.8874 I0.0844 J0.0021
G3 X20.5497 Y92.864 I0.0487 J0.0382
G3 X20.6044 Y92.8874 I0.0059 J0.0616
G3 X20.6196 Y92.9125 I-0.0545 J0.0502
G3 X20.6239 Y92.9343 I-0.0697 J0.0252
G3 X20.5497 Y93.0085 I-0.0649 J0.0093
G3 X20.4794 Y92.9343 I-0.0072 J-0.0636
G3 X20.495 Y92.8874 I0.0844 J0.0021
G3 X20.5497 Y92.864 I0.0487 J0.0382
G3 X20.6044 Y92.8874 I0.0059 J0.0616
G3 X20.6196 Y92.9125 I-0.0545 J0.0502
G2 X20.6044 Y92.8874 I-0.0698 J0.0252
G2 X20.5497 Y92.864 I-0.0487 J0.0382
G2 X20.495 Y92.8874 I-0.0059 J0.0616
G2 X20.4794 Y92.9343 I0.0688 J0.049
G2 X20.5497 Y93.0085 I0.0631 J0.0106
G2 X20.6239 Y92.9343 I0.0093 J-0.0649
G2 X20.6196 Y92.9125 I-0.0741 J0.0034
G2 X20.6044 Y92.8874 I-0.0698 J0.0252
G2 X20.5497 Y92.864 I-0.0487 J0.0382
G2 X20.495 Y92.8874 I-0.0059 J0.0616
G2 X20.4794 Y92.9343 I0.0688 J0.049
G2 X20.5497 Y93.0085 I0.0631 J0.0106
G2 X20.6239 Y92.9343 I0.0093 J-0.0649
G2 X20.6196 Y92.9125 I-0.0741 J0.0034
G0 Z3.0
G0 X16.1513 Y93.4851
G0 Z0.4
G1 F1000.0 Z-0.01
G1 F2000.0 Y88.5867
G1 Y93.4851
G0 Z3.0
G0 X14.4905 Y98.866
G0 Z0.4
G1 F1000.0 Z-0.01
G2 F2000.0 X13.9483 Y98.7868 I-0.5258 J1.7037
G2 X13.296 Y98.904 I-0.0164 J1.7832
G2 X12.7803 Y99.2438 I0.548 J1.3925
G2 X12.4444 Y99.7712 I1.1581 J1.1084
G2 X12.3233 Y100.4509 I1.7272 J0.6584
G2 X12.4444 Y101.1228 I1.8067 J0.0212
G2 X12.7803 Y101.6501 I1.4498 J-0.5529
G2 X13.296 Y101.9938 I1.0546 J-1.0234
G2 X13.9483 Y102.1149 I0.6364 J-1.6107
G2 X14.6007 Y101.9938 I0.0159 J-1.732
G2 X15.1163 Y101.6501 I-0.539 J-1.367
G2 X15.4522 Y101.1228 I-1.1137 J-1.0802
G2 X15.5733 Y100.4509 I-1.6857 J-0.6507
G2 X15.4522 Y99.7712 I-1.8485 J-0.0213
G2 X15.1163 Y99.2438 I-1.4941 J0.5811
G2 X14.6007 Y98.904 I-1.0637 J1.0527
G2 X14.4905 Y98.866 I-0.6359 J1.6658
G2 X13.9483 Y98.7868 I-0.5258 J1.7037
G2 X13.296 Y98.904 I-0.0164 J1.7832
G2 X12.7803 Y99.2438 I0.548 J1.3925
G2 X12.4444 Y99.7712 I1.1581 J1.1084
G2 X12.3233 Y100.4509 I1.7272 J0.6584
G2 X12.4444 Y101.1228 I1.8067 J0.0212
G2 X12.7803 Y101.6501 I1.4498 J-0.5529
G2 X13.296 Y101.9938 I1.0546 J-1.0234
G2 X13.9483 Y102.1149 I0.6364 J-1.6107
G2 X14.6007 Y101.9938 I0.0159 J-1.732
G2 X15.1163 Y101.6501 I-0.539 J-1.367
G2 X15.4522 Y101.1228 I-1.1137 J-1.0802
G2 X15.5733 Y100.4509 I-1.6857 J-0.6507
G2 X15.4522 Y99.7712 I-1.8485 J-0.0213
G2 X15.1163 Y99.2438 I-1.4941 J0.5811
G2 X14.6007 Y98.904 I-1.0637 J1.0527
G2 X14.4905 Y98.866 I-0.6359 J1.6658
G3 X14.6007 Y98.904 I-0.5259 J1.704
G3 X15.1163 Y99.2438 I-0.548 J1.3925
G3 X15.4522 Y99.7712 I-1.1581 J1.1084
G3 X15.5733 Y100.4509 I-1.7272 J0.6584
G3 X15.4522 Y101.1228 I-1.8067 J0.0212
G3 X15.1163 Y101.6501 I-1.4498 J-0.5529
G3 X14.6007 Y101.9938 I-1.0546 J-1.0234
G3 X13.9483 Y102.1149 I-0.6364 J-1.6107
G3 X13.296 Y101.9938 I-0.0159 J-1.732
G3 X12.7803 Y101.6501 I0.539 J-1.367
G3 X12.4444 Y101.1228 I1.1137 J-1.0802
G3 X12.3233 Y100.4509 I1.6857 J-0.6507
G3 X12.4444 Y99.7712 I1.8485 J-0.0213
G3 X12.7803 Y99.2438 I1.4941 J0.5811
G3 X13.296 Y98.904 I1.0637 J1.0527
G3 X13.9483 Y98.7868 I0.6359 J1.6658
G3 X14.4905 Y98.866 I0.0164 J1.7832
G3 X14.6007 Y98.904 I-0.5259 J1.704
G3 X15.1163 Y99.2438 I-0.548 J1.3925
G3 X15.4522 Y99.7712 I-1.1581 J1.1084
G3 X15.5733 Y100.4509 I-1.7272 J0.6584
G3 X15.4522 Y101.1228 I-1.8067 J0.0212
G3 X15.1163 Y101.6501 I-1.4498 J-0.5529
G3 X14.6007 Y101.9938 I-1.0546 J-1.0234
G3 X13.9483 Y102.1149 I-0.6364 J-1.6107
G3 X13.296 Y101.9938 I-0.0159 J-1.732
G3 X12.7803 Y101.6501 I0.539 J-1.367
G3 X12.4444 Y101.1228 I1.1137 J-1.0802
G3 X12.3233 Y100.4509 I1.6857 J-0.6507
G3 X12.4444 Y99.7712 I1.8485 J-0.0213
G3 X12.7803 Y99.2438 I1.4941 J0.5811
G3 X13.296 Y98.904 I1.0637 J1.0527
G3 X13.9483 Y98.7868 I0.6359 J1.6658
G3 X14.4905 Y98.866 I0.0164 J1.7832
G0 Z3.0
G0 X18.9561 Y98.9353
G0 Z0.4
G1 F1000.0 Z-0.01
G2 F2000.0 X18.3585 Y98.7829 I-0.5647 J0.967
G2 X17.7022 Y98.9079 I-0.0172 J1.6949
G2 X17.1866 Y99.2556 I0.6008 J1.4473
G2 X16.8507 Y99.7868 I1.1994 J1.1303
G2 X16.7335 Y100.4665 I1.7864 J0.658
G2 X16.8507 Y101.1345 I1.8298 J0.0232
G2 X17.1866 Y101.6579 I1.4542 J-0.5637
G2 X17.7022 Y102.0056 I1.1164 J-1.0996
G2 X18.3585 Y102.1306 I0.639 J-1.5699
G2 X18.9991 Y102.0212 I0.0221 J-1.8012
G2 X19.503 Y101.7204 I-0.526 J-1.4536
G2 X19.8311 Y101.2556 I-0.8377 J-0.9396
G2 X19.9483 Y100.6579 I-1.3684 J-0.5786
G1 Y98.8806
G1 Y100.6579
G3 X19.8311 Y101.2556 I-1.4856 J0.019
G3 X19.503 Y101.7204 I-1.1659 J-0.4748
G3 X18.9991 Y102.0212 I-1.0298 J-1.1528
G3 X18.3585 Y102.1306 I-0.6185 J-1.6919
G3 X17.7022 Y102.0056 I-0.0172 J-1.6949
G3 X17.1866 Y101.6579 I0.6008 J-1.4473
G3 X16.8507 Y101.1345 I1.1182 J-1.0872
G3 X16.7335 Y100.4665 I1.7127 J-0.6447
G3 X16.8507 Y99.7868 I1.9034 J-0.0218
G3 X17.1866 Y99.2556 I1.5353 J0.599
G3 X17.7022 Y98.9079 I1.1164 J1.0996
G3 X18.3585 Y98.7829 I0.639 J1.5699
G3 X18.9561 Y98.9353 I0.0329 J1.1193
G0 Z3.0
G0 X21.3272 Y100.3806
G0 Z0.4
G1 F1000.0 Z-0.01
G2 F2000.0 X21.4171 Y101.1384 I2.8297 J0.0488
G2 X21.671 Y101.6579 I1.4932 J-0.4079
G2 X22.046 Y101.9626 I0.8285 J-0.6366
G2 X22.5108 Y102.1032 I0.6704 J-1.3775
G3 X22.046 Y101.9626 I0.2056 J-1.5181
G3 X21.671 Y101.6579 I0.4535 J-0.9413
G3 X21.4171 Y101.1384 I1.2391 J-0.9274
G3 X21.3272 Y100.3806 I2.7393 J-0.709
G1 Y98.8767
G1 Y100.3806
G0 Z3.0
G0 Y102.0134
G0 Z0.4
G1 F1000.0 Z-0.01
G1 F2000.0 Y98.8806
G1 Y102.0134
G0 Z3.0
G0 X23.9561
G0 Z0.4
G1 F1000.0 Z-0.01
G1 F2000.0 Y98.8806
G1 Y102.0134
G0 Z3.0
G0 X23.9505 Y103.1537
G0 Z0.4
G1 F1000.0 Z-0.01
G2 F2000.0 X23.9014 Y103.1774 I-0.0003 J0.0619
G2 X23.8858 Y103.2243 I0.0688 J0.049
G2 X23.9561 Y103.2985 I0.0631 J0.0106
G2 X24.0303 Y103.2243 I0.0093 J-0.0649
G2 X24.0108 Y103.1774 I-0.0741 J0.0034
G2 X23.9561 Y103.154 I-0.0487 J0.0382
G2 X23.9505 Y103.1537 I-0.0059 J0.0616
G2 X23.9014 Y103.1774 I-0.0003 J0.0619
G2 X23.8858 Y103.2243 I0.0688 J0.049
G2 X23.9561 Y103.2985 I0.0631 J0.0106
G2 X24.0303 Y103.2243 I0.0093 J-0.0649
G2 X24.0108 Y103.1774 I-0.0741 J0.0034
G2 X23.9561 Y103.154 I-0.0487 J0.0382
G2 X23.9505 Y103.1537 I-0.0059 J0.0616
G3 X23.9561 Y103.154 I-0.0003 J0.0619
G3 X24.0108 Y103.1774 I0.0059 J0.0616
G3 X24.0303 Y103.2243 I-0.0545 J0.0502
G3 X23.9561 Y103.2985 I-0.0649 J0.0093
G3 X23.8858 Y103.2243 I-0.0072 J-0.0636
G3 X23.9014 Y103.1774 I0.0844 J0.0021
G3 X23.9505 Y103.1537 I0.0487 J0.0382
G3 X23.9561 Y103.154 I-0.0003 J0.0619
G3 X24.0108 Y103.1774 I0.0059 J0.0616
G3 X24.0303 Y103.2243 I-0.0545 J0.0502
G3 X23.9561 Y103.2985 I-0.0649 J0.0093
G3 X23.8858 Y103.2243 I-0.0072 J-0.0636
G3 X23.9014 Y103.1774 I0.0844 J0.0021
G3 X23.9505 Y103.1537 I0.0487 J0.0382
G0 Z3.0
G0 X25.7803 Y100.7673
G0 Z0.4
G1 F1000.0 Z-0.01
G2 F2000.0 X25.8585 Y101.2517 I1.5702 J-0.0048
G2 X26.1046 Y101.6892 I1.2293 J-0.4035
G2 X26.5069 Y102.0017 I0.9813 J-0.8482
G2 X27.0694 Y102.1228 I0.5366 J-1.1257
G2 X27.6241 Y102.0017 I0.0257 J-1.2131
G2 X28.0264 Y101.6892 I-0.5431 J-1.1145
G2 X28.2686 Y101.2517 I-1.0221 J-0.8516
G2 X28.3546 Y100.7673 I-1.355 J-0.4902
G1 Y98.8806
G1 Y100.7673
G3 X28.2686 Y101.2517 I-1.4409 J-0.0058
G3 X28.0264 Y101.6892 I-1.2642 J-0.4141
G3 X27.6241 Y102.0017 I-0.9454 J-0.802
G3 X27.0694 Y102.1228 I-0.5289 J-1.0919
G3 X26.5069 Y102.0017 I-0.0259 J-1.2467
G3 X26.1046 Y101.6892 I0.5789 J-1.1606
G3 X25.8585 Y101.2517 I0.9833 J-0.8411
G3 X25.7803 Y100.7673 I1.4925 J-0.4892
G1 Y98.8806
G1 Y100.7673
G0 Z3.0
G0 X29.6783 Y100.5347
G0 Z0.4
G1 F1000.0 Z-0.01
G3 F2000.0 X29.6749 Y100.3845 I2.0204 J-0.1206
G3 X29.8077 Y99.7165 I1.6222 J-0.0247
G3 X30.1592 Y99.2126 I1.4825 J0.6597
G3 X30.6788 Y98.8923 I1.0476 J1.1177
G3 X31.3155 Y98.7829 I0.6266 J1.7398
G3 X31.8585 Y98.8767 I0.0036 J1.5982
G2 X31.3155 Y98.7829 I-0.5393 J1.5043
G2 X30.6788 Y98.8923 I-0.0101 J1.849
G2 X30.1592 Y99.2126 I0.528 J1.4379
G2 X29.8077 Y99.7165 I1.1309 J1.1636
G2 X29.6749 Y100.3845 I1.4892 J0.6433
G2 X29.7999 Y101.1149 I2.024 J0.0296
G2 X30.1397 Y101.6579 I1.4737 J-0.5446
G2 X30.6514 Y101.9978 I1.0301 J-0.9959
G2 X31.2921 Y102.1149 I0.6261 J-1.6131
G2 X31.9249 Y101.9821 I0.0225 J-1.4668
G2 X32.4092 Y101.6228 I-0.6052 J-1.3218
G2 X32.7217 Y101.0993 I-1.1547 J-1.0444
G2 X32.8428 Y100.4626 I-1.799 J-0.672
G1 Y98.7126
G2 X32.7452 Y98.0642 I-2.1134 J-0.0133
G2 X32.4483 Y97.5329 I-1.3441 J0.4026
G2 X31.9288 Y97.1735 I-1.017 J0.915
G2 X31.171 Y97.0407 I-0.7123 J1.8358
G2 X30.3467 Y97.1501 I0.0485 J3.5254
G3 X31.171 Y97.0407 I0.8726 J3.4156
G3 X31.9288 Y97.1735 I0.0455 J1.9688
G3 X32.4483 Y97.5329 I-0.4975 J1.2744
G3 X32.7452 Y98.0642 I-1.0472 J0.9338
G3 X32.8428 Y98.7126 I-2.0158 J0.6352
G1 Y100.4626
G3 X32.7217 Y101.0993 I-1.9199 J-0.0353
G3 X32.4092 Y101.6228 I-1.4673 J-0.521
G3 X31.9249 Y101.9821 I-1.0897 J-0.9625
G3 X31.2921 Y102.1149 I-0.6103 J-1.334
G3 X30.6514 Y101.9978 I-0.0145 J-1.7302
G3 X30.1397 Y101.6579 I0.5184 J-1.3357
G3 X29.7999 Y101.1149 I1.1337 J-1.0874
G3 X29.6783 Y100.5347 I1.8988 J-0.7009
G0 Z3.0
G0 X31.2761 Y110.79
G0 Z0.4
G1 F1000.0 Z-0.01
G1 F2000.0 Y116.5881
G1 X32.0632
G1 X35.1086 Y112.0358
G1 Y116.5881
G1 X35.8442
G1 Y110.79
G1 X35.0572
G1 X32.0118 Y115.3463
G1 Y110.79
G1 X31.2761
G0 Z3.0
G0 X30.406 Y112.5302
G0 Z0.4
G1 F1000.0 Z-0.01
G1 F2000.0 X28.2188
G1 Y113.2461
G1 X30.406
G1 Y112.5302
G0 Z3.0
G0 X27.412
G0 Z0.4
G1 F1000.0 Z-0.01
G1 F2000.0 Y110.79
G1 X26.7001
G1 Y114.9903
G1 X27.412
G1 Y112.5302
G0 Z3.0
G0 X26.0 Y111.4268
G0 Z0.4
G1 F1000.0 Z-0.01
G1 F2000.0 X26.1029 Y110.7979
G2 X25.565 Y110.7346 I-0.5785 J2.5994
G2 X25.2568 Y110.7585 I-0.0143 J1.8159
G2 X24.9638 Y110.8572 I0.1372 J0.891
G2 X24.6632 Y111.1776 I0.3269 J0.6079
G2 X24.6112 Y111.384 I0.8403 J0.3216
G2 X24.5762 Y112.02 I4.6008 J0.5721
G1 Y114.4366
G1 X24.0541
G1 Y114.9903
G1 X24.5762
G1 Y116.0305
G1 X25.2842 Y116.4576
G1 Y114.9903
G1 X26.0
G1 Y114.4366
G1 X25.2842
G1 Y111.9805
G3 X25.2891 Y111.7835 I3.4492 J-0.0118
G3 X25.3198 Y111.5889 I0.7489 J0.0182
G3 X25.4424 Y111.4505 I0.2839 J0.128
G3 X25.6876 Y111.3991 I0.2215 J0.446
G3 X26.0 Y111.4268 I-0.0541 J2.3872
G0 Z3.0
G0 X23.3422
G0 Z0.4
G1 F1000.0 Z-0.01
G1 F2000.0 Y110.79
G1 X22.6303
G1 Y116.5881
G1 X23.3422
G1 Y111.4268
G0 Z3.0
G0 X21.5308
G0 Z0.4
G1 F1000.0 Z-0.01
G1 F2000.0 Y110.79
G1 X20.894
G1 Y111.407
G2 X20.3211 Y110.876 I-1.3797 J0.9141
G2 X19.5612 Y110.6951 I-0.7338 J1.3957
G2 X18.8651 Y110.8375 I-0.0123 J1.7127
G2 X18.603 Y110.9847 I0.5964 J1.3685
G2 X18.3865 Y111.1934 I0.5537 J0.7909
G2 X18.169 Y111.7234 I1.1431 J0.7788
G2 X18.1329 Y112.0547 I2.2994 J0.4183
G2 X18.1255 Y112.3879 I6.7329 J0.3159
G1 Y114.9903
G1 X18.8374
G1 Y112.6608
G3 X18.8439 Y112.2841 I9.5813 J-0.0231
G3 X18.8809 Y111.9093 I2.4604 J0.0537
G3 X19.1657 Y111.4663 I0.7345 J0.1592
G3 X19.7036 Y111.3081 I0.5085 J0.7353
G3 X20.3047 Y111.4703 I0.0035 J1.1826
G3 X20.7002 Y111.9172 I-0.4492 J0.796
G3 X20.7968 Y112.3231 I-1.4595 J0.5618
G3 X20.8189 Y112.7399 I-3.5428 J0.3964
G1 Y114.9903
G1 X21.5308
G1 Y111.4268
G0 Z3.0
G0 X16.9943
G0 Z0.4
G1 F1000.0 Z-0.01
G1 F2000.0 Y110.79
G1 X16.2547
G1 Y115.6429
G1 X14.5699 Y110.79
G1 X13.8777
G1 X12.2008 Y115.7259
G1 Y110.79
G1 X11.4612
G1 Y116.5881
G1 X12.6161
G1 X13.9885 Y112.4828
G2 X14.2653 Y111.6245 I-42.297 J-14.118
G2 X14.5738 Y112.554 I39.7879 J-12.6903
G1 X15.9621 Y116.5881
G1 X16.9943
G1 Y111.4268
G0 Z3.0
G0 X19.7712 Y119.71
G0 Z0.4
G1 F1000.0 Z-0.01
G1 F2000.0 Y125.5081
G1 X20.9261
G1 X22.2985 Y121.4028
G2 X22.5753 Y120.5445 I-42.297 J-14.118
G2 X22.8838 Y121.474 I39.7879 J-12.6903
G1 X24.2721 Y125.5081
G1 X25.3043
G1 Y119.71
G1 X24.5647
G1 Y124.5629
G1 X22.8799 Y119.71
G1 X22.1877
G1 X20.5108 Y124.6459
G1 Y119.71
G1 X19.7712
G0 Z3.0
G0 X26.5818
G0 Z0.4
G1 F1000.0 Z-0.01
G1 F2000.0 Y125.5081
G1 X30.4934
G1 Y124.8239
G1 X27.3491
G1 Y123.0283
G1 X30.0702
G1 Y122.3441
G1 X27.3491
G1 Y119.71
G1 X26.5818
G0 Z3.0
G0 X26.7001 Y116.5881
G0 Z0.4
G1 F1000.0 Z-0.01
G1 F2000.0 X27.412
G1 Y115.7694
G1 X26.7001
G1 Y116.5881
G0 Z3.0
G0 X31.8776 Y120.6192
G0 Z0.4
G1 F1000.0 Z-0.01
G2 F2000.0 X31.5889 Y121.0864 I2.0083 J1.5636
G2 X31.2567 Y122.5339 I2.94 J1.4367
G2 X31.4238 Y123.7388 I4.0493 J0.0525
G2 X32.0319 Y124.7923 I2.5388 J-0.7633
G2 X32.9447 Y125.4163 I1.8518 J-1.7291
G2 X34.0332 Y125.611 I1.0514 J-2.7389
G2 X35.4807 Y125.2273 I0.0384 J-2.7778
G2 X36.4616 Y124.1555 I-1.2671 J-2.1443
G2 X36.7224 Y123.3982 I-2.8262 J-1.3969
G2 X36.8017 Y122.6012 I-3.7873 J-0.7794
G2 X36.7183 Y121.7908 I-3.8073 J-0.0176
G2 X36.4458 Y121.0231 I-3.0785 J0.6606
G2 X35.4372 Y119.9671 I-2.1902 J1.0821
G2 X34.0292 Y119.6111 I-1.3907 J2.5382
G2 X33.2697 Y119.7058 I-0.0156 J2.9684
G2 X32.5658 Y120.0066 I0.6641 J2.5277
G2 X31.8776 Y120.6192 I1.32 J2.1761
G0 Z3.0
G0 X32.4648 Y121.0456
G0 Z0.4
G1 F1000.0 Z-0.01
G3 F2000.0 X32.6094 Y120.8688 I1.6062 J1.1664
G3 X34.0253 Y120.2677 I1.3712 J1.2616
G3 X34.8042 Y120.4156 I0.0248 J1.9937
G3 X35.4491 Y120.8767 I-0.7184 J1.6864
G3 X35.8932 Y121.6879 I-1.4827 J1.3389
G3 X36.0107 Y122.6051 I-3.1919 J0.8751
G3 X35.9566 Y123.2351 I-3.4889 J0.0174
G3 X35.7695 Y123.8391 I-2.5112 J-0.4469
G3 X35.0694 Y124.6578 I-1.6631 J-0.7134
G3 X34.0371 Y124.9505 I-1.0074 J-1.5865
G3 X32.6331 Y124.3889 I-0.0284 J-1.9648
G3 X32.3334 Y123.9844 I1.0634 J-1.1012
G3 X32.1054 Y123.2699 I2.182 J-1.0899
G3 X32.0477 Y122.5221 I4.4092 J-0.7162
G3 X32.1697 Y121.6415 I2.9712 J-0.0373
G3 X32.4648 Y121.0456 I1.9013 J0.5705
G0 Z3.0
G0 X37.5354 Y121.4463
G0 Z0.4
G1 F1000.0 Z-0.01
G2 F2000.0 X37.5295 Y121.5728 I1.9717 J0.1558
G1 X38.2533 Y121.6361
G3 X38.3303 Y121.2644 I2.0337 J0.2277
G3 X38.4906 Y120.9203 I1.2988 J0.3954
G3 X38.7518 Y120.654 I0.9222 J0.6436
G3 X39.0759 Y120.4694 I0.9891 J1.3595
G3 X39.9658 Y120.2993 I0.8562 J2.0669
G3 X40.741 Y120.4298 I0.0378 J2.1429
G3 X41.016 Y120.5717 I-0.48 J1.2677
G3 X41.2393 Y120.7858 I-0.4962 J0.7413
G3 X41.4054 Y121.2841 I-0.6664 J0.499
G3 X41.2472 Y121.7587 I-0.7467 J0.0148
G3 X41.0092 Y121.9657 I-0.6903 J-0.5534
G3 X40.7252 Y122.1028 I-0.8648 J-1.4289
G3 X40.2123 Y122.2552 I-1.8928 J-5.4306
G3 X39.6929 Y122.3836 I-6.562 J-25.4276
G2 X39.1239 Y122.5368 I2.4313 J10.1638
G2 X38.5736 Y122.7475 I0.9225 J3.2337
G2 X38.2281 Y122.9759 I0.8783 J1.7041
G2 X37.9527 Y123.2854 I0.8804 J1.0608
G2 X37.751 Y124.0092 I1.1413 J0.7081
G2 X38.0001 Y124.8279 I1.4644 J0.0016
G2 X38.7279 Y125.4093 I1.2813 J-0.8577
G2 X39.7918 Y125.607 I1.0277 J-2.5683
G2 X40.3699 Y125.5596 I0.015 J-3.3677
G2 X40.9269 Y125.3974 I-0.4192 J-2.4763
G2 X41.6863 Y124.7883 I-0.5934 J-1.5177
G2 X41.971 Y123.8747 I-1.4704 J-0.9595
G1 X41.2354 Y123.8193
G3 X41.1174 Y124.2753 I-1.4795 J-0.1397
G3 X40.832 Y124.6499 I-0.9331 J-0.4148
G3 X40.3514 Y124.8755 I-0.7258 J-0.9212
G3 X39.8234 Y124.9307 I-0.5018 J-2.2482
G3 X39.2947 Y124.8833 I-0.0284 J-2.6529
G3 X38.807 Y124.6736 I0.1972 J-1.1309
G3 X38.5755 Y124.4049 I0.5419 J-0.7008
G3 X38.4906 Y124.0606 I0.6301 J-0.3381
G3 X38.716 Y123.5464 I0.6592 J-0.0175
G3 X38.9842 Y123.3926 I0.6274 J0.7834
G3 X39.4224 Y123.2446 I1.4791 J3.6549
G3 X39.8709 Y123.1311 I2.4805 J8.8644
G2 X40.521 Y122.9731 I-3.4725 J-15.7053
G2 X41.1563 Y122.7633 I-1.1303 J-4.4889
G2 X41.5709 Y122.5181 I-0.904 J-2.0017
G2 X41.9038 Y122.1701 I-0.8823 J-1.1772
G2 X42.145 Y121.3474 I-1.191 J-0.796
G2 X41.8801 Y120.4733 I-1.5874 J0.004
G2 X41.1167 Y119.8366 I-1.466 J0.9815
G2 X40.0014 Y119.6111 I-1.0735 J2.4393
G2 X39.3294 Y119.6599 I-0.0234 J4.3313
G2 X38.6804 Y119.8405 I0.3991 J2.6903
G2 X37.8459 Y120.5287 I0.7191 J1.7221
G2 X37.5354 Y121.4463 I1.6612 J1.0734
G0 Z3.0
G0 X41.5514 Y116.5881
G0 Z0.4
G1 F1000.0 Z-0.01
G1 F2000.0 X42.2633
G1 Y115.7694
G1 X41.5514
G1 Y116.5881
G0 Z3.0
G0 Y114.9903
G0 Z0.4
G1 F1000.0 Z-0.01
G1 F2000.0 X42.2633
G1 Y110.79
G1 X41.5514
G1 Y114.9903
G0 Z3.0
G0 X40.3836 Y114.2373
G0 Z0.4
G1 F1000.0 Z-0.01
G2 F2000.0 X40.5937 Y113.7872 I-1.5389 J-0.9922
G2 X40.7129 Y112.9495 I-2.6277 J-0.8014
G2 X40.6645 Y112.2965 I-4.032 J-0.0289
G2 X40.4677 Y111.672 I-2.0586 J0.3053
G2 X39.7598 Y110.9522 I-1.5185 J0.7854
G2 X38.7473 Y110.6951 I-0.9942 J1.7933
G2 X37.9736 Y110.827 I-0.028 J2.1697
G2 X37.3195 Y111.2607 I0.6297 J1.6602
G2 X36.8905 Y112.0228 I1.3376 J1.2547
G2 X36.7776 Y112.8901 I2.9626 J0.8265
G2 X36.9116 Y113.8258 I2.9977 J0.0481
G2 X37.4263 Y114.6185 I1.6723 J-0.5222
G2 X38.0436 Y114.9742 I1.2237 J-1.4105
G2 X38.7473 Y115.0852 I0.6836 J-2.0465
G2 X39.5155 Y114.9503 I0.0261 J-2.1056
G2 X40.1632 Y114.5157 I-0.6553 J-1.6766
G2 X40.3836 Y114.2373 I-1.3184 J-1.2706
G0 Z3.0
G0 X39.7707 Y113.8865
G0 Z0.4
G1 F1000.0 Z-0.01
G3 F2000.0 X39.6253 Y114.0925 I-1.155 J-0.6611
G3 X38.7473 Y114.4959 I-0.8598 J-0.7142
G3 X37.8613 Y114.0964 I-0.0233 J-1.1305
G3 X37.5783 Y113.5245 I1.0279 J-0.8647
G3 X37.5093 Y112.8901 I2.5872 J-0.6021
G3 X37.5785 Y112.254 I2.6638 J-0.0321
G3 X37.8613 Y111.6799 I1.3274 J0.2972
G3 X38.7473 Y111.2804 I0.8626 J0.731
G3 X39.6292 Y111.6838 I0.0202 J1.1217
G3 X39.913 Y112.268 I-1.0514 J0.8717
G3 X39.9812 Y112.9139 I-2.7081 J0.6127
G3 X39.9099 Y113.5354 I-2.4767 J0.0306
G3 X39.7707 Y113.8865 I-1.2943 J-0.31
G0 Z3.0
G0 X43.1809 Y113.8851
G0 Z0.4
G1 F1000.0 Z-0.01
G2 F2000.0 X43.3075 Y114.3931 I1.084 J-0.0004
G2 X43.6595 Y114.7925 I1.0279 J-0.551
G2 X44.1103 Y114.9982 I0.8241 J-1.2097
G2 X44.7273 Y115.0852 I0.6027 J-2.0429
G2 X45.5935 Y114.9428 I0.0455 J-2.4289
G2 X45.8985 Y114.7893 I-0.5257 J-1.4241
G2 X46.1472 Y114.5552 I-0.5275 J-0.8096
G2 X46.3075 Y114.2452 I-0.9722 J-0.6991
G2 X46.3924 Y113.9066 I-1.8601 J-0.6464
G1 X45.6963 Y113.8117
G3 X45.4195 Y114.3179 I-0.7549 J-0.084
G3 X45.1145 Y114.4629 I-0.4791 J-0.6145
G3 X44.7787 Y114.4999 I-0.3201 J-1.3647
G3 X44.4166 Y114.4713 I-0.0203 J-2.0529
G3 X44.0787 Y114.3377 I0.1133 J-0.7805
G3 X43.928 Y114.1732 I0.3552 J-0.4765
G3 X43.8691 Y113.958 I0.3568 J-0.2134
G3 X43.9561 Y113.7088 I0.393 J-0.0025
G3 X44.229 Y113.519 I0.4877 J0.41
G3 X44.8579 Y113.3371 I4.2301 J13.4435
G2 X45.389 Y113.187 I-4.3869 J-16.5448
G2 X45.9099 Y113.0048 I-1.4338 J-4.9355
G2 X46.3806 Y112.6331 I-0.3923 J-0.9804
G2 X46.5506 Y112.024 I-0.8784 J-0.5735
G2 X46.341 Y111.3516 I-1.1973 J0.0044
G2 X45.7438 Y110.8651 I-1.1158 J0.7599
G2 X44.8579 Y110.6951 I-0.8507 J2.039
G2 X44.2051 Y110.7626 I-0.0315 J2.883
G2 X43.608 Y111.0352 I0.3144 J1.4787
G2 X43.2415 Y111.4888 I0.8566 J1.0671
G2 X43.0622 Y112.0438 I1.7666 J0.877
G1 X43.7662 Y112.1545
G3 X43.8689 Y111.7991 I1.1981 J0.1536
G3 X44.0945 Y111.5059 I0.7834 J0.3693
G3 X44.4547 Y111.3273 I0.5842 J0.7258
G3 X44.8539 Y111.2804 I0.3814 J1.5252
G3 X45.2344 Y111.3182 I0.0198 J1.7347
G3 X45.5816 Y111.4782 I-0.1611 J0.8066
G3 X45.7542 Y111.6863 I-0.456 J0.5538
G3 X45.8189 Y111.9488 I-0.4876 J0.2594
G3 X45.6093 Y112.3285 I-0.4324 J0.009
G3 X45.4345 Y112.4084 I-0.4898 J-0.841
G3 X44.8816 Y112.5698 I-1.9826 J-5.7641
G2 X44.3313 Y112.7192 I3.4235 J13.6932
G2 X43.7939 Y112.9099 I1.1617 J4.1263
G2 X43.3351 Y113.3094 I0.4551 J0.9859
G2 X43.1809 Y113.875 I0.9245 J0.556
G2 Y113.8851 I1.084 J0.0097
G0 Z3.0
G0 X47.1894 Y113.3216
G0 Z0.4
G1 F1000.0 Z-0.01
G2 F2000.0 X47.2752 Y113.7294 I3.0422 J-0.4277
G2 X47.7055 Y114.4999 I1.8408 J-0.5227
G2 X48.35 Y114.946 I1.3102 J-1.204
G2 X49.1214 Y115.0852 I0.7448 J-1.921
G2 X49.8719 Y114.9479 I0.0252 J-1.9825
G2 X50.4978 Y114.5117 I-0.6612 J-1.6159
G2 X50.9189 Y113.7559 I-1.3837 J-1.266
G2 X51.0317 Y112.8981 I-2.9095 J-0.8191
G2 X51.0278 Y112.7082 I-7.1058 J0.0531
G1 X47.8954
G3 X47.9967 Y112.1434 I2.1736 J0.0986
G3 X48.2869 Y111.6483 I1.2436 J0.3962
G3 X49.1649 Y111.2804 I0.8501 J0.7974
G3 X49.8333 Y111.4861 I0.03 J1.0914
G3 X50.1006 Y111.7824 I-0.6617 J0.8656
G3 X50.2724 Y112.1426 I-1.5661 J0.9677
G1 X51.008 Y112.0517
G2 X50.7708 Y111.4965 I-1.9714 J0.5139
G2 X50.3633 Y111.051 I-1.4085 J0.8794
G2 X49.7915 Y110.7738 I-1.0026 J1.3397
G2 X49.161 Y110.6951 I-0.6077 J2.3024
G2 X48.3695 Y110.8233 I-0.0317 J2.3115
G2 X47.6976 Y111.2607 I0.5892 J1.64
G2 X47.2744 Y112.0055 I1.3581 J1.2643
G2 X47.1597 Y112.8546 I2.8052 J0.8112
G2 X47.1894 Y113.3216 I3.0718 J0.0394
G0 Z3.0
G0 X47.9349 Y113.2936
G0 Z0.4
G1 F1000.0 Z-0.01
G1 F2000.0 X50.2803
G3 X50.2042 Y113.7108 I-2.1039 J-0.1682
G3 X50.0113 Y114.0885 I-1.0259 J-0.2856
G3 X49.1293 Y114.4999 I-0.8538 J-0.6794
G3 X48.3027 Y114.1716 I-0.0267 J-1.1376
G3 X48.0362 Y113.7672 I0.8231 J-0.8326
G3 X47.9349 Y113.2936 I1.4436 J-0.5563
G0 Z3.0
G0 X11.3897 Y102.1032
G0 Z0.4
G1 F1000.0 Z-0.01
G3 F2000.0 X10.9249 Y101.9626 I0.2056 J-1.5181
G3 X10.5499 Y101.6579 I0.4535 J-0.9413
G3 X10.296 Y101.1384 I1.2391 J-0.9274
G3 X10.2061 Y100.3806 I2.7393 J-0.709
G1 Y98.8767
G1 Y100.3806
G2 X10.296 Y101.1384 I2.8297 J0.0488
G2 X10.5499 Y101.6579 I1.4932 J-0.4079
G2 X10.9249 Y101.9626 I0.8285 J-0.6366
G2 X11.3897 Y102.1032 I0.6704 J-1.3775
G0 Z3.0
G0 X10.2061 Y102.0134
G0 Z0.4
G1 F1000.0 Z-0.01
G1 F2000.0 Y98.8806
G1 Y102.0134
( mounting )
G0 Z3.0
( T3 : 3.175 )
T3 M6
M3 S1000
G0 X29.82 Y94.25
G0 Z3.0
G0 X29.8325 Y94.25
G0 Z0.01
G1 F1000.0 Z0.0
G2 F2000.0 X29.8138 Y94.2392 Z-0.0333 I-0.0125 J0.0
G2 Y94.2608 Z-0.0667 I0.0062 J0.0108
G2 X29.8325 Y94.25 Z-0.1 I0.0063 J-0.0108
G2 X29.8138 Y94.2392 Z-0.1333 I-0.0125 J0.0
G2 Y94.2608 Z-0.1667 I0.0062 J0.0108
G2 X29.8325 Y94.25 Z-0.2 I0.0063 J-0.0108
G2 X29.8138 Y94.2392 Z-0.2333 I-0.0125 J0.0
G2 Y94.2608 Z-0.2667 I0.0062 J0.0108
G2 X29.8325 Y94.25 Z-0.3 I0.0063 J-0.0108
G2 X29.8138 Y94.2392 Z-0.3333 I-0.0125 J0.0
G2 Y94.2608 Z-0.3667 I0.0062 J0.0108
G2 X29.8325 Y94.25 Z-0.4 I0.0063 J-0.0108
G2 X29.8138 Y94.2392 Z-0.4333 I-0.0125 J0.0
G2 Y94.2608 Z-0.4667 I0.0062 J0.0108
G2 X29.8325 Y94.25 Z-0.5 I0.0063 J-0.0108
G2 X29.8138 Y94.2392 Z-0.5333 I-0.0125 J0.0
G2 Y94.2608 Z-0.5667 I0.0062 J0.0108
G2 X29.8325 Y94.25 Z-0.6 I0.0063 J-0.0108
G2 X29.8138 Y94.2392 Z-0.6333 I-0.0125 J0.0
G2 Y94.2608 Z-0.6667 I0.0062 J0.0108
G2 X29.8325 Y94.25 Z-0.7 I0.0063 J-0.0108
G2 X29.8138 Y94.2392 Z-0.7333 I-0.0125 J0.0
G2 Y94.2608 Z-0.7667 I0.0062 J0.0108
G2 X29.8325 Y94.25 Z-0.8 I0.0063 J-0.0108
G2 X29.8138 Y94.2392 Z-0.8333 I-0.0125 J0.0
G2 Y94.2608 Z-0.8667 I0.0062 J0.0108
G2 X29.8325 Y94.25 Z-0.9 I0.0063 J-0.0108
G2 X29.8138 Y94.2392 Z-0.9333 I-0.0125 J0.0
G2 Y94.2608 Z-0.9667 I0.0062 J0.0108
G2 X29.8325 Y94.25 Z-1.0 I0.0063 J-0.0108
G2 X29.8138 Y94.2392 Z-1.0333 I-0.0125 J0.0
G2 Y94.2608 Z-1.0667 I0.0062 J0.0108
G2 X29.8325 Y94.25 Z-1.1 I0.0063 J-0.0108
G2 X29.8138 Y94.2392 Z-1.1333 I-0.0125 J0.0
G2 Y94.2608 Z-1.1667 I0.0062 J0.0108
G2 X29.8325 Y94.25 Z-1.2 I0.0063 J-0.0108
G2 X29.8138 Y94.2392 Z-1.2333 I-0.0125 J0.0
G2 Y94.2608 Z-1.2667 I0.0062 J0.0108
G2 X29.8325 Y94.25 Z-1.3 I0.0063 J-0.0108
G2 X29.8138 Y94.2392 Z-1.3333 I-0.0125 J0.0
G2 Y94.2608 Z-1.3667 I0.0062 J0.0108
G2 X29.8325 Y94.25 Z-1.4 I0.0063 J-0.0108
G2 X29.8138 Y94.2392 Z-1.4333 I-0.0125 J0.0
G2 Y94.2608 Z-1.4667 I0.0062 J0.0108
G2 X29.8325 Y94.25 Z-1.5 I0.0063 J-0.0108
G2 X29.8138 Y94.2392 Z-1.5333 I-0.0125 J0.0
G2 Y94.2608 Z-1.5667 I0.0062 J0.0108
G2 X29.8325 Y94.25 Z-1.6 I0.0063 J-0.0108
G2 X29.8138 Y94.2392 Z-1.6333 I-0.0125 J0.0
G2 Y94.2608 Z-1.6667 I0.0062 J0.0108
G2 X29.8325 Y94.25 Z-1.7 I0.0063 J-0.0108
G2 X29.8138 Y94.2392 Z-1.7333 I-0.0125 J0.0
G2 Y94.2608 Z-1.7667 I0.0062 J0.0108
G2 X29.8325 Y94.25 Z-1.8 I0.0063 J-0.0108
G2 X29.8138 Y94.2392 Z-1.8333 I-0.0125 J0.0
G2 Y94.2608 Z-1.8667 I0.0062 J0.0108
G2 X29.8325 Y94.25 Z-1.9 I0.0063 J-0.0108
G2 X29.8138 Y94.2392 Z-1.9333 I-0.0125 J0.0
G2 Y94.2608 Z-1.9667 I0.0062 J0.0108
G2 X29.8325 Y94.25 Z-2.0 I0.0063 J-0.0108
G2 X29.8138 Y94.2392 Z-2.0333 I-0.0125 J0.0
G2 Y94.2608 Z-2.0667 I0.0062 J0.0108
G2 X29.8325 Y94.25 Z-2.1 I0.0063 J-0.0108
G2 X29.8138 Y94.2392 Z-2.1333 I-0.0125 J0.0
G2 Y94.2608 Z-2.1667 I0.0062 J0.0108
G2 X29.8325 Y94.25 Z-2.2 I0.0063 J-0.0108
G2 X29.8138 Y94.2392 Z-2.2333 I-0.0125 J0.0
G2 Y94.2608 Z-2.2667 I0.0062 J0.0108
G2 X29.8325 Y94.25 Z-2.3 I0.0063 J-0.0108
G2 X29.8138 Y94.2392 Z-2.3333 I-0.0125 J0.0
G2 Y94.2608 Z-2.3667 I0.0062 J0.0108
G2 X29.8325 Y94.25 Z-2.4 I0.0063 J-0.0108
G2 X29.8138 Y94.2392 Z-2.4333 I-0.0125 J0.0
G2 Y94.2608 Z-2.4667 I0.0062 J0.0108
G2 X29.8325 Y94.25 Z-2.5 I0.0063 J-0.0108
G2 X29.8138 Y94.2392 Z-2.5333 I-0.0125 J0.0
G2 Y94.2608 Z-2.5667 I0.0062 J0.0108
G2 X29.8325 Y94.25 Z-2.6 I0.0063 J-0.0108
G2 X29.8138 Y94.2392 Z-2.6333 I-0.0125 J0.0
G2 Y94.2608 Z-2.6667 I0.0062 J0.0108
G2 X29.8325 Y94.25 Z-2.7 I0.0063 J-0.0108
G2 X29.8138 Y94.2392 Z-2.7333 I-0.0125 J0.0
G2 Y94.2608 Z-2.7667 I0.0062 J0.0108
G2 X29.8325 Y94.25 Z-2.8 I0.0063 J-0.0108
G2 X29.8138 Y94.2392 Z-2.8333 I-0.0125 J0.0
G2 Y94.2608 Z-2.8667 I0.0062 J0.0108
G2 X29.8325 Y94.25 Z-2.9 I0.0063 J-0.0108
G2 X29.8138 Y94.2392 Z-2.9333 I-0.0125 J0.0
G2 Y94.2608 Z-2.9667 I0.0062 J0.0108
G2 X29.8325 Y94.25 Z-3.0 I0.0063 J-0.0108
G2 X29.8138 Y94.2392 Z-3.0333 I-0.0125 J0.0
G2 Y94.2608 Z-3.0667 I0.0062 J0.0108
G2 X29.8325 Y94.25 Z-3.1 I0.0063 J-0.0108
G2 X29.8138 Y94.2392 Z-3.1333 I-0.0125 J0.0
G2 Y94.2608 Z-3.1667 I0.0062 J0.0108
G2 X29.8325 Y94.25 Z-3.2 I0.0063 J-0.0108
G2 X29.8138 Y94.2392 I-0.0125 J0.0
G2 Y94.2608 I0.0063 J0.0108
G2 X29.8325 Y94.25 I0.0062 J-0.0108
G0 Z3.0
G0 X49.0625 Y90.72
G0 Z0.01
G1 F1000.0 Z0.0
G2 F2000.0 X49.0438 Y90.7092 Z-0.0333 I-0.0125 J0.0
G2 Y90.7308 Z-0.0667 I0.0062 J0.0108
G2 X49.0625 Y90.72 Z-0.1 I0.0063 J-0.0108
G2 X49.0438 Y90.7092 Z-0.1333 I-0.0125 J0.0
G2 Y90.7308 Z-0.1667 I0.0062 J0.0108
G2 X49.0625 Y90.72 Z-0.2 I0.0063 J-0.0108
G2 X49.0438 Y90.7092 Z-0.2333 I-0.0125 J0.0
G2 Y90.7308 Z-0.2667 I0.0062 J0.0108
G2 X49.0625 Y90.72 Z-0.3 I0.0063 J-0.0108
G2 X49.0438 Y90.7092 Z-0.3333 I-0.0125 J0.0
G2 Y90.7308 Z-0.3667 I0.0062 J0.0108
G2 X49.0625 Y90.72 Z-0.4 I0.0063 J-0.0108
G2 X49.0438 Y90.7092 Z-0.4333 I-0.0125 J0.0
G2 Y90.7308 Z-0.4667 I0.0062 J0.0108
G2 X49.0625 Y90.72 Z-0.5 I0.0063 J-0.0108
G2 X49.0438 Y90.7092 Z-0.5333 I-0.0125 J0.0
G2 Y90.7308 Z-0.5667 I0.0062 J0.0108
G2 X49.0625 Y90.72 Z-0.6 I0.0063 J-0.0108
G2 X49.0438 Y90.7092 Z-0.6333 I-0.0125 J0.0
G2 Y90.7308 Z-0.6667 I0.0062 J0.0108
G2 X49.0625 Y90.72 Z-0.7 I0.0063 J-0.0108
G2 X49.0438 Y90.7092 Z-0.7333 I-0.0125 J0.0
G2 Y90.7308 Z-0.7667 I0.0062 J0.0108
G2 X49.0625 Y90.72 Z-0.8 I0.0063 J-0.0108
G2 X49.0438 Y90.7092 Z-0.8333 I-0.0125 J0.0
G2 Y90.7308 Z-0.8667 I0.0062 J0.0108
G2 X49.0625 Y90.72 Z-0.9 I0.0063 J-0.0108
G2 X49.0438 Y90.7092 Z-0.9333 I-0.0125 J0.0
G2 Y90.7308 Z-0.9667 I0.0062 J0.0108
G2 X49.0625 Y90.72 Z-1.0 I0.0063 J-0.0108
G2 X49.0438 Y90.7092 Z-1.0333 I-0.0125 J0.0
G2 Y90.7308 Z-1.0667 I0.0062 J0.0108
G2 X49.0625 Y90.72 Z-1.1 I0.0063 J-0.0108
G2 X49.0438 Y90.7092 Z-1.1333 I-0.0125 J0.0
G2 Y90.7308 Z-1.1667 I0.0062 J0.0108
G2 X49.0625 Y90.72 Z-1.2 I0.0063 J-0.0108
G2 X49.0438 Y90.7092 Z-1.2333 I-0.0125 J0.0
G2 Y90.7308 Z-1.2667 I0.0062 J0.0108
G2 X49.0625 Y90.72 Z-1.3 I0.0063 J-0.0108
G2 X49.0438 Y90.7092 Z-1.3333 I-0.0125 J0.0
G2 Y90.7308 Z-1.3667 I0.0062 J0.0108
G2 X49.0625 Y90.72 Z-1.4 I0.0063 J-0.0108
G2 X49.0438 Y90.7092 Z-1.4333 I-0.0125 J0.0
G2 Y90.7308 Z-1.4667 I0.0062 J0.0108
G2 X49.0625 Y90.72 Z-1.5 I0.0063 J-0.0108
G2 X49.0438 Y90.7092 Z-1.5333 I-0.0125 J0.0
G2 Y90.7308 Z-1.5667 I0.0062 J0.0108
G2 X49.0625 Y90.72 Z-1.6 I0.0063 J-0.0108
G2 X49.0438 Y90.7092 Z-1.6333 I-0.0125 J0.0
G2 Y90.7308 Z-1.6667 I0.0062 J0.0108
G2 X49.0625 Y90.72 Z-1.7 I0.0063 J-0.0108
G2 X49.0438 Y90.7092 Z-1.7333 I-0.0125 J0.0
G2 Y90.7308 Z-1.7667 I0.0062 J0.0108
G2 X49.0625 Y90.72 Z-1.8 I0.0063 J-0.0108
G2 X49.0438 Y90.7092 Z-1.8333 I-0.0125 J0.0
G2 Y90.7308 Z-1.8667 I0.0062 J0.0108
G2 X49.0625 Y90.72 Z-1.9 I0.0063 J-0.0108
G2 X49.0438 Y90.7092 Z-1.9333 I-0.0125 J0.0
G2 Y90.7308 Z-1.9667 I0.0062 J0.0108
G2 X49.0625 Y90.72 Z-2.0 I0.0063 J-0.0108
G2 X49.0438 Y90.7092 Z-2.0333 I-0.0125 J0.0
G2 Y90.7308 Z-2.0667 I0.0062 J0.0108
G2 X49.0625 Y90.72 Z-2.1 I0.0063 J-0.0108
G2 X49.0438 Y90.7092 Z-2.1333 I-0.0125 J0.0
G2 Y90.7308 Z-2.1667 I0.0062 J0.0108
G2 X49.0625 Y90.72 Z-2.2 I0.0063 J-0.0108
G2 X49.0438 Y90.7092 Z-2.2333 I-0.0125 J0.0
G2 Y90.7308 Z-2.2667 I0.0062 J0.0108
G2 X49.0625 Y90.72 Z-2.3 I0.0063 J-0.0108
G2 X49.0438 Y90.7092 Z-2.3333 I-0.0125 J0.0
G2 Y90.7308 Z-2.3667 I0.0062 J0.0108
G2 X49.0625 Y90.72 Z-2.4 I0.0063 J-0.0108
G2 X49.0438 Y90.7092 Z-2.4333 I-0.0125 J0.0
G2 Y90.7308 Z-2.4667 I0.0062 J0.0108
G2 X49.0625 Y90.72 Z-2.5 I0.0063 J-0.0108
G2 X49.0438 Y90.7092 Z-2.5333 I-0.0125 J0.0
G2 Y90.7308 Z-2.5667 I0.0062 J0.0108
G2 X49.0625 Y90.72 Z-2.6 I0.0063 J-0.0108
G2 X49.0438 Y90.7092 Z-2.6333 I-0.0125 J0.0
G2 Y90.7308 Z-2.6667 I0.0062 J0.0108
G2 X49.0625 Y90.72 Z-2.7 I0.0063 J-0.0108
G2 X49.0438 Y90.7092 Z-2.7333 I-0.0125 J0.0
G2 Y90.7308 Z-2.7667 I0.0062 J0.0108
G2 X49.0625 Y90.72 Z-2.8 I0.0063 J-0.0108
G2 X49.0438 Y90.7092 Z-2.8333 I-0.0125 J0.0
G2 Y90.7308 Z-2.8667 I0.0062 J0.0108
G2 X49.0625 Y90.72 Z-2.9 I0.0063 J-0.0108
G2 X49.0438 Y90.7092 Z-2.9333 I-0.0125 J0.0
G2 Y90.7308 Z-2.9667 I0.0063 J0.0108
G2 X49.0625 Y90.72 Z-3.0 I0.0063 J-0.0108
G2 X49.0438 Y90.7092 Z-3.0333 I-0.0125 J0.0
G2 Y90.7308 Z-3.0667 I0.0063 J0.0108
G2 X49.0625 Y90.72 Z-3.1 I0.0063 J-0.0108
G2 X49.0438 Y90.7092 Z-3.1333 I-0.0125 J0.0
G2 Y90.7308 Z-3.1667 I0.0063 J0.0108
G2 X49.0625 Y90.72 Z-3.2 I0.0063 J-0.0108
G2 X49.0438 Y90.7092 I-0.0125 J0.0
G2 Y90.7308 I0.0063 J0.0108
G2 X49.0625 Y90.72 I0.0062 J-0.0108
G0 Z3.0
G0 Y100.87
G0 Z0.01
G1 F1000.0 Z0.0
G2 F2000.0 X49.0438 Y100.8592 Z-0.0333 I-0.0125 J0.0
G2 Y100.8808 Z-0.0667 I0.0062 J0.0108
G2 X49.0625 Y100.87 Z-0.1 I0.0063 J-0.0108
G2 X49.0438 Y100.8592 Z-0.1333 I-0.0125 J0.0
G2 Y100.8808 Z-0.1667 I0.0062 J0.0108
G2 X49.0625 Y100.87 Z-0.2 I0.0063 J-0.0108
G2 X49.0438 Y100.8592 Z-0.2333 I-0.0125 J0.0
G2 Y100.8808 Z-0.2667 I0.0062 J0.0108
G2 X49.0625 Y100.87 Z-0.3 I0.0063 J-0.0108
G2 X49.0438 Y100.8592 Z-0.3333 I-0.0125 J0.0
G2 Y100.8808 Z-0.3667 I0.0062 J0.0108
G2 X49.0625 Y100.87 Z-0.4 I0.0063 J-0.0108
G2 X49.0438 Y100.8592 Z-0.4333 I-0.0125 J0.0
G2 Y100.8808 Z-0.4667 I0.0062 J0.0108
G2 X49.0625 Y100.87 Z-0.5 I0.0063 J-0.0108
G2 X49.0438 Y100.8592 Z-0.5333 I-0.0125 J0.0
G2 Y100.8808 Z-0.5667 I0.0062 J0.0108
G2 X49.0625 Y100.87 Z-0.6 I0.0063 J-0.0108
G2 X49.0438 Y100.8592 Z-0.6333 I-0.0125 J0.0
G2 Y100.8808 Z-0.6667 I0.0062 J0.0108
G2 X49.0625 Y100.87 Z-0.7 I0.0063 J-0.0108
G2 X49.0438 Y100.8592 Z-0.7333 I-0.0125 J0.0
G2 Y100.8808 Z-0.7667 I0.0062 J0.0108
G2 X49.0625 Y100.87 Z-0.8 I0.0063 J-0.0108
G2 X49.0438 Y100.8592 Z-0.8333 I-0.0125 J0.0
G2 Y100.8808 Z-0.8667 I0.0062 J0.0108
G2 X49.0625 Y100.87 Z-0.9 I0.0063 J-0.0108
G2 X49.0438 Y100.8592 Z-0.9333 I-0.0125 J0.0
G2 Y100.8808 Z-0.9667 I0.0062 J0.0108
G2 X49.0625 Y100.87 Z-1.0 I0.0063 J-0.0108
G2 X49.0438 Y100.8592 Z-1.0333 I-0.0125 J0.0
G2 Y100.8808 Z-1.0667 I0.0062 J0.0108
G2 X49.0625 Y100.87 Z-1.1 I0.0063 J-0.0108
G2 X49.0438 Y100.8592 Z-1.1333 I-0.0125 J0.0
G2 Y100.8808 Z-1.1667 I0.0062 J0.0108
G2 X49.0625 Y100.87 Z-1.2 I0.0063 J-0.0108
G2 X49.0438 Y100.8592 Z-1.2333 I-0.0125 J0.0
G2 Y100.8808 Z-1.2667 I0.0062 J0.0108
G2 X49.0625 Y100.87 Z-1.3 I0.0063 J-0.0108
G2 X49.0438 Y100.8592 Z-1.3333 I-0.0125 J0.0
G2 Y100.8808 Z-1.3667 I0.0062 J0.0108
G2 X49.0625 Y100.87 Z-1.4 I0.0063 J-0.0108
G2 X49.0438 Y100.8592 Z-1.4333 I-0.0125 J0.0
G2 Y100.8808 Z-1.4667 I0.0062 J0.0108
G2 X49.0625 Y100.87 Z-1.5 I0.0063 J-0.0108
G2 X49.0438 Y100.8592 Z-1.5333 I-0.0125 J0.0
G2 Y100.8808 Z-1.5667 I0.0062 J0.0108
G2 X49.0625 Y100.87 Z-1.6 I0.0063 J-0.0108
G2 X49.0438 Y100.8592 Z-1.6333 I-0.0125 J0.0
G2 Y100.8808 Z-1.6667 I0.0062 J0.0108
G2 X49.0625 Y100.87 Z-1.7 I0.0063 J-0.0108
G2 X49.0438 Y100.8592 Z-1.7333 I-0.0125 J0.0
G2 Y100.8808 Z-1.7667 I0.0062 J0.0108
G2 X49.0625 Y100.87 Z-1.8 I0.0063 J-0.0108
G2 X49.0438 Y100.8592 Z-1.8333 I-0.0125 J0.0
G2 Y100.8808 Z-1.8667 I0.0062 J0.0108
G2 X49.0625 Y100.87 Z-1.9 I0.0063 J-0.0108
G2 X49.0438 Y100.8592 Z-1.9333 I-0.0125 J0.0
G2 Y100.8808 Z-1.9667 I0.0062 J0.0108
G2 X49.0625 Y100.87 Z-2.0 I0.0063 J-0.0108
G2 X49.0438 Y100.8592 Z-2.0333 I-0.0125 J0.0
G2 Y100.8808 Z-2.0667 I0.0062 J0.0108
G2 X49.0625 Y100.87 Z-2.1 I0.0063 J-0.0108
G2 X49.0438 Y100.8592 Z-2.1333 I-0.0125 J0.0
G2 Y100.8808 Z-2.1667 I0.0062 J0.0108
G2 X49.0625 Y100.87 Z-2.2 I0.0063 J-0.0108
G2 X49.0438 Y100.8592 Z-2.2333 I-0.0125 J0.0
G2 Y100.8808 Z-2.2667 I0.0062 J0.0108
G2 X49.0625 Y100.87 Z-2.3 I0.0063 J-0.0108
G2 X49.0438 Y100.8592 Z-2.3333 I-0.0125 J0.0
G2 Y100.8808 Z-2.3667 I0.0062 J0.0108
G2 X49.0625 Y100.87 Z-2.4 I0.0063 J-0.0108
G2 X49.0438 Y100.8592 Z-2.4333 I-0.0125 J0.0
G2 Y100.8808 Z-2.4667 I0.0062 J0.0108
G2 X49.0625 Y100.87 Z-2.5 I0.0063 J-0.0108
G2 X49.0438 Y100.8592 Z-2.5333 I-0.0125 J0.0
G2 Y100.8808 Z-2.5667 I0.0062 J0.0108
G2 X49.0625 Y100.87 Z-2.6 I0.0063 J-0.0108
G2 X49.0438 Y100.8592 Z-2.6333 I-0.0125 J0.0
G2 Y100.8808 Z-2.6667 I0.0062 J0.0108
G2 X49.0625 Y100.87 Z-2.7 I0.0063 J-0.0108
G2 X49.0438 Y100.8592 Z-2.7333 I-0.0125 J0.0
G2 Y100.8808 Z-2.7667 I0.0062 J0.0108
G2 X49.0625 Y100.87 Z-2.8 I0.0063 J-0.0108
G2 X49.0438 Y100.8592 Z-2.8333 I-0.0125 J0.0
G2 Y100.8808 Z-2.8667 I0.0062 J0.0108
G2 X49.0625 Y100.87 Z-2.9 I0.0063 J-0.0108
G2 X49.0438 Y100.8592 Z-2.9333 I-0.0125 J0.0
G2 Y100.8808 Z-2.9667 I0.0063 J0.0108
G2 X49.0625 Y100.87 Z-3.0 I0.0063 J-0.0108
G2 X49.0438 Y100.8592 Z-3.0333 I-0.0125 J0.0
G2 Y100.8808 Z-3.0667 I0.0063 J0.0108
G2 X49.0625 Y100.87 Z-3.1 I0.0063 J-0.0108
G2 X49.0438 Y100.8592 Z-3.1333 I-0.0125 J0.0
G2 Y100.8808 Z-3.1667 I0.0063 J0.0108
G2 X49.0625 Y100.87 Z-3.2 I0.0063 J-0.0108
G2 X49.0438 Y100.8592 I-0.0125 J0.0
G2 Y100.8808 I0.0063 J0.0108
G2 X49.0625 Y100.87 I0.0062 J-0.0108
G0 Z3.0
G0 X49.2225 Y79.02
G0 Z0.01
G1 F1000.0 Z0.0
G2 F2000.0 X49.2038 Y79.0092 Z-0.0333 I-0.0125 J0.0
G2 Y79.0308 Z-0.0667 I0.0062 J0.0108
G2 X49.2225 Y79.02 Z-0.1 I0.0063 J-0.0108
G2 X49.2038 Y79.0092 Z-0.1333 I-0.0125 J0.0
G2 Y79.0308 Z-0.1667 I0.0062 J0.0108
G2 X49.2225 Y79.02 Z-0.2 I0.0063 J-0.0108
G2 X49.2038 Y79.0092 Z-0.2333 I-0.0125 J0.0
G2 Y79.0308 Z-0.2667 I0.0062 J0.0108
G2 X49.2225 Y79.02 Z-0.3 I0.0063 J-0.0108
G2 X49.2038 Y79.0092 Z-0.3333 I-0.0125 J0.0
G2 Y79.0308 Z-0.3667 I0.0062 J0.0108
G2 X49.2225 Y79.02 Z-0.4 I0.0063 J-0.0108
G2 X49.2038 Y79.0092 Z-0.4333 I-0.0125 J0.0
G2 Y79.0308 Z-0.4667 I0.0062 J0.0108
G2 X49.2225 Y79.02 Z-0.5 I0.0063 J-0.0108
G2 X49.2038 Y79.0092 Z-0.5333 I-0.0125 J0.0
G2 Y79.0308 Z-0.5667 I0.0062 J0.0108
G2 X49.2225 Y79.02 Z-0.6 I0.0063 J-0.0108
G2 X49.2038 Y79.0092 Z-0.6333 I-0.0125 J0.0
G2 Y79.0308 Z-0.6667 I0.0062 J0.0108
G2 X49.2225 Y79.02 Z-0.7 I0.0063 J-0.0108
G2 X49.2038 Y79.0092 Z-0.7333 I-0.0125 J0.0
G2 Y79.0308 Z-0.7667 I0.0062 J0.0108
G2 X49.2225 Y79.02 Z-0.8 I0.0063 J-0.0108
G2 X49.2038 Y79.0092 Z-0.8333 I-0.0125 J0.0
G2 Y79.0308 Z-0.8667 I0.0062 J0.0108
G2 X49.2225 Y79.02 Z-0.9 I0.0063 J-0.0108
G2 X49.2038 Y79.0092 Z-0.9333 I-0.0125 J0.0
G2 Y79.0308 Z-0.9667 I0.0062 J0.0108
G2 X49.2225 Y79.02 Z-1.0 I0.0063 J-0.0108
G2 X49.2038 Y79.0092 Z-1.0333 I-0.0125 J0.0
G2 Y79.0308 Z-1.0667 I0.0062 J0.0108
G2 X49.2225 Y79.02 Z-1.1 I0.0063 J-0.0108
G2 X49.2038 Y79.0092 Z-1.1333 I-0.0125 J0.0
G2 Y79.0308 Z-1.1667 I0.0062 J0.0108
G2 X49.2225 Y79.02 Z-1.2 I0.0063 J-0.0108
G2 X49.2038 Y79.0092 Z-1.2333 I-0.0125 J0.0
G2 Y79.0308 Z-1.2667 I0.0062 J0.0108
G2 X49.2225 Y79.02 Z-1.3 I0.0063 J-0.0108
G2 X49.2038 Y79.0092 Z-1.3333 I-0.0125 J0.0
G2 Y79.0308 Z-1.3667 I0.0062 J0.0108
G2 X49.2225 Y79.02 Z-1.4 I0.0063 J-0.0108
G2 X49.2038 Y79.0092 Z-1.4333 I-0.0125 J0.0
G2 Y79.0308 Z-1.4667 I0.0062 J0.0108
G2 X49.2225 Y79.02 Z-1.5 I0.0063 J-0.0108
G2 X49.2038 Y79.0092 Z-1.5333 I-0.0125 J0.0
G2 Y79.0308 Z-1.5667 I0.0062 J0.0108
G2 X49.2225 Y79.02 Z-1.6 I0.0063 J-0.0108
G2 X49.2038 Y79.0092 Z-1.6333 I-0.0125 J0.0
G2 Y79.0308 Z-1.6667 I0.0062 J0.0108
G2 X49.2225 Y79.02 Z-1.7 I0.0063 J-0.0108
G2 X49.2038 Y79.0092 Z-1.7333 I-0.0125 J0.0
G2 Y79.0308 Z-1.7667 I0.0062 J0.0108
G2 X49.2225 Y79.02 Z-1.8 I0.0063 J-0.0108
G2 X49.2038 Y79.0092 Z-1.8333 I-0.0125 J0.0
G2 Y79.0308 Z-1.8667 I0.0062 J0.0108
G2 X49.2225 Y79.02 Z-1.9 I0.0063 J-0.0108
G2 X49.2038 Y79.0092 Z-1.9333 I-0.0125 J0.0
G2 Y79.0308 Z-1.9667 I0.0062 J0.0108
G2 X49.2225 Y79.02 Z-2.0 I0.0063 J-0.0108
G2 X49.2038 Y79.0092 Z-2.0333 I-0.0125 J0.0
G2 Y79.0308 Z-2.0667 I0.0062 J0.0108
G2 X49.2225 Y79.02 Z-2.1 I0.0063 J-0.0108
G2 X49.2038 Y79.0092 Z-2.1333 I-0.0125 J0.0
G2 Y79.0308 Z-2.1667 I0.0062 J0.0108
G2 X49.2225 Y79.02 Z-2.2 I0.0063 J-0.0108
G2 X49.2038 Y79.0092 Z-2.2333 I-0.0125 J0.0
G2 Y79.0308 Z-2.2667 I0.0062 J0.0108
G2 X49.2225 Y79.02 Z-2.3 I0.0063 J-0.0108
G2 X49.2038 Y79.0092 Z-2.3333 I-0.0125 J0.0
G2 Y79.0308 Z-2.3667 I0.0062 J0.0108
G2 X49.2225 Y79.02 Z-2.4 I0.0063 J-0.0108
G2 X49.2038 Y79.0092 Z-2.4333 I-0.0125 J0.0
G2 Y79.0308 Z-2.4667 I0.0062 J0.0108
G2 X49.2225 Y79.02 Z-2.5 I0.0063 J-0.0108
G2 X49.2038 Y79.0092 Z-2.5333 I-0.0125 J0.0
G2 Y79.0308 Z-2.5667 I0.0062 J0.0108
G2 X49.2225 Y79.02 Z-2.6 I0.0063 J-0.0108
G2 X49.2038 Y79.0092 Z-2.6333 I-0.0125 J0.0
G2 Y79.0308 Z-2.6667 I0.0062 J0.0108
G2 X49.2225 Y79.02 Z-2.7 I0.0063 J-0.0108
G2 X49.2038 Y79.0092 Z-2.7333 I-0.0125 J0.0
G2 Y79.0308 Z-2.7667 I0.0062 J0.0108
G2 X49.2225 Y79.02 Z-2.8 I0.0063 J-0.0108
G2 X49.2038 Y79.0092 Z-2.8333 I-0.0125 J0.0
G2 Y79.0308 Z-2.8667 I0.0062 J0.0108
G2 X49.2225 Y79.02 Z-2.9 I0.0063 J-0.0108
G2 X49.2038 Y79.0092 Z-2.9333 I-0.0125 J0.0
G2 Y79.0308 Z-2.9667 I0.0063 J0.0108
G2 X49.2225 Y79.02 Z-3.0 I0.0063 J-0.0108
G2 X49.2038 Y79.0092 Z-3.0333 I-0.0125 J0.0
G2 Y79.0308 Z-3.0667 I0.0063 J0.0108
G2 X49.2225 Y79.02 Z-3.1 I0.0063 J-0.0108
G2 X49.2038 Y79.0092 Z-3.1333 I-0.0125 J0.0
G2 Y79.0308 Z-3.1667 I0.0063 J0.0108
G2 X49.2225 Y79.02 Z-3.2 I0.0063 J-0.0108
G2 X49.2038 Y79.0092 I-0.0125 J0.0
G2 Y79.0308 I0.0063 J0.0108
G2 X49.2225 Y79.02 I0.0062 J-0.0108
G0 Z3.0
G0 X49.3725 Y59.17
G0 Z0.01
G1 F1000.0 Z0.0
G2 F2000.0 X49.3538 Y59.1592 Z-0.0333 I-0.0125 J0.0
G2 Y59.1808 Z-0.0667 I0.0063 J0.0108
G2 X49.3725 Y59.17 Z-0.1 I0.0063 J-0.0108
G2 X49.3538 Y59.1592 Z-0.1333 I-0.0125 J0.0
G2 Y59.1808 Z-0.1667 I0.0063 J0.0108
G2 X49.3725 Y59.17 Z-0.2 I0.0063 J-0.0108
G2 X49.3538 Y59.1592 Z-0.2333 I-0.0125 J0.0
G2 Y59.1808 Z-0.2667 I0.0063 J0.0108
G2 X49.3725 Y59.17 Z-0.3 I0.0063 J-0.0108
G2 X49.3538 Y59.1592 Z-0.3333 I-0.0125 J0.0
G2 Y59.1808 Z-0.3667 I0.0063 J0.0108
G2 X49.3725 Y59.17 Z-0.4 I0.0063 J-0.0108
G2 X49.3538 Y59.1592 Z-0.4333 I-0.0125 J0.0
G2 Y59.1808 Z-0.4667 I0.0063 J0.0108
G2 X49.3725 Y59.17 Z-0.5 I0.0063 J-0.0108
G2 X49.3538 Y59.1592 Z-0.5333 I-0.0125 J0.0
G2 Y59.1808 Z-0.5667 I0.0063 J0.0108
G2 X49.3725 Y59.17 Z-0.6 I0.0063 J-0.0108
G2 X49.3538 Y59.1592 Z-0.6333 I-0.0125 J0.0
G2 Y59.1808 Z-0.6667 I0.0063 J0.0108
G2 X49.3725 Y59.17 Z-0.7 I0.0063 J-0.0108
G2 X49.3538 Y59.1592 Z-0.7333 I-0.0125 J0.0
G2 Y59.1808 Z-0.7667 I0.0063 J0.0108
G2 X49.3725 Y59.17 Z-0.8 I0.0063 J-0.0108
G2 X49.3538 Y59.1592 Z-0.8333 I-0.0125 J0.0
G2 Y59.1808 Z-0.8667 I0.0063 J0.0108
G2 X49.3725 Y59.17 Z-0.9 I0.0063 J-0.0108
G2 X49.3538 Y59.1592 Z-0.9333 I-0.0125 J0.0
G2 Y59.1808 Z-0.9667 I0.0063 J0.0108
G2 X49.3725 Y59.17 Z-1.0 I0.0063 J-0.0108
G2 X49.3538 Y59.1592 Z-1.0333 I-0.0125 J0.0
G2 Y59.1808 Z-1.0667 I0.0063 J0.0108
G2 X49.3725 Y59.17 Z-1.1 I0.0063 J-0.0108
G2 X49.3538 Y59.1592 Z-1.1333 I-0.0125 J0.0
G2 Y59.1808 Z-1.1667 I0.0063 J0.0108
G2 X49.3725 Y59.17 Z-1.2 I0.0063 J-0.0108
G2 X49.3538 Y59.1592 Z-1.2333 I-0.0125 J0.0
G2 Y59.1808 Z-1.2667 I0.0063 J0.0108
G2 X49.3725 Y59.17 Z-1.3 I0.0063 J-0.0108
G2 X49.3538 Y59.1592 Z-1.3333 I-0.0125 J0.0
G2 Y59.1808 Z-1.3667 I0.0063 J0.0108
G2 X49.3725 Y59.17 Z-1.4 I0.0063 J-0.0108
G2 X49.3538 Y59.1592 Z-1.4333 I-0.0125 J0.0
G2 Y59.1808 Z-1.4667 I0.0063 J0.0108
G2 X49.3725 Y59.17 Z-1.5 I0.0063 J-0.0108
G2 X49.3538 Y59.1592 Z-1.5333 I-0.0125 J0.0
G2 Y59.1808 Z-1.5667 I0.0063 J0.0108
G2 X49.3725 Y59.17 Z-1.6 I0.0063 J-0.0108
G2 X49.3538 Y59.1592 Z-1.6333 I-0.0125 J0.0
G2 Y59.1808 Z-1.6667 I0.0063 J0.0108
G2 X49.3725 Y59.17 Z-1.7 I0.0063 J-0.0108
G2 X49.3538 Y59.1592 Z-1.7333 I-0.0125 J0.0
G2 Y59.1808 Z-1.7667 I0.0063 J0.0108
G2 X49.3725 Y59.17 Z-1.8 I0.0063 J-0.0108
G2 X49.3538 Y59.1592 Z-1.8333 I-0.0125 J0.0
G2 Y59.1808 Z-1.8667 I0.0063 J0.0108
G2 X49.3725 Y59.17 Z-1.9 I0.0063 J-0.0108
G2 X49.3538 Y59.1592 Z-1.9333 I-0.0125 J0.0
G2 Y59.1808 Z-1.9667 I0.0063 J0.0108
G2 X49.3725 Y59.17 Z-2.0 I0.0063 J-0.0108
G2 X49.3538 Y59.1592 Z-2.0333 I-0.0125 J0.0
G2 Y59.1808 Z-2.0667 I0.0063 J0.0108
G2 X49.3725 Y59.17 Z-2.1 I0.0063 J-0.0108
G2 X49.3538 Y59.1592 Z-2.1333 I-0.0125 J0.0
G2 Y59.1808 Z-2.1667 I0.0063 J0.0108
G2 X49.3725 Y59.17 Z-2.2 I0.0063 J-0.0108
G2 X49.3538 Y59.1592 Z-2.2333 I-0.0125 J0.0
G2 Y59.1808 Z-2.2667 I0.0063 J0.0108
G2 X49.3725 Y59.17 Z-2.3 I0.0063 J-0.0108
G2 X49.3538 Y59.1592 Z-2.3333 I-0.0125 J0.0
G2 Y59.1808 Z-2.3667 I0.0063 J0.0108
G2 X49.3725 Y59.17 Z-2.4 I0.0063 J-0.0108
G2 X49.3538 Y59.1592 Z-2.4333 I-0.0125 J0.0
G2 Y59.1808 Z-2.4667 I0.0063 J0.0108
G2 X49.3725 Y59.17 Z-2.5 I0.0063 J-0.0108
G2 X49.3538 Y59.1592 Z-2.5333 I-0.0125 J0.0
G2 Y59.1808 Z-2.5667 I0.0063 J0.0108
G2 X49.3725 Y59.17 Z-2.6 I0.0063 J-0.0108
G2 X49.3538 Y59.1592 Z-2.6333 I-0.0125 J0.0
G2 Y59.1808 Z-2.6667 I0.0063 J0.0108
G2 X49.3725 Y59.17 Z-2.7 I0.0063 J-0.0108
G2 X49.3538 Y59.1592 Z-2.7333 I-0.0125 J0.0
G2 Y59.1808 Z-2.7667 I0.0063 J0.0108
G2 X49.3725 Y59.17 Z-2.8 I0.0063 J-0.0108
G2 X49.3538 Y59.1592 Z-2.8333 I-0.0125 J0.0
G2 Y59.1808 Z-2.8667 I0.0063 J0.0108
G2 X49.3725 Y59.17 Z-2.9 I0.0063 J-0.0108
G2 X49.3538 Y59.1592 Z-2.9333 I-0.0125 J0.0
G2 Y59.1808 Z-2.9667 I0.0063 J0.0108
G2 X49.3725 Y59.17 Z-3.0 I0.0062 J-0.0108
G2 X49.3538 Y59.1592 Z-3.0333 I-0.0125 J0.0
G2 Y59.1808 Z-3.0667 I0.0063 J0.0108
G2 X49.3725 Y59.17 Z-3.1 I0.0062 J-0.0108
G2 X49.3538 Y59.1592 Z-3.1333 I-0.0125 J0.0
G2 Y59.1808 Z-3.1667 I0.0063 J0.0108
G2 X49.3725 Y59.17 Z-3.2 I0.0062 J-0.0108
G2 X49.3538 Y59.1592 I-0.0125 J0.0
G2 Y59.1808 I0.0063 J0.0108
G2 X49.3725 Y59.17 I0.0062 J-0.0108
G0 Z3.0
G0 X49.2225 Y44.4
G0 Z0.01
G1 F1000.0 Z0.0
G2 F2000.0 X49.2038 Y44.3892 Z-0.0333 I-0.0125 J0.0
G2 Y44.4108 Z-0.0667 I0.0063 J0.0108
G2 X49.2225 Y44.4 Z-0.1 I0.0063 J-0.0108
G2 X49.2038 Y44.3892 Z-0.1333 I-0.0125 J0.0
G2 Y44.4108 Z-0.1667 I0.0063 J0.0108
G2 X49.2225 Y44.4 Z-0.2 I0.0063 J-0.0108
G2 X49.2038 Y44.3892 Z-0.2333 I-0.0125 J0.0
G2 Y44.4108 Z-0.2667 I0.0063 J0.0108
G2 X49.2225 Y44.4 Z-0.3 I0.0063 J-0.0108
G2 X49.2038 Y44.3892 Z-0.3333 I-0.0125 J0.0
G2 Y44.4108 Z-0.3667 I0.0063 J0.0108
G2 X49.2225 Y44.4 Z-0.4 I0.0063 J-0.0108
G2 X49.2038 Y44.3892 Z-0.4333 I-0.0125 J0.0
G2 Y44.4108 Z-0.4667 I0.0063 J0.0108
G2 X49.2225 Y44.4 Z-0.5 I0.0063 J-0.0108
G2 X49.2038 Y44.3892 Z-0.5333 I-0.0125 J0.0
G2 Y44.4108 Z-0.5667 I0.0063 J0.0108
G2 X49.2225 Y44.4 Z-0.6 I0.0063 J-0.0108
G2 X49.2038 Y44.3892 Z-0.6333 I-0.0125 J0.0
G2 Y44.4108 Z-0.6667 I0.0063 J0.0108
G2 X49.2225 Y44.4 Z-0.7 I0.0063 J-0.0108
G2 X49.2038 Y44.3892 Z-0.7333 I-0.0125 J0.0
G2 Y44.4108 Z-0.7667 I0.0063 J0.0108
G2 X49.2225 Y44.4 Z-0.8 I0.0063 J-0.0108
G2 X49.2038 Y44.3892 Z-0.8333 I-0.0125 J0.0
G2 Y44.4108 Z-0.8667 I0.0063 J0.0108
G2 X49.2225 Y44.4 Z-0.9 I0.0063 J-0.0108
G2 X49.2038 Y44.3892 Z-0.9333 I-0.0125 J0.0
G2 Y44.4108 Z-0.9667 I0.0063 J0.0108
G2 X49.2225 Y44.4 Z-1.0 I0.0063 J-0.0108
G2 X49.2038 Y44.3892 Z-1.0333 I-0.0125 J0.0
G2 Y44.4108 Z-1.0667 I0.0063 J0.0108
G2 X49.2225 Y44.4 Z-1.1 I0.0063 J-0.0108
G2 X49.2038 Y44.3892 Z-1.1333 I-0.0125 J0.0
G2 Y44.4108 Z-1.1667 I0.0063 J0.0108
G2 X49.2225 Y44.4 Z-1.2 I0.0063 J-0.0108
G2 X49.2038 Y44.3892 Z-1.2333 I-0.0125 J0.0
G2 Y44.4108 Z-1.2667 I0.0063 J0.0108
G2 X49.2225 Y44.4 Z-1.3 I0.0063 J-0.0108
G2 X49.2038 Y44.3892 Z-1.3333 I-0.0125 J0.0
G2 Y44.4108 Z-1.3667 I0.0063 J0.0108
G2 X49.2225 Y44.4 Z-1.4 I0.0063 J-0.0108
G2 X49.2038 Y44.3892 Z-1.4333 I-0.0125 J0.0
G2 Y44.4108 Z-1.4667 I0.0063 J0.0108
G2 X49.2225 Y44.4 Z-1.5 I0.0063 J-0.0108
G2 X49.2038 Y44.3892 Z-1.5333 I-0.0125 J0.0
G2 Y44.4108 Z-1.5667 I0.0063 J0.0108
G2 X49.2225 Y44.4 Z-1.6 I0.0063 J-0.0108
G2 X49.2038 Y44.3892 Z-1.6333 I-0.0125 J0.0
G2 Y44.4108 Z-1.6667 I0.0063 J0.0108
G2 X49.2225 Y44.4 Z-1.7 I0.0063 J-0.0108
G2 X49.2038 Y44.3892 Z-1.7333 I-0.0125 J0.0
G2 Y44.4108 Z-1.7667 I0.0063 J0.0108
G2 X49.2225 Y44.4 Z-1.8 I0.0063 J-0.0108
G2 X49.2038 Y44.3892 Z-1.8333 I-0.0125 J0.0
G2 Y44.4108 Z-1.8667 I0.0063 J0.0108
G2 X49.2225 Y44.4 Z-1.9 I0.0063 J-0.0108
G2 X49.2038 Y44.3892 Z-1.9333 I-0.0125 J0.0
G2 Y44.4108 Z-1.9667 I0.0063 J0.0108
G2 X49.2225 Y44.4 Z-2.0 I0.0063 J-0.0108
G2 X49.2038 Y44.3892 Z-2.0333 I-0.0125 J0.0
G2 Y44.4108 Z-2.0667 I0.0063 J0.0108
G2 X49.2225 Y44.4 Z-2.1 I0.0063 J-0.0108
G2 X49.2038 Y44.3892 Z-2.1333 I-0.0125 J0.0
G2 Y44.4108 Z-2.1667 I0.0063 J0.0108
G2 X49.2225 Y44.4 Z-2.2 I0.0063 J-0.0108
G2 X49.2038 Y44.3892 Z-2.2333 I-0.0125 J0.0
G2 Y44.4108 Z-2.2667 I0.0063 J0.0108
G2 X49.2225 Y44.4 Z-2.3 I0.0063 J-0.0108
G2 X49.2038 Y44.3892 Z-2.3333 I-0.0125 J0.0
G2 Y44.4108 Z-2.3667 I0.0063 J0.0108
G2 X49.2225 Y44.4 Z-2.4 I0.0063 J-0.0108
G2 X49.2038 Y44.3892 Z-2.4333 I-0.0125 J0.0
G2 Y44.4108 Z-2.4667 I0.0063 J0.0108
G2 X49.2225 Y44.4 Z-2.5 I0.0063 J-0.0108
G2 X49.2038 Y44.3892 Z-2.5333 I-0.0125 J0.0
G2 Y44.4108 Z-2.5667 I0.0063 J0.0108
G2 X49.2225 Y44.4 Z-2.6 I0.0063 J-0.0108
G2 X49.2038 Y44.3892 Z-2.6333 I-0.0125 J0.0
G2 Y44.4108 Z-2.6667 I0.0063 J0.0108
G2 X49.2225 Y44.4 Z-2.7 I0.0063 J-0.0108
G2 X49.2038 Y44.3892 Z-2.7333 I-0.0125 J0.0
G2 Y44.4108 Z-2.7667 I0.0063 J0.0108
G2 X49.2225 Y44.4 Z-2.8 I0.0063 J-0.0108
G2 X49.2038 Y44.3892 Z-2.8333 I-0.0125 J0.0
G2 Y44.4108 Z-2.8667 I0.0063 J0.0108
G2 X49.2225 Y44.4 Z-2.9 I0.0063 J-0.0108
G2 X49.2038 Y44.3892 Z-2.9333 I-0.0125 J0.0
G2 Y44.4108 Z-2.9667 I0.0063 J0.0108
G2 X49.2225 Y44.4 Z-3.0 I0.0062 J-0.0108
G2 X49.2038 Y44.3892 Z-3.0333 I-0.0125 J0.0
G2 Y44.4108 Z-3.0667 I0.0063 J0.0108
G2 X49.2225 Y44.4 Z-3.1 I0.0062 J-0.0108
G2 X49.2038 Y44.3892 Z-3.1333 I-0.0125 J0.0
G2 Y44.4108 Z-3.1667 I0.0063 J0.0108
G2 X49.2225 Y44.4 Z-3.2 I0.0062 J-0.0108
G2 X49.2038 Y44.3892 I-0.0125 J0.0
G2 Y44.4108 I0.0063 J0.0108
G2 X49.2225 Y44.4 I0.0062 J-0.0108
G0 Z3.0
G0 X49.2125 Y30.69
G0 Z0.01
G1 F1000.0 Z0.0
G2 F2000.0 X49.1938 Y30.6792 Z-0.0333 I-0.0125 J0.0
G2 Y30.7008 Z-0.0667 I0.0063 J0.0108
G2 X49.2125 Y30.69 Z-0.1 I0.0063 J-0.0108
G2 X49.1938 Y30.6792 Z-0.1333 I-0.0125 J0.0
G2 Y30.7008 Z-0.1667 I0.0063 J0.0108
G2 X49.2125 Y30.69 Z-0.2 I0.0063 J-0.0108
G2 X49.1938 Y30.6792 Z-0.2333 I-0.0125 J0.0
G2 Y30.7008 Z-0.2667 I0.0063 J0.0108
G2 X49.2125 Y30.69 Z-0.3 I0.0063 J-0.0108
G2 X49.1938 Y30.6792 Z-0.3333 I-0.0125 J0.0
G2 Y30.7008 Z-0.3667 I0.0063 J0.0108
G2 X49.2125 Y30.69 Z-0.4 I0.0063 J-0.0108
G2 X49.1938 Y30.6792 Z-0.4333 I-0.0125 J0.0
G2 Y30.7008 Z-0.4667 I0.0063 J0.0108
G2 X49.2125 Y30.69 Z-0.5 I0.0063 J-0.0108
G2 X49.1938 Y30.6792 Z-0.5333 I-0.0125 J0.0
G2 Y30.7008 Z-0.5667 I0.0063 J0.0108
G2 X49.2125 Y30.69 Z-0.6 I0.0063 J-0.0108
G2 X49.1938 Y30.6792 Z-0.6333 I-0.0125 J0.0
G2 Y30.7008 Z-0.6667 I0.0063 J0.0108
G2 X49.2125 Y30.69 Z-0.7 I0.0063 J-0.0108
G2 X49.1938 Y30.6792 Z-0.7333 I-0.0125 J0.0
G2 Y30.7008 Z-0.7667 I0.0063 J0.0108
G2 X49.2125 Y30.69 Z-0.8 I0.0063 J-0.0108
G2 X49.1938 Y30.6792 Z-0.8333 I-0.0125 J0.0
G2 Y30.7008 Z-0.8667 I0.0063 J0.0108
G2 X49.2125 Y30.69 Z-0.9 I0.0063 J-0.0108
G2 X49.1938 Y30.6792 Z-0.9333 I-0.0125 J0.0
G2 Y30.7008 Z-0.9667 I0.0063 J0.0108
G2 X49.2125 Y30.69 Z-1.0 I0.0063 J-0.0108
G2 X49.1938 Y30.6792 Z-1.0333 I-0.0125 J0.0
G2 Y30.7008 Z-1.0667 I0.0063 J0.0108
G2 X49.2125 Y30.69 Z-1.1 I0.0063 J-0.0108
G2 X49.1938 Y30.6792 Z-1.1333 I-0.0125 J0.0
G2 Y30.7008 Z-1.1667 I0.0063 J0.0108
G2 X49.2125 Y30.69 Z-1.2 I0.0063 J-0.0108
G2 X49.1938 Y30.6792 Z-1.2333 I-0.0125 J0.0
G2 Y30.7008 Z-1.2667 I0.0063 J0.0108
G2 X49.2125 Y30.69 Z-1.3 I0.0063 J-0.0108
G2 X49.1938 Y30.6792 Z-1.3333 I-0.0125 J0.0
G2 Y30.7008 Z-1.3667 I0.0063 J0.0108
G2 X49.2125 Y30.69 Z-1.4 I0.0063 J-0.0108
G2 X49.1938 Y30.6792 Z-1.4333 I-0.0125 J0.0
G2 Y30.7008 Z-1.4667 I0.0063 J0.0108
G2 X49.2125 Y30.69 Z-1.5 I0.0063 J-0.0108
G2 X49.1938 Y30.6792 Z-1.5333 I-0.0125 J0.0
G2 Y30.7008 Z-1.5667 I0.0063 J0.0108
G2 X49.2125 Y30.69 Z-1.6 I0.0063 J-0.0108
G2 X49.1938 Y30.6792 Z-1.6333 I-0.0125 J0.0
G2 Y30.7008 Z-1.6667 I0.0063 J0.0108
G2 X49.2125 Y30.69 Z-1.7 I0.0063 J-0.0108
G2 X49.1938 Y30.6792 Z-1.7333 I-0.0125 J0.0
G2 Y30.7008 Z-1.7667 I0.0063 J0.0108
G2 X49.2125 Y30.69 Z-1.8 I0.0063 J-0.0108
G2 X49.1938 Y30.6792 Z-1.8333 I-0.0125 J0.0
G2 Y30.7008 Z-1.8667 I0.0063 J0.0108
G2 X49.2125 Y30.69 Z-1.9 I0.0063 J-0.0108
G2 X49.1938 Y30.6792 Z-1.9333 I-0.0125 J0.0
G2 Y30.7008 Z-1.9667 I0.0063 J0.0108
G2 X49.2125 Y30.69 Z-2.0 I0.0063 J-0.0108
G2 X49.1938 Y30.6792 Z-2.0333 I-0.0125 J0.0
G2 Y30.7008 Z-2.0667 I0.0063 J0.0108
G2 X49.2125 Y30.69 Z-2.1 I0.0063 J-0.0108
G2 X49.1938 Y30.6792 Z-2.1333 I-0.0125 J0.0
G2 Y30.7008 Z-2.1667 I0.0063 J0.0108
G2 X49.2125 Y30.69 Z-2.2 I0.0063 J-0.0108
G2 X49.1938 Y30.6792 Z-2.2333 I-0.0125 J0.0
G2 Y30.7008 Z-2.2667 I0.0063 J0.0108
G2 X49.2125 Y30.69 Z-2.3 I0.0063 J-0.0108
G2 X49.1938 Y30.6792 Z-2.3333 I-0.0125 J0.0
G2 Y30.7008 Z-2.3667 I0.0063 J0.0108
G2 X49.2125 Y30.69 Z-2.4 I0.0063 J-0.0108
G2 X49.1938 Y30.6792 Z-2.4333 I-0.0125 J0.0
G2 Y30.7008 Z-2.4667 I0.0063 J0.0108
G2 X49.2125 Y30.69 Z-2.5 I0.0063 J-0.0108
G2 X49.1938 Y30.6792 Z-2.5333 I-0.0125 J0.0
G2 Y30.7008 Z-2.5667 I0.0063 J0.0108
G2 X49.2125 Y30.69 Z-2.6 I0.0063 J-0.0108
G2 X49.1938 Y30.6792 Z-2.6333 I-0.0125 J0.0
G2 Y30.7008 Z-2.6667 I0.0063 J0.0108
G2 X49.2125 Y30.69 Z-2.7 I0.0063 J-0.0108
G2 X49.1938 Y30.6792 Z-2.7333 I-0.0125 J0.0
G2 Y30.7008 Z-2.7667 I0.0063 J0.0108
G2 X49.2125 Y30.69 Z-2.8 I0.0063 J-0.0108
G2 X49.1938 Y30.6792 Z-2.8333 I-0.0125 J0.0
G2 Y30.7008 Z-2.8667 I0.0063 J0.0108
G2 X49.2125 Y30.69 Z-2.9 I0.0063 J-0.0108
G2 X49.1938 Y30.6792 Z-2.9333 I-0.0125 J0.0
G2 Y30.7008 Z-2.9667 I0.0063 J0.0108
G2 X49.2125 Y30.69 Z-3.0 I0.0062 J-0.0108
G2 X49.1938 Y30.6792 Z-3.0333 I-0.0125 J0.0
G2 Y30.7008 Z-3.0667 I0.0063 J0.0108
G2 X49.2125 Y30.69 Z-3.1 I0.0062 J-0.0108
G2 X49.1938 Y30.6792 Z-3.1333 I-0.0125 J0.0
G2 Y30.7008 Z-3.1667 I0.0063 J0.0108
G2 X49.2125 Y30.69 Z-3.2 I0.0062 J-0.0108
G2 X49.1938 Y30.6792 I-0.0125 J0.0
G2 Y30.7008 I0.0063 J0.0108
G2 X49.2125 Y30.69 I0.0062 J-0.0108
G0 Z3.0
G0 X49.3225 Y17.79
G0 Z0.01
G1 F1000.0 Z0.0
G2 F2000.0 X49.3038 Y17.7792 Z-0.0333 I-0.0125 J0.0
G2 Y17.8008 Z-0.0667 I0.0063 J0.0108
G2 X49.3225 Y17.79 Z-0.1 I0.0063 J-0.0108
G2 X49.3038 Y17.7792 Z-0.1333 I-0.0125 J0.0
G2 Y17.8008 Z-0.1667 I0.0063 J0.0108
G2 X49.3225 Y17.79 Z-0.2 I0.0063 J-0.0108
G2 X49.3038 Y17.7792 Z-0.2333 I-0.0125 J0.0
G2 Y17.8008 Z-0.2667 I0.0063 J0.0108
G2 X49.3225 Y17.79 Z-0.3 I0.0063 J-0.0108
G2 X49.3038 Y17.7792 Z-0.3333 I-0.0125 J0.0
G2 Y17.8008 Z-0.3667 I0.0063 J0.0108
G2 X49.3225 Y17.79 Z-0.4 I0.0063 J-0.0108
G2 X49.3038 Y17.7792 Z-0.4333 I-0.0125 J0.0
G2 Y17.8008 Z-0.4667 I0.0063 J0.0108
G2 X49.3225 Y17.79 Z-0.5 I0.0063 J-0.0108
G2 X49.3038 Y17.7792 Z-0.5333 I-0.0125 J0.0
G2 Y17.8008 Z-0.5667 I0.0063 J0.0108
G2 X49.3225 Y17.79 Z-0.6 I0.0063 J-0.0108
G2 X49.3038 Y17.7792 Z-0.6333 I-0.0125 J0.0
G2 Y17.8008 Z-0.6667 I0.0063 J0.0108
G2 X49.3225 Y17.79 Z-0.7 I0.0063 J-0.0108
G2 X49.3038 Y17.7792 Z-0.7333 I-0.0125 J0.0
G2 Y17.8008 Z-0.7667 I0.0063 J0.0108
G2 X49.3225 Y17.79 Z-0.8 I0.0063 J-0.0108
G2 X49.3038 Y17.7792 Z-0.8333 I-0.0125 J0.0
G2 Y17.8008 Z-0.8667 I0.0063 J0.0108
G2 X49.3225 Y17.79 Z-0.9 I0.0063 J-0.0108
G2 X49.3038 Y17.7792 Z-0.9333 I-0.0125 J0.0
G2 Y17.8008 Z-0.9667 I0.0063 J0.0108
G2 X49.3225 Y17.79 Z-1.0 I0.0063 J-0.0108
G2 X49.3038 Y17.7792 Z-1.0333 I-0.0125 J0.0
G2 Y17.8008 Z-1.0667 I0.0063 J0.0108
G2 X49.3225 Y17.79 Z-1.1 I0.0063 J-0.0108
G2 X49.3038 Y17.7792 Z-1.1333 I-0.0125 J0.0
G2 Y17.8008 Z-1.1667 I0.0063 J0.0108
G2 X49.3225 Y17.79 Z-1.2 I0.0063 J-0.0108
G2 X49.3038 Y17.7792 Z-1.2333 I-0.0125 J0.0
G2 Y17.8008 Z-1.2667 I0.0063 J0.0108
G2 X49.3225 Y17.79 Z-1.3 I0.0063 J-0.0108
G2 X49.3038 Y17.7792 Z-1.3333 I-0.0125 J0.0
G2 Y17.8008 Z-1.3667 I0.0063 J0.0108
G2 X49.3225 Y17.79 Z-1.4 I0.0063 J-0.0108
G2 X49.3038 Y17.7792 Z-1.4333 I-0.0125 J0.0
G2 Y17.8008 Z-1.4667 I0.0063 J0.0108
G2 X49.3225 Y17.79 Z-1.5 I0.0063 J-0.0108
G2 X49.3038 Y17.7792 Z-1.5333 I-0.0125 J0.0
G2 Y17.8008 Z-1.5667 I0.0063 J0.0108
G2 X49.3225 Y17.79 Z-1.6 I0.0063 J-0.0108
G2 X49.3038 Y17.7792 Z-1.6333 I-0.0125 J0.0
G2 Y17.8008 Z-1.6667 I0.0063 J0.0108
G2 X49.3225 Y17.79 Z-1.7 I0.0063 J-0.0108
G2 X49.3038 Y17.7792 Z-1.7333 I-0.0125 J0.0
G2 Y17.8008 Z-1.7667 I0.0063 J0.0108
G2 X49.3225 Y17.79 Z-1.8 I0.0063 J-0.0108
G2 X49.3038 Y17.7792 Z-1.8333 I-0.0125 J0.0
G2 Y17.8008 Z-1.8667 I0.0063 J0.0108
G2 X49.3225 Y17.79 Z-1.9 I0.0063 J-0.0108
G2 X49.3038 Y17.7792 Z-1.9333 I-0.0125 J0.0
G2 Y17.8008 Z-1.9667 I0.0063 J0.0108
G2 X49.3225 Y17.79 Z-2.0 I0.0063 J-0.0108
G2 X49.3038 Y17.7792 Z-2.0333 I-0.0125 J0.0
G2 Y17.8008 Z-2.0667 I0.0063 J0.0108
G2 X49.3225 Y17.79 Z-2.1 I0.0063 J-0.0108
G2 X49.3038 Y17.7792 Z-2.1333 I-0.0125 J0.0
G2 Y17.8008 Z-2.1667 I0.0063 J0.0108
G2 X49.3225 Y17.79 Z-2.2 I0.0063 J-0.0108
G2 X49.3038 Y17.7792 Z-2.2333 I-0.0125 J0.0
G2 Y17.8008 Z-2.2667 I0.0063 J0.0108
G2 X49.3225 Y17.79 Z-2.3 I0.0063 J-0.0108
G2 X49.3038 Y17.7792 Z-2.3333 I-0.0125 J0.0
G2 Y17.8008 Z-2.3667 I0.0063 J0.0108
G2 X49.3225 Y17.79 Z-2.4 I0.0063 J-0.0108
G2 X49.3038 Y17.7792 Z-2.4333 I-0.0125 J0.0
G2 Y17.8008 Z-2.4667 I0.0063 J0.0108
G2 X49.3225 Y17.79 Z-2.5 I0.0063 J-0.0108
G2 X49.3038 Y17.7792 Z-2.5333 I-0.0125 J0.0
G2 Y17.8008 Z-2.5667 I0.0063 J0.0108
G2 X49.3225 Y17.79 Z-2.6 I0.0063 J-0.0108
G2 X49.3038 Y17.7792 Z-2.6333 I-0.0125 J0.0
G2 Y17.8008 Z-2.6667 I0.0063 J0.0108
G2 X49.3225 Y17.79 Z-2.7 I0.0063 J-0.0108
G2 X49.3038 Y17.7792 Z-2.7333 I-0.0125 J0.0
G2 Y17.8008 Z-2.7667 I0.0063 J0.0108
G2 X49.3225 Y17.79 Z-2.8 I0.0063 J-0.0108
G2 X49.3038 Y17.7792 Z-2.8333 I-0.0125 J0.0
G2 Y17.8008 Z-2.8667 I0.0063 J0.0108
G2 X49.3225 Y17.79 Z-2.9 I0.0063 J-0.0108
G2 X49.3038 Y17.7792 Z-2.9333 I-0.0125 J0.0
G2 Y17.8008 Z-2.9667 I0.0063 J0.0108
G2 X49.3225 Y17.79 Z-3.0 I0.0062 J-0.0108
G2 X49.3038 Y17.7792 Z-3.0333 I-0.0125 J0.0
G2 Y17.8008 Z-3.0667 I0.0063 J0.0108
G2 X49.3225 Y17.79 Z-3.1 I0.0062 J-0.0108
G2 X49.3038 Y17.7792 Z-3.1333 I-0.0125 J0.0
G2 Y17.8008 Z-3.1667 I0.0063 J0.0108
G2 X49.3225 Y17.79 Z-3.2 I0.0062 J-0.0108
G2 X49.3038 Y17.7792 I-0.0125 J0.0
G2 Y17.8008 I0.0063 J0.0108
G2 X49.3225 Y17.79 I0.0062 J-0.0108
G0 Z3.0
G0 X53.2325 Y3.0
G0 Z0.01
G1 F1000.0 Z0.0
G2 F2000.0 X53.2137 Y2.9892 Z-0.0333 I-0.0125 J0.0
G2 Y3.0108 Z-0.0667 I0.0063 J0.0108
G2 X53.2325 Y3.0 Z-0.1 I0.0063 J-0.0108
G2 X53.2137 Y2.9892 Z-0.1333 I-0.0125 J0.0
G2 Y3.0108 Z-0.1667 I0.0063 J0.0108
G2 X53.2325 Y3.0 Z-0.2 I0.0063 J-0.0108
G2 X53.2137 Y2.9892 Z-0.2333 I-0.0125 J0.0
G2 Y3.0108 Z-0.2667 I0.0063 J0.0108
G2 X53.2325 Y3.0 Z-0.3 I0.0063 J-0.0108
G2 X53.2137 Y2.9892 Z-0.3333 I-0.0125 J0.0
G2 Y3.0108 Z-0.3667 I0.0063 J0.0108
G2 X53.2325 Y3.0 Z-0.4 I0.0063 J-0.0108
G2 X53.2137 Y2.9892 Z-0.4333 I-0.0125 J0.0
G2 Y3.0108 Z-0.4667 I0.0063 J0.0108
G2 X53.2325 Y3.0 Z-0.5 I0.0063 J-0.0108
G2 X53.2137 Y2.9892 Z-0.5333 I-0.0125 J0.0
G2 Y3.0108 Z-0.5667 I0.0063 J0.0108
G2 X53.2325 Y3.0 Z-0.6 I0.0063 J-0.0108
G2 X53.2137 Y2.9892 Z-0.6333 I-0.0125 J0.0
G2 Y3.0108 Z-0.6667 I0.0063 J0.0108
G2 X53.2325 Y3.0 Z-0.7 I0.0063 J-0.0108
G2 X53.2137 Y2.9892 Z-0.7333 I-0.0125 J0.0
G2 Y3.0108 Z-0.7667 I0.0063 J0.0108
G2 X53.2325 Y3.0 Z-0.8 I0.0063 J-0.0108
G2 X53.2137 Y2.9892 Z-0.8333 I-0.0125 J0.0
G2 Y3.0108 Z-0.8667 I0.0063 J0.0108
G2 X53.2325 Y3.0 Z-0.9 I0.0063 J-0.0108
G2 X53.2137 Y2.9892 Z-0.9333 I-0.0125 J0.0
G2 Y3.0108 Z-0.9667 I0.0063 J0.0108
G2 X53.2325 Y3.0 Z-1.0 I0.0063 J-0.0108
G2 X53.2137 Y2.9892 Z-1.0333 I-0.0125 J0.0
G2 Y3.0108 Z-1.0667 I0.0063 J0.0108
G2 X53.2325 Y3.0 Z-1.1 I0.0063 J-0.0108
G2 X53.2137 Y2.9892 Z-1.1333 I-0.0125 J0.0
G2 Y3.0108 Z-1.1667 I0.0063 J0.0108
G2 X53.2325 Y3.0 Z-1.2 I0.0063 J-0.0108
G2 X53.2137 Y2.9892 Z-1.2333 I-0.0125 J0.0
G2 Y3.0108 Z-1.2667 I0.0063 J0.0108
G2 X53.2325 Y3.0 Z-1.3 I0.0063 J-0.0108
G2 X53.2137 Y2.9892 Z-1.3333 I-0.0125 J0.0
G2 Y3.0108 Z-1.3667 I0.0063 J0.0108
G2 X53.2325 Y3.0 Z-1.4 I0.0063 J-0.0108
G2 X53.2137 Y2.9892 Z-1.4333 I-0.0125 J0.0
G2 Y3.0108 Z-1.4667 I0.0063 J0.0108
G2 X53.2325 Y3.0 Z-1.5 I0.0063 J-0.0108
G2 X53.2137 Y2.9892 Z-1.5333 I-0.0125 J0.0
G2 Y3.0108 Z-1.5667 I0.0063 J0.0108
G2 X53.2325 Y3.0 Z-1.6 I0.0063 J-0.0108
G2 X53.2137 Y2.9892 Z-1.6333 I-0.0125 J0.0
G2 Y3.0108 Z-1.6667 I0.0063 J0.0108
G2 X53.2325 Y3.0 Z-1.7 I0.0063 J-0.0108
G2 X53.2137 Y2.9892 Z-1.7333 I-0.0125 J0.0
G2 Y3.0108 Z-1.7667 I0.0063 J0.0108
G2 X53.2325 Y3.0 Z-1.8 I0.0063 J-0.0108
G2 X53.2137 Y2.9892 Z-1.8333 I-0.0125 J0.0
G2 Y3.0108 Z-1.8667 I0.0063 J0.0108
G2 X53.2325 Y3.0 Z-1.9 I0.0063 J-0.0108
G2 X53.2137 Y2.9892 Z-1.9333 I-0.0125 J0.0
G2 Y3.0108 Z-1.9667 I0.0063 J0.0108
G2 X53.2325 Y3.0 Z-2.0 I0.0063 J-0.0108
G2 X53.2137 Y2.9892 Z-2.0333 I-0.0125 J0.0
G2 Y3.0108 Z-2.0667 I0.0063 J0.0108
G2 X53.2325 Y3.0 Z-2.1 I0.0063 J-0.0108
G2 X53.2137 Y2.9892 Z-2.1333 I-0.0125 J0.0
G2 Y3.0108 Z-2.1667 I0.0063 J0.0108
G2 X53.2325 Y3.0 Z-2.2 I0.0063 J-0.0108
G2 X53.2137 Y2.9892 Z-2.2333 I-0.0125 J0.0
G2 Y3.0108 Z-2.2667 I0.0063 J0.0108
G2 X53.2325 Y3.0 Z-2.3 I0.0063 J-0.0108
G2 X53.2137 Y2.9892 Z-2.3333 I-0.0125 J0.0
G2 Y3.0108 Z-2.3667 I0.0063 J0.0108
G2 X53.2325 Y3.0 Z-2.4 I0.0063 J-0.0108
G2 X53.2137 Y2.9892 Z-2.4333 I-0.0125 J0.0
G2 Y3.0108 Z-2.4667 I0.0063 J0.0108
G2 X53.2325 Y3.0 Z-2.5 I0.0063 J-0.0108
G2 X53.2137 Y2.9892 Z-2.5333 I-0.0125 J0.0
G2 Y3.0108 Z-2.5667 I0.0063 J0.0108
G2 X53.2325 Y3.0 Z-2.6 I0.0063 J-0.0108
G2 X53.2137 Y2.9892 Z-2.6333 I-0.0125 J0.0
G2 Y3.0108 Z-2.6667 I0.0063 J0.0108
G2 X53.2325 Y3.0 Z-2.7 I0.0063 J-0.0108
G2 X53.2137 Y2.9892 Z-2.7333 I-0.0125 J0.0
G2 Y3.0108 Z-2.7667 I0.0063 J0.0108
G2 X53.2325 Y3.0 Z-2.8 I0.0063 J-0.0108
G2 X53.2137 Y2.9892 Z-2.8333 I-0.0125 J0.0
G2 Y3.0108 Z-2.8667 I0.0063 J0.0108
G2 X53.2325 Y3.0 Z-2.9 I0.0063 J-0.0108
G2 X53.2137 Y2.9892 Z-2.9333 I-0.0125 J0.0
G2 Y3.0108 Z-2.9667 I0.0063 J0.0108
G2 X53.2325 Y3.0 Z-3.0 I0.0062 J-0.0108
G2 X53.2137 Y2.9892 Z-3.0333 I-0.0125 J0.0
G2 Y3.0108 Z-3.0667 I0.0063 J0.0108
G2 X53.2325 Y3.0 Z-3.1 I0.0062 J-0.0108
G2 X53.2137 Y2.9892 Z-3.1333 I-0.0125 J0.0
